app/luts/cinematic_teal_orange.cube
TITLE "电影青橙"
# StyleForge original LUT. Cube format compatible with CubeLUT.cn / Premiere.
LUT_3D_SIZE 5
DOMAIN_MIN 0.0 0.0 0.0
DOMAIN_MAX 1.0 1.0 1.0
0.000000 0.000000 0.000000
0.000000 0.000000 0.303607
0.000000 0.000000 0.641397
0.000000 0.000000 0.892602
0.000000 0.000000 1.000000
0.000000 0.142151 0.000000
0.000000 0.140796 0.264855
0.000000 0.139440 0.611351
0.000000 0.138084 0.871260
0.000000 0.136726 1.000000
0.000000 0.515924 0.000000
0.000000 0.514851 0.225228
0.000000 0.513778 0.580428
0.000000 0.512704 0.849044
0.000000 0.511629 1.000000
0.000000 0.802631 0.000000
0.000000 0.801470 0.180985
0.000000 0.800113 0.541194
0.000000 0.798754 0.817217
0.000000 0.797392 1.000000
0.000000 1.000000 0.000000
0.000000 0.999652 0.109378
0.000000 0.998774 0.484303
0.000000 0.997893 0.775041
0.000000 0.997010 0.981592
0.020522 0.000000 0.000000
0.024821 0.000000 0.283978
0.029111 0.000000 0.626202
0.033393 0.000000 0.881840
0.037667 0.000000 1.000000
0.042569 0.138595 0.000000
0.046825 0.137238 0.244780
0.051073 0.135880 0.595709
0.055313 0.134521 0.860053
0.059544 0.133161 1.000000
0.064396 0.513109 0.000000
0.068610 0.512035 0.204706
0.072816 0.510959 0.564341
0.078326 0.509782 0.836969
0.092447 0.507934 1.000000
0.108557 0.799267 0.000000
0.122475 0.797906 0.144832
0.136299 0.796542 0.512537
0.150028 0.795176 0.796055
0.163664 0.793807 0.995386
0.179215 0.998226 0.000000
0.192648 0.997343 0.071915
0.205370 0.996539 0.455391
0.214709 0.996170 0.758414
0.224002 0.995800 0.973882
0.433858 0.000000 0.000000
0.437274 0.000000 0.264121
0.440681 0.000000 0.610779
0.444079 0.000000 0.870852
0.447470 0.000000 1.000000
0.451356 0.135034 0.000000
0.454729 0.133674 0.224477
0.458093 0.132314 0.579841
0.461449 0.130952 0.848619
0.464797 0.129590 1.000000
0.468634 0.510289 0.000000
0.477926 0.508631 0.179667
0.489074 0.506782 0.540152
0.500128 0.504930 0.816450
0.511087 0.503075 1.000000
0.523565 0.795692 0.000000
0.534322 0.794324 0.108012
0.544984 0.792953 0.483213
0.555552 0.791580 0.774226
0.566026 0.790204 0.981053
0.575564 0.996309 0.000000
0.582822 0.995939 0.048955
0.590034 0.995569 0.442717
0.597199 0.995199 0.748925
0.604316 0.994827 0.967579
0.752617 0.000000 0.000000
0.755149 0.000000 0.244037
0.757672 0.000000 0.595129
0.760188 0.000000 0.859636
0.762695 0.000000 1.000000
0.765565 0.131466 0.000000
0.768055 0.130104 0.203947
0.770536 0.128741 0.563745
0.774348 0.127155 0.836226
0.782632 0.124815 1.000000
0.792035 0.505629 0.000000
0.800116 0.503775 0.143489
0.808103 0.501919 0.511470
0.815996 0.500060 0.795264
0.823794 0.498198 0.994870
0.832639 0.792098 0.000000
0.840234 0.790723 0.070524
0.847177 0.789549 0.454927
0.852408 0.788974 0.758067
0.857592 0.788399 0.973652
0.863492 0.995338 0.000000
0.868575 0.994967 0.032981
0.873612 0.994596 0.429928
0.878602 0.994224 0.739321
0.883545 0.993852 0.961159
0.976798 0.000000 0.000000
0.978446 0.000000 0.223725
0.980086 0.000000 0.579252
0.981718 0.000000 0.848194
0.983342 0.000000 1.000000
0.985197 0.127892 0.000000
0.990031 0.125698 0.178348
0.995342 0.123356 0.539109
1.000000 0.121011 0.815682
1.000000 0.118664 1.000000
1.000000 0.500761 0.000000
1.000000 0.498901 0.106644
1.000000 0.497037 0.482121
1.000000 0.495171 0.773410
1.000000 0.493302 0.980512
1.000000 0.789191 0.000000
1.000000 0.788616 0.048370
1.000000 0.788041 0.442249
1.000000 0.787465 0.748574
1.000000 0.786888 0.967344
1.000000 0.994364 0.000000
1.000000 0.993992 0.016890
1.000000 0.993620 0.417022
1.000000 0.993528 0.732408
1.000000 0.993528 0.959008
