app/luts/cinematic_teal_orange.cube
TITLE "电影青橙"
# StyleForge original LUT. Cube format compatible with CubeLUT.cn / Premiere.
LUT_3D_SIZE 9
DOMAIN_MIN 0.0 0.0 0.0
DOMAIN_MAX 1.0 1.0 1.0
0.000000 0.000000 0.000000
0.000000 0.000000 0.102243
0.000000 0.000000 0.303607
0.000000 0.000000 0.483326
0.000000 0.000000 0.641397
0.000000 0.000000 0.777823
0.000000 0.000000 0.892602
0.000000 0.000000 0.985734
0.000000 0.000000 1.000000
0.000000 0.000000 0.000000
0.000000 0.000000 0.080800
0.000000 0.000000 0.284341
0.000000 0.000000 0.466235
0.000000 0.000000 0.626483
0.000000 0.000000 0.765085
0.000000 0.000000 0.882040
0.000000 0.000000 0.977349
0.000000 0.000000 1.000000
0.000000 0.142151 0.000000
0.000000 0.141473 0.059138
0.000000 0.140796 0.264855
0.000000 0.140118 0.448926
0.000000 0.139440 0.611351
0.000000 0.138762 0.752129
0.000000 0.138084 0.871260
0.000000 0.137405 0.968745
0.000000 0.136726 1.000000
0.000000 0.339920 0.000000
0.000000 0.339314 0.037257
0.000000 0.338707 0.245151
0.000000 0.338100 0.431398
0.000000 0.337492 0.595999
0.000000 0.336885 0.738953
0.000000 0.336277 0.860261
0.000000 0.335669 0.959923
0.000000 0.335061 1.000000
0.000000 0.515924 0.000000
0.000000 0.515388 0.015158
0.000000 0.514851 0.225228
0.000000 0.514315 0.413651
0.000000 0.513778 0.580428
0.000000 0.513241 0.725559
0.000000 0.512704 0.849044
0.000000 0.512167 0.950881
0.000000 0.511629 1.000000
0.000000 0.670160 0.000000
0.000000 0.669695 0.000000
0.000000 0.669229 0.205086
0.000000 0.668764 0.395686
0.000000 0.668298 0.564639
0.000000 0.667831 0.711946
0.000000 0.667309 0.837340
0.000000 0.666509 0.940102
0.000000 0.665708 1.000000
0.000000 0.802631 0.000000
0.000000 0.802147 0.000000
0.000000 0.801470 0.180985
0.000000 0.800792 0.371613
0.000000 0.800113 0.541194
0.000000 0.799434 0.689729
0.000000 0.798754 0.817217
0.000000 0.798073 0.923658
0.000000 0.797392 1.000000
0.000000 0.912300 0.000000
0.000000 0.911743 0.000000
0.000000 0.911186 0.145503
0.000000 0.910627 0.339810
0.000000 0.910068 0.513070
0.000000 0.909509 0.665284
0.000000 0.908948 0.796450
0.000000 0.908387 0.906570
0.000000 0.907826 0.995643
0.000000 1.000000 0.000000
0.000000 1.000000 0.000000
0.000000 0.999652 0.109378
0.000000 0.999213 0.307364
0.000000 0.998774 0.484303
0.000000 0.998334 0.640196
0.000000 0.997893 0.775041
0.000000 0.997452 0.888840
0.000000 0.997010 0.981592
0.000000 0.000000 0.000000
0.000000 0.000000 0.091348
0.000000 0.000000 0.293821
0.000000 0.000000 0.474648
0.000000 0.000000 0.633828
0.000000 0.000000 0.771362
0.000000 0.000000 0.887249
0.000000 0.000000 0.981490
0.000000 0.000000 1.000000
0.000000 0.000000 0.000000
0.000000 0.000000 0.069793
0.000000 0.000000 0.274443
0.000000 0.000000 0.457446
0.000000 0.000000 0.618802
0.000000 0.000000 0.758513
0.000000 0.000000 0.876577
0.000000 0.000000 0.972994
0.000000 0.000000 1.000000
0.000000 0.140374 0.000000
0.000000 0.139696 0.048020
0.000000 0.139018 0.254846
0.000000 0.138340 0.440025
0.000000 0.137661 0.603558
0.000000 0.136982 0.745445
0.000000 0.136303 0.865685
0.000000 0.135624 0.964279
0.000000 0.134945 1.000000
0.000000 0.338329 0.000000
0.000000 0.337722 0.026028
0.000000 0.337114 0.235030
0.000000 0.336506 0.422386
0.000000 0.335899 0.588095
0.000000 0.335290 0.732158
0.000000 0.334682 0.854575
0.000000 0.334073 0.955345
0.000000 0.333465 1.000000
0.000000 0.514517 0.000000
0.000000 0.513981 0.003817
0.000000 0.513444 0.214995
0.000000 0.512907 0.404527
0.000000 0.512370 0.572413
0.000000 0.511832 0.718653
0.000000 0.511294 0.843246
0.000000 0.510756 0.946192
0.000000 0.510218 1.000000
0.000000 0.668939 0.000000
0.000000 0.668473 0.000000
0.000000 0.668007 0.194742
0.000000 0.667541 0.386450
0.000000 0.666811 0.554758
0.000000 0.666010 0.701487
0.000000 0.665209 0.827170
0.000000 0.664407 0.931806
0.000000 0.663604 1.000000
0.000000 0.801047 0.000000
0.000000 0.800369 0.000000
0.000000 0.799690 0.162992
0.000000 0.799010 0.355494
0.000000 0.798330 0.526949
0.000000 0.797649 0.677358
0.000000 0.796967 0.806719
0.000000 0.796285 0.915034
0.000000 0.795602 1.000000
0.000000 0.910838 0.000000
0.000000 0.910279 0.000000
0.000000 0.909720 0.127182
0.000000 0.909160 0.323364
0.000000 0.908599 0.498498
0.000000 0.908038 0.652585
0.000000 0.907476 0.785626
0.000000 0.906913 0.897619
0.000000 0.906349 0.988566
0.000000 0.999379 0.000000
0.000000 0.998939 0.000000
0.000000 0.998500 0.090730
0.000000 0.998059 0.290590
0.000000 0.997618 0.469403
0.000000 0.997177 0.627169
0.000000 0.996734 0.763889
0.000000 0.996470 0.880997
0.000000 0.996285 0.976991
0.020522 0.000000 0.000000
0.022672 0.000000 0.080396
0.024821 0.000000 0.283978
0.026967 0.000000 0.465913
0.029111 0.000000 0.626202
0.031253 0.000000 0.764844
0.033393 0.000000 0.881840
0.035532 0.000000 0.977190
0.037667 0.000000 1.000000
0.031573 0.000000 0.000000
0.033712 0.000000 0.058730
0.035850 0.000000 0.264488
0.037986 0.000000 0.448600
0.040119 0.000000 0.611065
0.042251 0.000000 0.751884
0.044380 0.000000 0.871056
0.046508 0.000000 0.968582
0.048633 0.000000 1.000000
0.042569 0.138595 0.000000
0.044698 0.137917 0.036845
0.046825 0.137238 0.244780
0.048950 0.136559 0.431068
0.051073 0.135880 0.595709
0.053194 0.135201 0.738704
0.055313 0.134521 0.860053
0.057429 0.133841 0.959755
0.059544 0.133161 1.000000
0.053510 0.336736 0.000000
0.055628 0.336128 0.014741
0.057745 0.335520 0.224852
0.059859 0.334912 0.413317
0.061972 0.334303 0.580135
0.064082 0.333694 0.725306
0.066190 0.333085 0.848831
0.068296 0.332476 0.950710
0.070400 0.331867 1.000000
0.064396 0.513109 0.000000
0.066504 0.512572 0.000000
0.068610 0.512035 0.204706
0.070714 0.511497 0.395347
0.072816 0.510959 0.564341
0.074915 0.510421 0.711689
0.078326 0.509782 0.836969
0.085398 0.508858 0.939800
0.092447 0.507934 1.000000
0.075228 0.667717 0.000000
0.079382 0.667113 0.000000
0.086451 0.666312 0.180326
0.093496 0.665511 0.371023
0.100518 0.664709 0.540673
0.107516 0.663907 0.689277
0.114490 0.663104 0.816834
0.121441 0.662300 0.923343
0.128368 0.661496 1.000000
0.108557 0.799267 0.000000
0.115528 0.798587 0.000000
0.122475 0.797906 0.144832
0.129399 0.797224 0.339208
0.136299 0.796542 0.512537
0.143175 0.795859 0.664820
0.150028 0.795176 0.796055
0.156858 0.794492 0.906244
0.163664 0.793807 0.995386
0.144199 0.909371 0.000000
0.151048 0.908811 0.000000
0.157874 0.908250 0.108695
0.164676 0.907688 0.306750
0.171455 0.907125 0.483758
0.178210 0.906562 0.639719
0.184942 0.905998 0.774634
0.191649 0.905434 0.888501
0.198334 0.904868 0.981322
0.179215 0.998226 0.000000
0.185943 0.997785 0.000000
0.192648 0.997343 0.071915
0.199329 0.996901 0.273649
0.205370 0.996539 0.455391
0.210045 0.996355 0.617847
0.214709 0.996170 0.758414
0.219361 0.995985 0.877092
0.224002 0.995800 0.973882
0.239012 0.000000 0.000000
0.240942 0.000000 0.069387
0.242869 0.000000 0.274078
0.244795 0.000000 0.457121
0.246718 0.000000 0.618519
0.248639 0.000000 0.758270
0.250559 0.000000 0.876374
0.252476 0.000000 0.972833
0.254391 0.000000 1.000000
0.248926 0.000000 0.000000
0.250845 0.000000 0.047610
0.252762 0.000000 0.254476
0.254676 0.000000 0.439697
0.256589 0.000000 0.603270
0.258500 0.000000 0.745198
0.260408 0.000000 0.865479
0.262315 0.000000 0.964113
0.264219 0.000000 1.000000
0.258784 0.136815 0.000000
0.260693 0.136136 0.025614
0.262599 0.135457 0.234656
0.264503 0.134778 0.422053
0.266405 0.134098 0.587803
0.268305 0.133418 0.731907
0.270203 0.132738 0.854364
0.272099 0.132057 0.955175
0.273993 0.131377 1.000000
0.268588 0.335141 0.000000
0.270486 0.334533 0.003398
0.272382 0.333924 0.214618
0.274275 0.333315 0.404191
0.276167 0.332706 0.572117
0.278056 0.332097 0.718397
0.279943 0.331487 0.843031
0.281829 0.330877 0.946018
0.283712 0.330267 1.000000
0.278338 0.511700 0.000000
0.280225 0.511162 0.000000
0.282110 0.510624 0.194360
0.283993 0.510086 0.386110
0.289834 0.509207 0.554243
0.296163 0.508283 0.701041
0.302469 0.507358 0.826793
0.308751 0.506433 0.931498
0.315009 0.505507 1.000000
0.297105 0.665813 0.000000
0.303407 0.665012 0.000000
0.309685 0.664210 0.162327
0.315940 0.663407 0.354898
0.322171 0.662603 0.526422
0.328379 0.661799 0.676899
0.334563 0.660994 0.806330
0.340724 0.660189 0.914714
0.346860 0.659382 1.000000
0.329303 0.797482 0.000000
0.335483 0.796800 0.000000
0.341640 0.796117 0.126505
0.347774 0.795434 0.322755
0.353883 0.794750 0.497958
0.359969 0.794065 0.652115
0.366032 0.793380 0.785224
0.372071 0.792694 0.897287
0.378087 0.792008 0.988303
0.360875 0.907900 0.000000
0.366934 0.907337 0.000000
0.372970 0.906775 0.090041
0.378982 0.906211 0.289970
0.384970 0.905647 0.468852
0.390935 0.905082 0.626687
0.396876 0.904516 0.763475
0.401418 0.904210 0.880854
0.405575 0.903974 0.976877
0.391822 0.997068 0.000000
0.397760 0.996625 0.000000
0.402039 0.996424 0.056899
0.406194 0.996239 0.263928
0.410338 0.996055 0.449069
0.414469 0.995870 0.612321
0.418590 0.995685 0.753684
0.422698 0.995499 0.873159
0.426795 0.995314 0.970745
0.433858 0.000000 0.000000
0.435567 0.000000 0.058322
0.437274 0.000000 0.264121
0.438978 0.000000 0.448273
0.440681 0.000000 0.610779
0.442381 0.000000 0.751639
0.444079 0.000000 0.870852
0.445776 0.000000 0.968419
0.447470 0.000000 1.000000
0.442634 0.000000 0.000000
0.444332 0.000000 0.036433
0.446028 0.000000 0.244408
0.447722 0.000000 0.430737
0.449414 0.000000 0.595419
0.451104 0.000000 0.738455
0.452792 0.000000 0.859845
0.454477 0.000000 0.959588
0.456161 0.000000 1.000000
0.451356 0.135034 0.000000
0.453043 0.134354 0.014325
0.454729 0.133674 0.224477
0.456412 0.132994 0.412982
0.458093 0.132314 0.579841
0.459772 0.131633 0.725053
0.461449 0.130952 0.848619
0.463124 0.130271 0.950538
0.464797 0.129590 1.000000
0.460022 0.333545 0.000000
0.461699 0.332936 0.000000
0.463374 0.332326 0.204327
0.465047 0.331717 0.395008
0.466717 0.331107 0.564043
0.468386 0.330497 0.711432
0.471478 0.329730 0.836597
0.477091 0.328684 0.939497
0.482680 0.327636 1.000000
0.468634 0.510289 0.000000
0.472316 0.509555 0.000000
0.477926 0.508631 0.179667
0.483512 0.507707 0.370433
0.489074 0.506782 0.540152
0.494613 0.505856 0.688824
0.500128 0.504930 0.816450
0.505619 0.504003 0.923029
0.511087 0.503075 1.000000
0.495437 0.663710 0.000000
0.500948 0.662906 0.000000
0.506436 0.662102 0.144161
0.511901 0.661298 0.338606
0.517342 0.660492 0.512004
0.522759 0.659686 0.664355
0.528153 0.658880 0.795660
0.533523 0.658072 0.905917
0.538869 0.657264 0.995128
0.523565 0.795692 0.000000
0.528955 0.795008 0.000000
0.534322 0.794324 0.108012
0.539665 0.793639 0.306136
0.544984 0.792953 0.483213
0.550280 0.792267 0.639243
0.555552 0.791580 0.774226
0.560801 0.790892 0.888163
0.566026 0.790204 0.981053
0.551068 0.906424 0.000000
0.556336 0.905860 0.000000
0.561582 0.905295 0.071220
0.566803 0.904730 0.273023
0.571373 0.904299 0.455159
0.575021 0.904063 0.617644
0.578658 0.903827 0.758240
0.582283 0.903591 0.876948
0.585896 0.903354 0.973767
0.575564 0.996309 0.000000
0.579199 0.996124 0.000000
0.582822 0.995939 0.048955
0.586434 0.995754 0.256781
0.590034 0.995569 0.442717
0.593622 0.995384 0.606766
0.597199 0.995199 0.748925
0.600763 0.995013 0.869196
0.604316 0.994827 0.967579
0.605060 0.000000 0.000000
0.606548 0.000000 0.047200
0.608033 0.000000 0.254107
0.609517 0.000000 0.439368
0.610999 0.000000 0.602983
0.612478 0.000000 0.744951
0.613956 0.000000 0.865273
0.615431 0.000000 0.963948
0.616904 0.000000 1.000000
0.612699 0.000000 0.000000
0.614176 0.000000 0.025199
0.615651 0.000000 0.234283
0.617124 0.000000 0.421720
0.618595 0.000000 0.587511
0.620064 0.000000 0.731656
0.621531 0.000000 0.854154
0.622995 0.000000 0.955006
0.624458 0.000000 1.000000
0.620283 0.133251 0.000000
0.621749 0.132571 0.002980
0.623214 0.131890 0.214240
0.624676 0.131209 0.403854
0.626137 0.130528 0.571821
0.627595 0.129847 0.718142
0.629051 0.129166 0.842817
0.630505 0.128484 0.945845
0.631957 0.127802 1.000000
0.627812 0.331947 0.000000
0.629268 0.331337 0.000000
0.630722 0.330727 0.193979
0.632174 0.330117 0.385769
0.637007 0.329079 0.553727
0.641876 0.328031 0.700595
0.646723 0.326984 0.826415
0.651545 0.325935 0.931189
0.656345 0.324886 1.000000
0.642601 0.508056 0.000000
0.647443 0.507131 0.000000
0.652263 0.506206 0.161661
0.657058 0.505279 0.354301
0.661830 0.504353 0.525895
0.666579 0.503425 0.676441
0.671304 0.502497 0.805940
0.676005 0.501568 0.914393
0.680682 0.500639 1.000000
0.667285 0.661601 0.000000
0.672006 0.660796 0.000000
0.676704 0.659991 0.125828
0.681378 0.659184 0.322147
0.686028 0.658377 0.497419
0.690656 0.657569 0.651644
0.695259 0.656761 0.784823
0.699839 0.655952 0.896954
0.704395 0.655142 0.988039
0.691343 0.793897 0.000000
0.695943 0.793212 0.000000
0.700520 0.792526 0.089351
0.705072 0.791839 0.289349
0.709602 0.791151 0.468300
0.714107 0.790463 0.626204
0.718589 0.789774 0.763062
0.721885 0.789440 0.880711
0.725015 0.789153 0.976763
0.714777 0.904943 0.000000
0.719212 0.904388 0.000000
0.722352 0.904152 0.056607
0.725480 0.903916 0.263666
0.728597 0.903680 0.448836
0.731702 0.903444 0.612117
0.734795 0.903207 0.753510
0.737876 0.902971 0.873013
0.740946 0.902734 0.970629
0.732163 0.995824 0.000000
0.735255 0.995639 0.000000
0.738334 0.995454 0.040982
0.741402 0.995268 0.249604
0.744459 0.995083 0.436337
0.747503 0.994897 0.601182
0.750536 0.994712 0.744137
0.753557 0.994526 0.865205
0.756567 0.994340 0.964383
0.752617 0.000000 0.000000
0.753884 0.000000 0.036021
0.755149 0.000000 0.244037
0.756412 0.000000 0.430406
0.757672 0.000000 0.595129
0.758931 0.000000 0.738206
0.760188 0.000000 0.859636
0.761442 0.000000 0.959420
0.762695 0.000000 1.000000
0.759119 0.000000 0.000000
0.760375 0.000000 0.013909
0.761629 0.000000 0.224101
0.762881 0.000000 0.412647
0.764131 0.000000 0.579547
0.765379 0.000000 0.724800
0.766625 0.000000 0.848406
0.767869 0.000000 0.950367
0.769111 0.000000 1.000000
0.765565 0.131466 0.000000
0.766811 0.130785 0.000000
0.768055 0.130104 0.203947
0.769296 0.129423 0.394669
0.770536 0.128741 0.563745
0.771773 0.128059 0.711174
0.774348 0.127155 0.836226
0.778502 0.125985 0.939195
0.782632 0.124815 1.000000
0.771957 0.330347 0.000000
0.774969 0.329473 0.000000
0.779119 0.328426 0.179007
0.783246 0.327379 0.369842
0.787349 0.326331 0.539630
0.791428 0.325282 0.688372
0.795484 0.324232 0.816066
0.799517 0.323182 0.922714
0.803526 0.322131 1.000000
0.792035 0.505629 0.000000
0.796087 0.504702 0.000000
0.800116 0.503775 0.143489
0.804121 0.502847 0.338003
0.808103 0.501919 0.511470
0.812061 0.500990 0.663890
0.815996 0.500060 0.795264
0.819907 0.499129 0.905591
0.823794 0.498198 0.994870
0.812649 0.659488 0.000000
0.816580 0.658682 0.000000
0.820488 0.657874 0.107328
0.824372 0.657066 0.305521
0.828232 0.656257 0.482667
0.832069 0.655447 0.638766
0.835882 0.654637 0.773818
0.839671 0.653826 0.887824
0.843437 0.653015 0.980783
0.832639 0.792098 0.000000
0.836448 0.791411 0.000000
0.840234 0.790723 0.070524
0.843997 0.790034 0.272396
0.847177 0.789549 0.454927
0.849798 0.789261 0.617441
0.852408 0.788974 0.758067
0.855006 0.788687 0.876804
0.857592 0.788399 0.973652
0.850188 0.904005 0.000000
0.852796 0.903769 0.000000
0.855392 0.903533 0.048662
0.857977 0.903296 0.256517
0.860550 0.903060 0.442483
0.863111 0.902823 0.606561
0.865660 0.902587 0.748750
0.868198 0.902350 0.869050
0.870724 0.902113 0.967462
0.863492 0.995338 0.000000
0.866039 0.995153 0.000000
0.868575 0.994967 0.032981
0.871099 0.994782 0.242399
0.873612 0.994596 0.429928
0.876113 0.994410 0.595569
0.878602 0.994224 0.739321
0.881079 0.994038 0.861184
0.883545 0.993852 0.961159
0.876530 0.000000 0.000000
0.877576 0.000000 0.024785
0.878620 0.000000 0.233909
0.879662 0.000000 0.421388
0.880702 0.000000 0.587219
0.881739 0.000000 0.731405
0.882775 0.000000 0.853944
0.883809 0.000000 0.954836
0.884840 0.000000 1.000000
0.881894 0.000000 0.000000
0.882929 0.000000 0.002562
0.883963 0.000000 0.213862
0.884994 0.000000 0.403517
0.886023 0.000000 0.571525
0.887050 0.000000 0.717887
0.888076 0.000000 0.842602
0.889099 0.000000 0.945671
0.890120 0.000000 1.000000
0.887203 0.129680 0.000000
0.888228 0.128998 0.000000
0.889251 0.128317 0.193597
0.890463 0.127596 0.385228
0.893898 0.126427 0.553212
0.897308 0.125256 0.700148
0.900695 0.124085 0.826038
0.904059 0.122914 0.930880
0.907399 0.121742 1.000000
0.897815 0.327774 0.000000
0.901198 0.326726 0.000000
0.904558 0.325678 0.160996
0.907895 0.324628 0.353705
0.911208 0.323579 0.525367
0.914497 0.322528 0.675982
0.917763 0.321477 0.805551
0.921005 0.320425 0.914072
0.924223 0.319372 1.000000
0.914985 0.503197 0.000000
0.918247 0.502269 0.000000
0.921486 0.501340 0.125150
0.924701 0.500411 0.321538
0.927892 0.499480 0.496879
0.931060 0.498549 0.651173
0.934204 0.497618 0.784421
0.937325 0.496686 0.896621
0.940422 0.495753 0.987775
0.931531 0.657371 0.000000
0.934671 0.656562 0.000000
0.937788 0.655753 0.088662
0.940882 0.654943 0.288728
0.943952 0.654132 0.467748
0.946998 0.653321 0.625721
0.950021 0.652509 0.762648
0.952153 0.652161 0.880567
0.954256 0.651822 0.976649
0.947450 0.790294 0.000000
0.950355 0.789657 0.000000
0.952468 0.789370 0.056316
0.954569 0.789082 0.263403
0.956658 0.788795 0.448602
0.958736 0.788507 0.611913
0.960801 0.788220 0.753335
0.962856 0.787932 0.872868
0.964898 0.787644 0.970513
0.959044 0.903385 0.000000
0.961109 0.903149 0.000000
0.963161 0.902912 0.040689
0.965202 0.902676 0.249340
0.967231 0.902439 0.436102
0.969248 0.902202 0.600976
0.971254 0.901965 0.743961
0.973248 0.901728 0.865057
0.975230 0.901491 0.964265
0.969548 0.994852 0.000000
0.971552 0.994666 0.000000
0.973544 0.994480 0.024950
0.975525 0.994294 0.235164
0.977494 0.994108 0.423490
0.979451 0.993922 0.589927
0.981396 0.993736 0.734475
0.983330 0.993549 0.857135
0.983550 0.993528 0.959008
0.976798 0.000000 0.000000
0.977623 0.000000 0.013492
0.978446 0.000000 0.223725
0.979267 0.000000 0.412312
0.980086 0.000000 0.579252
0.980903 0.000000 0.724546
0.981718 0.000000 0.848194
0.982531 0.000000 0.950195
0.983342 0.000000 1.000000
0.981025 0.000000 0.000000
0.981840 0.000000 0.000000
0.982652 0.000000 0.203567
0.983462 0.000000 0.394330
0.984271 0.000000 0.563447
0.985077 0.000000 0.710917
0.986936 0.000000 0.835854
0.989631 0.000000 0.938892
0.992302 0.000000 1.000000
0.985197 0.127892 0.000000
0.987340 0.126868 0.000000
0.990031 0.125698 0.178348
0.992698 0.124527 0.369251
0.995342 0.123356 0.539109
0.997963 0.122184 0.687919
1.000000 0.121011 0.815682
1.000000 0.119838 0.922399
1.000000 0.118664 1.000000
0.998351 0.325024 0.000000
1.000000 0.323975 0.000000
1.000000 0.322924 0.142818
1.000000 0.321873 0.337400
1.000000 0.320822 0.510936
1.000000 0.319769 0.663426
1.000000 0.318716 0.794868
1.000000 0.317662 0.905264
1.000000 0.316608 0.994612
1.000000 0.500761 0.000000
1.000000 0.499831 0.000000
1.000000 0.498901 0.106644
1.000000 0.497969 0.304906
1.000000 0.497037 0.482121
1.000000 0.496105 0.638289
1.000000 0.495171 0.773410
1.000000 0.494237 0.887485
1.000000 0.493302 0.980512
1.000000 0.655249 0.000000
1.000000 0.654438 0.000000
1.000000 0.653627 0.069828
1.000000 0.652815 0.271769
1.000000 0.652289 0.454695
1.000000 0.651950 0.617238
1.000000 0.651611 0.757893
1.000000 0.651273 0.876660
1.000000 0.650934 0.973537
1.000000 0.789191 0.000000
1.000000 0.788903 0.000000
1.000000 0.788616 0.048370
1.000000 0.788328 0.256254
1.000000 0.788041 0.442249
1.000000 0.787753 0.606356
1.000000 0.787465 0.748574
1.000000 0.787176 0.868904
1.000000 0.786888 0.967344
1.000000 0.902765 0.000000
1.000000 0.902528 0.000000
1.000000 0.902291 0.032686
1.000000 0.902055 0.242133
1.000000 0.901817 0.429692
1.000000 0.901580 0.595362
1.000000 0.901343 0.739143
1.000000 0.901106 0.861036
1.000000 0.900868 0.961040
1.000000 0.994364 0.000000
1.000000 0.994178 0.000000
1.000000 0.993992 0.016890
1.000000 0.993806 0.227901
1.000000 0.993620 0.417022
1.000000 0.993528 0.585358
1.000000 0.993528 0.732408
1.000000 0.993528 0.856958
1.000000 0.993528 0.959008
