app/luts/cinematic_teal_orange.cube
TITLE "电影青橙"
# StyleForge original LUT. Cube format compatible with CubeLUT.cn / Premiere.
LUT_3D_SIZE 17
DOMAIN_MIN 0.0 0.0 0.0
DOMAIN_MAX 1.0 1.0 1.0
0.000000 0.000000 0.000000
0.000000 0.000000 0.000000
0.000000 0.000000 0.102243
0.000000 0.000000 0.205631
0.000000 0.000000 0.303607
0.000000 0.000000 0.396172
0.000000 0.000000 0.483326
0.000000 0.000000 0.565067
0.000000 0.000000 0.641397
0.000000 0.000000 0.712316
0.000000 0.000000 0.777823
0.000000 0.000000 0.837918
0.000000 0.000000 0.892602
0.000000 0.000000 0.941874
0.000000 0.000000 0.985734
0.000000 0.000000 1.000000
0.000000 0.000000 1.000000
0.000000 0.000000 0.000000
0.000000 0.000000 0.000000
0.000000 0.000000 0.091549
0.000000 0.000000 0.195481
0.000000 0.000000 0.294001
0.000000 0.000000 0.387110
0.000000 0.000000 0.474808
0.000000 0.000000 0.557094
0.000000 0.000000 0.633968
0.000000 0.000000 0.705430
0.000000 0.000000 0.771481
0.000000 0.000000 0.832121
0.000000 0.000000 0.887348
0.000000 0.000000 0.937164
0.000000 0.000000 0.981569
0.000000 0.000000 1.000000
0.000000 0.000000 1.000000
0.000000 0.000000 0.000000
0.000000 0.000000 0.000000
0.000000 0.000000 0.080800
0.000000 0.000000 0.185276
0.000000 0.000000 0.284341
0.000000 0.000000 0.377994
0.000000 0.000000 0.466235
0.000000 0.000000 0.549065
0.000000 0.000000 0.626483
0.000000 0.000000 0.698490
0.000000 0.000000 0.765085
0.000000 0.000000 0.826268
0.000000 0.000000 0.882040
0.000000 0.000000 0.932401
0.000000 0.000000 0.977349
0.000000 0.000000 1.000000
0.000000 0.000000 1.000000
0.000000 0.035103 0.000000
0.000000 0.034747 0.000000
0.000000 0.034391 0.069996
0.000000 0.034034 0.175017
0.000000 0.033678 0.274625
0.000000 0.033322 0.368822
0.000000 0.032965 0.457608
0.000000 0.032608 0.540982
0.000000 0.032252 0.618944
0.000000 0.031895 0.691495
0.000000 0.031538 0.758634
0.000000 0.031181 0.820362
0.000000 0.030824 0.876678
0.000000 0.030468 0.927582
0.000000 0.030111 0.973075
0.000000 0.029753 1.000000
0.000000 0.029396 1.000000
0.000000 0.142151 0.000000
0.000000 0.141812 0.000000
0.000000 0.141473 0.059138
0.000000 0.141135 0.164702
0.000000 0.140796 0.264855
0.000000 0.140457 0.359596
0.000000 0.140118 0.448926
0.000000 0.139779 0.532844
0.000000 0.139440 0.611351
0.000000 0.139101 0.684445
0.000000 0.138762 0.752129
0.000000 0.138423 0.814400
0.000000 0.138084 0.871260
0.000000 0.137744 0.922709
0.000000 0.137405 0.968745
0.000000 0.137066 1.000000
0.000000 0.136726 1.000000
0.000000 0.243756 0.000000
0.000000 0.243435 0.000000
0.000000 0.243114 0.048225
0.000000 0.242793 0.154333
0.000000 0.242472 0.255030
0.000000 0.242151 0.350316
0.000000 0.241830 0.440189
0.000000 0.241509 0.524652
0.000000 0.241187 0.603702
0.000000 0.240866 0.677341
0.000000 0.240544 0.745568
0.000000 0.240223 0.808384
0.000000 0.239901 0.865788
0.000000 0.239580 0.917781
0.000000 0.239258 0.964361
0.000000 0.238936 1.000000
0.000000 0.238614 1.000000
0.000000 0.339920 0.000000
0.000000 0.339617 0.000000
0.000000 0.339314 0.037257
0.000000 0.339010 0.143910
0.000000 0.338707 0.245151
0.000000 0.338403 0.340980
0.000000 0.338100 0.431398
0.000000 0.337796 0.516404
0.000000 0.337492 0.595999
0.000000 0.337189 0.670182
0.000000 0.336885 0.738953
0.000000 0.336581 0.802313
0.000000 0.336277 0.860261
0.000000 0.335973 0.912798
0.000000 0.335669 0.959923
0.000000 0.335365 1.000000
0.000000 0.335061 1.000000
0.000000 0.430643 0.000000
0.000000 0.430357 0.000000
0.000000 0.430071 0.026235
0.000000 0.429786 0.133432
0.000000 0.429500 0.235217
0.000000 0.429214 0.331590
0.000000 0.428928 0.422552
0.000000 0.428642 0.508102
0.000000 0.428356 0.588241
0.000000 0.428070 0.662968
0.000000 0.427784 0.732284
0.000000 0.427498 0.796188
0.000000 0.427212 0.854680
0.000000 0.426925 0.907760
0.000000 0.426639 0.955430
0.000000 0.426352 0.997687
0.000000 0.426066 1.000000
0.000000 0.515924 0.000000
0.000000 0.515656 0.000000
0.000000 0.515388 0.015158
0.000000 0.515119 0.122898
0.000000 0.514851 0.225228
0.000000 0.514583 0.322145
0.000000 0.514315 0.413651
0.000000 0.514047 0.499746
0.000000 0.513778 0.580428
0.000000 0.513510 0.655700
0.000000 0.513241 0.725559
0.000000 0.512973 0.790007
0.000000 0.512704 0.849044
0.000000 0.512436 0.902668
0.000000 0.512167 0.950881
0.000000 0.511898 0.993683
0.000000 0.511629 1.000000
0.000000 0.595763 0.000000
0.000000 0.595512 0.000000
0.000000 0.595262 0.004026
0.000000 0.595012 0.112311
0.000000 0.594761 0.215184
0.000000 0.594511 0.312646
0.000000 0.594260 0.404696
0.000000 0.594009 0.491334
0.000000 0.593759 0.572561
0.000000 0.593508 0.648376
0.000000 0.593257 0.718780
0.000000 0.593006 0.783772
0.000000 0.592755 0.843353
0.000000 0.592504 0.897521
0.000000 0.592253 0.946279
0.000000 0.592002 0.989624
0.000000 0.591751 1.000000
0.000000 0.670160 0.000000
0.000000 0.669928 0.000000
0.000000 0.669695 0.000000
0.000000 0.669462 0.101668
0.000000 0.669229 0.205086
0.000000 0.668997 0.303091
0.000000 0.668764 0.395686
0.000000 0.668531 0.482868
0.000000 0.668298 0.564639
0.000000 0.668064 0.640999
0.000000 0.667831 0.711946
0.000000 0.667598 0.777483
0.000000 0.667309 0.837340
0.000000 0.666909 0.891352
0.000000 0.666509 0.940102
0.000000 0.666109 0.983591
0.000000 0.665708 1.000000
0.000000 0.739116 0.000000
0.000000 0.738901 0.000000
0.000000 0.738686 0.000000
0.000000 0.738471 0.090971
0.000000 0.738256 0.194933
0.000000 0.738041 0.293482
0.000000 0.737826 0.386621
0.000000 0.737536 0.473775
0.000000 0.737167 0.555015
0.000000 0.736797 0.630994
0.000000 0.736427 0.701710
0.000000 0.736058 0.767165
0.000000 0.735688 0.827359
0.000000 0.735318 0.882290
0.000000 0.734947 0.931960
0.000000 0.734577 0.976368
0.000000 0.734206 1.000000
0.000000 0.802631 0.000000
0.000000 0.802433 0.000000
0.000000 0.802147 0.000000
0.000000 0.801808 0.077778
0.000000 0.801470 0.180985
0.000000 0.801131 0.278930
0.000000 0.800792 0.371613
0.000000 0.800452 0.459035
0.000000 0.800113 0.541194
0.000000 0.799774 0.618093
0.000000 0.799434 0.689729
0.000000 0.799094 0.756104
0.000000 0.798754 0.817217
0.000000 0.798414 0.873068
0.000000 0.798073 0.923658
0.000000 0.797733 0.968986
0.000000 0.797392 1.000000
0.000000 0.860218 0.000000
0.000000 0.859910 0.000000
0.000000 0.859601 0.000000
0.000000 0.859293 0.059198
0.000000 0.858984 0.163324
0.000000 0.858675 0.262189
0.000000 0.858366 0.355792
0.000000 0.858056 0.444133
0.000000 0.857747 0.527213
0.000000 0.857437 0.605031
0.000000 0.857127 0.677587
0.000000 0.856818 0.744881
0.000000 0.856507 0.806914
0.000000 0.856197 0.863685
0.000000 0.855887 0.915194
0.000000 0.855576 0.961442
0.000000 0.855265 1.000000
0.000000 0.912300 0.000000
0.000000 0.912022 0.000000
0.000000 0.911743 0.000000
0.000000 0.911465 0.040457
0.000000 0.911186 0.145503
0.000000 0.910907 0.245287
0.000000 0.910627 0.339810
0.000000 0.910348 0.429071
0.000000 0.910068 0.513070
0.000000 0.909789 0.591808
0.000000 0.909509 0.665284
0.000000 0.909229 0.733498
0.000000 0.908948 0.796450
0.000000 0.908668 0.854141
0.000000 0.908387 0.906570
0.000000 0.908107 0.953738
0.000000 0.907826 0.995643
0.000000 0.959070 0.000000
0.000000 0.958821 0.000000
0.000000 0.958573 0.000000
0.000000 0.958324 0.021555
0.000000 0.958075 0.127521
0.000000 0.957826 0.228225
0.000000 0.957576 0.323668
0.000000 0.957327 0.413848
0.000000 0.957077 0.498767
0.000000 0.956827 0.578425
0.000000 0.956577 0.652820
0.000000 0.956327 0.721954
0.000000 0.956077 0.785826
0.000000 0.955827 0.844437
0.000000 0.955576 0.897785
0.000000 0.955325 0.945872
0.000000 0.955074 0.988698
0.000000 1.000000 0.000000
0.000000 1.000000 0.000000
0.000000 1.000000 0.000000
0.000000 0.999871 0.002493
0.000000 0.999652 0.109378
0.000000 0.999432 0.211002
0.000000 0.999213 0.307364
0.000000 0.998993 0.398465
0.000000 0.998774 0.484303
0.000000 0.998554 0.564880
0.000000 0.998334 0.640196
0.000000 0.998113 0.710249
0.000000 0.997893 0.775041
0.000000 0.997672 0.834571
0.000000 0.997452 0.888840
0.000000 0.997231 0.937847
0.000000 0.997010 0.981592
0.000000 0.000000 0.000000
0.000000 0.000000 0.000000
0.000000 0.000000 0.096802
0.000000 0.000000 0.200468
0.000000 0.000000 0.298721
0.000000 0.000000 0.391563
0.000000 0.000000 0.478994
0.000000 0.000000 0.561013
0.000000 0.000000 0.637620
0.000000 0.000000 0.708815
0.000000 0.000000 0.774599
0.000000 0.000000 0.834972
0.000000 0.000000 0.889933
0.000000 0.000000 0.939482
0.000000 0.000000 0.983619
0.000000 0.000000 1.000000
0.000000 0.000000 1.000000
0.000000 0.000000 0.000000
0.000000 0.000000 0.000000
0.000000 0.000000 0.086080
0.000000 0.000000 0.190290
0.000000 0.000000 0.289087
0.000000 0.000000 0.382474
0.000000 0.000000 0.470448
0.000000 0.000000 0.553011
0.000000 0.000000 0.630162
0.000000 0.000000 0.701902
0.000000 0.000000 0.768230
0.000000 0.000000 0.829147
0.000000 0.000000 0.884651
0.000000 0.000000 0.934745
0.000000 0.000000 0.979426
0.000000 0.000000 1.000000
0.000000 0.000000 1.000000
0.000000 0.000000 0.000000
0.000000 0.000000 0.000000
0.000000 0.000000 0.075304
0.000000 0.000000 0.180057
0.000000 0.000000 0.279399
0.000000 0.000000 0.373329
0.000000 0.000000 0.461848
0.000000 0.000000 0.544955
0.000000 0.000000 0.622650
0.000000 0.000000 0.694934
0.000000 0.000000 0.761806
0.000000 0.000000 0.823267
0.000000 0.000000 0.879315
0.000000 0.000000 0.929953
0.000000 0.000000 0.975179
0.000000 0.000000 1.000000
0.000000 0.000000 1.000000
0.000000 0.034169 0.000000
0.000000 0.033813 0.000000
0.000000 0.033456 0.064472
0.000000 0.033099 0.169770
0.000000 0.032743 0.269656
0.000000 0.032386 0.364130
0.000000 0.032030 0.453193
0.000000 0.031673 0.536844
0.000000 0.031316 0.615083
0.000000 0.030959 0.687911
0.000000 0.030602 0.755327
0.000000 0.030245 0.817332
0.000000 0.029888 0.873925
0.000000 0.029531 0.925106
0.000000 0.029174 0.970876
0.000000 0.028817 1.000000
0.000000 0.028459 1.000000
0.000000 0.141262 0.000000
0.000000 0.140924 0.000000
0.000000 0.140585 0.053586
0.000000 0.140246 0.159428
0.000000 0.139907 0.259858
0.000000 0.139568 0.354876
0.000000 0.139229 0.444483
0.000000 0.138890 0.528678
0.000000 0.138551 0.607462
0.000000 0.138212 0.680833
0.000000 0.137872 0.748794
0.000000 0.137533 0.811343
0.000000 0.137194 0.868480
0.000000 0.136854 0.920205
0.000000 0.136515 0.966519
0.000000 0.136175 1.000000
0.000000 0.135836 1.000000
0.000000 0.242914 0.000000
0.000000 0.242593 0.000000
0.000000 0.242272 0.042645
0.000000 0.241951 0.149031
0.000000 0.241630 0.250005
0.000000 0.241308 0.345567
0.000000 0.240987 0.435718
0.000000 0.240666 0.520458
0.000000 0.240344 0.599785
0.000000 0.240023 0.673701
0.000000 0.239701 0.742206
0.000000 0.239379 0.805298
0.000000 0.239058 0.862980
0.000000 0.238736 0.915249
0.000000 0.238414 0.962107
0.000000 0.238092 1.000000
0.000000 0.237770 1.000000
0.000000 0.339125 0.000000
0.000000 0.338821 0.000000
0.000000 0.338518 0.031650
0.000000 0.338214 0.138579
0.000000 0.337911 0.240097
0.000000 0.337607 0.336204
0.000000 0.337303 0.426899
0.000000 0.337000 0.512182
0.000000 0.336696 0.592054
0.000000 0.336392 0.666514
0.000000 0.336088 0.735563
0.000000 0.335784 0.799200
0.000000 0.335480 0.857425
0.000000 0.335176 0.910239
0.000000 0.334872 0.957641
0.000000 0.334567 0.999631
0.000000 0.334263 1.000000
0.000000 0.429894 0.000000
0.000000 0.429608 0.000000
0.000000 0.429322 0.020599
0.000000 0.429036 0.128073
0.000000 0.428750 0.230135
0.000000 0.428464 0.326786
0.000000 0.428178 0.418025
0.000000 0.427892 0.503853
0.000000 0.427606 0.584268
0.000000 0.427319 0.659273
0.000000 0.427033 0.728865
0.000000 0.426747 0.793046
0.000000 0.426460 0.851816
0.000000 0.426174 0.905173
0.000000 0.425887 0.953120
0.000000 0.425601 0.995654
0.000000 0.425314 1.000000
0.000000 0.515221 0.000000
0.000000 0.514952 0.000000
0.000000 0.514684 0.009494
0.000000 0.514416 0.117512
0.000000 0.514148 0.220119
0.000000 0.513879 0.317313
0.000000 0.513611 0.409096
0.000000 0.513343 0.495468
0.000000 0.513074 0.576428
0.000000 0.512806 0.651976
0.000000 0.512537 0.722113
0.000000 0.512268 0.786838
0.000000 0.511999 0.846152
0.000000 0.511731 0.900054
0.000000 0.511462 0.948544
0.000000 0.511193 0.991623
0.000000 0.510924 1.000000
0.000000 0.595106 0.000000
0.000000 0.594856 0.000000
0.000000 0.594605 0.000000
0.000000 0.594355 0.106897
0.000000 0.594104 0.210047
0.000000 0.593853 0.307786
0.000000 0.593603 0.400113
0.000000 0.593352 0.487029
0.000000 0.593101 0.568533
0.000000 0.592850 0.644625
0.000000 0.592599 0.715306
0.000000 0.592348 0.780575
0.000000 0.592097 0.840433
0.000000 0.591846 0.894879
0.000000 0.591595 0.943913
0.000000 0.591198 0.987075
0.000000 0.590768 1.000000
0.000000 0.669550 0.000000
0.000000 0.669317 0.000000
0.000000 0.669084 0.000000
0.000000 0.668851 0.096226
0.000000 0.668618 0.199921
0.000000 0.668385 0.298204
0.000000 0.668152 0.391075
0.000000 0.667919 0.478535
0.000000 0.667686 0.560583
0.000000 0.667453 0.637219
0.000000 0.667060 0.707530
0.000000 0.666660 0.772534
0.000000 0.666260 0.832276
0.000000 0.665859 0.886756
0.000000 0.665458 0.935975
0.000000 0.665058 0.979932
0.000000 0.664657 1.000000
0.000000 0.738552 0.000000
0.000000 0.738337 0.000000
0.000000 0.738122 0.000000
0.000000 0.737907 0.085501
0.000000 0.737675 0.189591
0.000000 0.737306 0.287085
0.000000 0.736937 0.379317
0.000000 0.736567 0.466287
0.000000 0.736197 0.547995
0.000000 0.735827 0.624442
0.000000 0.735457 0.695628
0.000000 0.735087 0.761551
0.000000 0.734717 0.822213
0.000000 0.734346 0.877613
0.000000 0.733975 0.927751
0.000000 0.733604 0.972628
0.000000 0.733233 1.000000
0.000000 0.801936 0.000000
0.000000 0.801597 0.000000
0.000000 0.801259 0.000000
0.000000 0.800920 0.068334
0.000000 0.800580 0.172009
0.000000 0.800241 0.270423
0.000000 0.799902 0.363574
0.000000 0.799562 0.451464
0.000000 0.799222 0.534093
0.000000 0.798882 0.611459
0.000000 0.798542 0.683564
0.000000 0.798202 0.750407
0.000000 0.797861 0.811989
0.000000 0.797520 0.868309
0.000000 0.797180 0.919367
0.000000 0.796839 0.965163
0.000000 0.796497 1.000000
0.000000 0.859409 0.000000
0.000000 0.859100 0.000000
0.000000 0.858791 0.000000
0.000000 0.858482 0.049672
0.000000 0.858173 0.154267
0.000000 0.857864 0.253600
0.000000 0.857554 0.347671
0.000000 0.857244 0.436481
0.000000 0.856934 0.520029
0.000000 0.856624 0.598316
0.000000 0.856314 0.671340
0.000000 0.856004 0.739103
0.000000 0.855693 0.801604
0.000000 0.855382 0.858844
0.000000 0.855071 0.910822
0.000000 0.854760 0.957538
0.000000 0.854449 0.998992
0.000000 0.911570 0.000000
0.000000 0.911291 0.000000
0.000000 0.911012 0.000000
0.000000 0.910733 0.030849
0.000000 0.910453 0.136364
0.000000 0.910174 0.236617
0.000000 0.909894 0.331608
0.000000 0.909614 0.421337
0.000000 0.909334 0.505805
0.000000 0.909054 0.585011
0.000000 0.908774 0.658955
0.000000 0.908493 0.727638
0.000000 0.908213 0.791059
0.000000 0.907932 0.849218
0.000000 0.907651 0.902116
0.000000 0.907369 0.949751
0.000000 0.907088 0.992126
0.000000 0.958418 0.000000
0.000000 0.958169 0.000000
0.000000 0.957920 0.000000
0.000000 0.957670 0.011865
0.000000 0.957421 0.118300
0.000000 0.957171 0.219472
0.000000 0.956922 0.315383
0.000000 0.956672 0.406032
0.000000 0.956422 0.491420
0.000000 0.956171 0.571546
0.000000 0.955921 0.646410
0.000000 0.955670 0.716012
0.000000 0.955420 0.780353
0.000000 0.955169 0.839432
0.000000 0.954918 0.893249
0.000000 0.954666 0.941804
0.000000 0.954415 0.985098
0.000000 0.999953 0.000000
0.000000 0.999734 0.000000
0.000000 0.999515 0.000000
0.000000 0.999296 0.000000
0.000000 0.999076 0.100075
0.000000 0.998857 0.202167
0.000000 0.998637 0.298998
0.000000 0.998417 0.390567
0.000000 0.998197 0.476874
0.000000 0.997976 0.557920
0.000000 0.997756 0.633703
0.000000 0.997535 0.704225
0.000000 0.997314 0.769486
0.000000 0.997093 0.829484
0.000000 0.996872 0.884221
0.000000 0.996651 0.933697
0.000000 0.996527 0.978534
0.000000 0.000000 0.000000
0.000000 0.000000 0.000000
0.000000 0.000000 0.091348
0.000000 0.000000 0.195290
0.000000 0.000000 0.293821
0.000000 0.000000 0.386940
0.000000 0.000000 0.474648
0.000000 0.000000 0.556944
0.000000 0.000000 0.633828
0.000000 0.000000 0.705301
0.000000 0.000000 0.771362
0.000000 0.000000 0.832011
0.000000 0.000000 0.887249
0.000000 0.000000 0.937076
0.000000 0.000000 0.981490
0.000000 0.000000 1.000000
0.000000 0.000000 1.000000
0.000000 0.000000 0.000000
0.000000 0.000000 0.000000
0.000000 0.000000 0.080598
0.000000 0.000000 0.185084
0.000000 0.000000 0.284159
0.000000 0.000000 0.377822
0.000000 0.000000 0.466074
0.000000 0.000000 0.548914
0.000000 0.000000 0.626343
0.000000 0.000000 0.698359
0.000000 0.000000 0.764965
0.000000 0.000000 0.826158
0.000000 0.000000 0.881940
0.000000 0.000000 0.932311
0.000000 0.000000 0.977270
0.000000 0.000000 1.000000
0.000000 0.000000 1.000000
0.000000 0.000000 0.000000
0.000000 0.000000 0.000000
0.000000 0.000000 0.069793
0.000000 0.000000 0.174824
0.000000 0.000000 0.274443
0.000000 0.000000 0.368650
0.000000 0.000000 0.457446
0.000000 0.000000 0.540830
0.000000 0.000000 0.618802
0.000000 0.000000 0.691363
0.000000 0.000000 0.758513
0.000000 0.000000 0.820250
0.000000 0.000000 0.876577
0.000000 0.000000 0.927491
0.000000 0.000000 0.972994
0.000000 0.000000 1.000000
0.000000 0.000000 1.000000
0.000000 0.033234 0.000000
0.000000 0.032877 0.000000
0.000000 0.032521 0.058934
0.000000 0.032164 0.164509
0.000000 0.031807 0.264672
0.000000 0.031451 0.359423
0.000000 0.031094 0.448763
0.000000 0.030737 0.532691
0.000000 0.030380 0.611208
0.000000 0.030023 0.684313
0.000000 0.029666 0.752006
0.000000 0.029309 0.814288
0.000000 0.028951 0.871158
0.000000 0.028594 0.922617
0.000000 0.028237 0.968664
0.000000 0.027880 1.000000
0.000000 0.027522 1.000000
0.000000 0.140374 0.000000
0.000000 0.140035 0.000000
0.000000 0.139696 0.048020
0.000000 0.139357 0.154139
0.000000 0.139018 0.254846
0.000000 0.138679 0.350141
0.000000 0.138340 0.440025
0.000000 0.138000 0.524498
0.000000 0.137661 0.603558
0.000000 0.137322 0.677207
0.000000 0.136982 0.745445
0.000000 0.136643 0.808271
0.000000 0.136303 0.865685
0.000000 0.135964 0.917688
0.000000 0.135624 0.964279
0.000000 0.135284 1.000000
0.000000 0.134945 1.000000
0.000000 0.242072 0.000000
0.000000 0.241751 0.000000
0.000000 0.241430 0.037051
0.000000 0.241108 0.143714
0.000000 0.240787 0.244965
0.000000 0.240465 0.340805
0.000000 0.240144 0.431233
0.000000 0.239822 0.516249
0.000000 0.239501 0.595854
0.000000 0.239179 0.670047
0.000000 0.238857 0.738829
0.000000 0.238535 0.802199
0.000000 0.238213 0.860157
0.000000 0.237892 0.912704
0.000000 0.237569 0.959839
0.000000 0.237247 1.000000
0.000000 0.236925 1.000000
0.000000 0.338329 0.000000
0.000000 0.338025 0.000000
0.000000 0.337722 0.026028
0.000000 0.337418 0.133235
0.000000 0.337114 0.235030
0.000000 0.336810 0.331414
0.000000 0.336506 0.422386
0.000000 0.336203 0.507946
0.000000 0.335899 0.588095
0.000000 0.335594 0.662832
0.000000 0.335290 0.732158
0.000000 0.334986 0.796072
0.000000 0.334682 0.854575
0.000000 0.334378 0.907665
0.000000 0.334073 0.955345
0.000000 0.333769 0.997612
0.000000 0.333465 1.000000
0.000000 0.429144 0.000000
0.000000 0.428858 0.000000
0.000000 0.428572 0.014950
0.000000 0.428286 0.122701
0.000000 0.428000 0.225040
0.000000 0.427714 0.321968
0.000000 0.427427 0.413484
0.000000 0.427141 0.499589
0.000000 0.426855 0.580282
0.000000 0.426568 0.655563
0.000000 0.426282 0.725433
0.000000 0.425996 0.789891
0.000000 0.425709 0.848937
0.000000 0.425422 0.902572
0.000000 0.425136 0.950796
0.000000 0.424849 0.993607
0.000000 0.424562 1.000000
0.000000 0.514517 0.000000
0.000000 0.514249 0.000000
0.000000 0.513981 0.003817
0.000000 0.513712 0.112112
0.000000 0.513444 0.214995
0.000000 0.513175 0.312467
0.000000 0.512907 0.404527
0.000000 0.512638 0.491176
0.000000 0.512370 0.572413
0.000000 0.512101 0.648239
0.000000 0.511832 0.718653
0.000000 0.511563 0.783655
0.000000 0.511294 0.843246
0.000000 0.511025 0.897425
0.000000 0.510756 0.946192
0.000000 0.510487 0.989548
0.000000 0.510218 1.000000
0.000000 0.594449 0.000000
0.000000 0.594198 0.000000
0.000000 0.593948 0.000000
0.000000 0.593697 0.101468
0.000000 0.593446 0.204896
0.000000 0.593195 0.302912
0.000000 0.592945 0.395516
0.000000 0.592694 0.482709
0.000000 0.592443 0.564490
0.000000 0.592192 0.640860
0.000000 0.591941 0.711818
0.000000 0.591689 0.777364
0.000000 0.591361 0.837154
0.000000 0.590930 0.891184
0.000000 0.590499 0.939951
0.000000 0.590068 0.983457
0.000000 0.589637 1.000000
0.000000 0.668939 0.000000
0.000000 0.668706 0.000000
0.000000 0.668473 0.000000
0.000000 0.668240 0.090770
0.000000 0.668007 0.194742
0.000000 0.667774 0.293302
0.000000 0.667541 0.386450
0.000000 0.667211 0.473500
0.000000 0.666811 0.554758
0.000000 0.666411 0.630753
0.000000 0.666010 0.701487
0.000000 0.665610 0.766960
0.000000 0.665209 0.827170
0.000000 0.664808 0.882119
0.000000 0.664407 0.931806
0.000000 0.664006 0.976232
0.000000 0.663604 1.000000
0.000000 0.737988 0.000000
0.000000 0.737773 0.000000
0.000000 0.737445 0.000000
0.000000 0.737076 0.077431
0.000000 0.736706 0.180655
0.000000 0.736337 0.278618
0.000000 0.735967 0.371318
0.000000 0.735597 0.458757
0.000000 0.735227 0.540934
0.000000 0.734856 0.617849
0.000000 0.734486 0.689503
0.000000 0.734115 0.755895
0.000000 0.733744 0.817025
0.000000 0.733373 0.872894
0.000000 0.733002 0.923501
0.000000 0.732631 0.968846
0.000000 0.732259 1.000000
0.000000 0.801047 0.000000
0.000000 0.800708 0.000000
0.000000 0.800369 0.000000
0.000000 0.800030 0.058848
0.000000 0.799690 0.162992
0.000000 0.799350 0.261874
0.000000 0.799010 0.355494
0.000000 0.798670 0.443852
0.000000 0.798330 0.526949
0.000000 0.797990 0.604784
0.000000 0.797649 0.677358
0.000000 0.797308 0.744669
0.000000 0.796967 0.806719
0.000000 0.796626 0.863508
0.000000 0.796285 0.915034
0.000000 0.795943 0.961299
0.000000 0.795602 1.000000
0.000000 0.858599 0.000000
0.000000 0.858290 0.000000
0.000000 0.857980 0.000000
0.000000 0.857671 0.040104
0.000000 0.857361 0.145168
0.000000 0.857051 0.244969
0.000000 0.856741 0.339509
0.000000 0.856431 0.428787
0.000000 0.856121 0.512804
0.000000 0.855810 0.591559
0.000000 0.855500 0.665052
0.000000 0.855189 0.733283
0.000000 0.854878 0.796253
0.000000 0.854566 0.853961
0.000000 0.854255 0.906407
0.000000 0.853944 0.953592
0.000000 0.853632 0.995515
0.000000 0.910838 0.000000
0.000000 0.910559 0.000000
0.000000 0.910279 0.000000
0.000000 0.910000 0.021199
0.000000 0.909720 0.127182
0.000000 0.909440 0.227904
0.000000 0.909160 0.323364
0.000000 0.908880 0.413561
0.000000 0.908599 0.498498
0.000000 0.908318 0.578172
0.000000 0.908038 0.652585
0.000000 0.907757 0.721736
0.000000 0.907476 0.785626
0.000000 0.907194 0.844253
0.000000 0.906913 0.897619
0.000000 0.906631 0.945724
0.000000 0.906349 0.988566
0.000000 0.957765 0.000000
0.000000 0.957515 0.000000
0.000000 0.957266 0.000000
0.000000 0.957016 0.002134
0.000000 0.956766 0.109037
0.000000 0.956516 0.210678
0.000000 0.956266 0.307057
0.000000 0.956015 0.398175
0.000000 0.955765 0.484031
0.000000 0.955514 0.564625
0.000000 0.955263 0.639957
0.000000 0.955012 0.710028
0.000000 0.954761 0.774837
0.000000 0.954510 0.834385
0.000000 0.954258 0.888671
0.000000 0.954006 0.937695
0.000000 0.953755 0.981457
0.000000 0.999379 0.000000
0.000000 0.999159 0.000000
0.000000 0.998939 0.000000
0.000000 0.998720 0.000000
0.000000 0.998500 0.090730
0.000000 0.998280 0.193291
0.000000 0.998059 0.290590
0.000000 0.997839 0.382627
0.000000 0.997618 0.469403
0.000000 0.997398 0.550917
0.000000 0.997177 0.627169
0.000000 0.996955 0.698160
0.000000 0.996734 0.763889
0.000000 0.996562 0.824792
0.000000 0.996470 0.880997
0.000000 0.996377 0.931730
0.000000 0.996285 0.976991
0.000000 0.000000 0.000000
0.000000 0.000000 0.000000
0.000000 0.000000 0.085879
0.000000 0.000000 0.190098
0.000000 0.000000 0.288906
0.000000 0.000000 0.382303
0.000000 0.000000 0.470287
0.000000 0.000000 0.552860
0.000000 0.000000 0.630022
0.000000 0.000000 0.701772
0.000000 0.000000 0.768110
0.000000 0.000000 0.829037
0.000000 0.000000 0.884552
0.000000 0.000000 0.934655
0.000000 0.000000 0.979347
0.000000 0.000000 1.000000
