app/luts/cool_steel.cube
TITLE "冷调青灰"
# StyleForge original LUT. Cube format compatible with CubeLUT.cn / Premiere.
LUT_3D_SIZE 9
DOMAIN_MIN 0.0 0.0 0.0
DOMAIN_MAX 1.0 1.0 1.0
0.000000 0.000000 0.000000
0.000000 0.000000 0.046138
0.000000 0.000000 0.206450
0.000000 0.000000 0.357738
0.000000 0.000000 0.500000
0.000000 0.000000 0.633237
0.000000 0.000000 0.757450
0.000000 0.000000 0.851111
0.000000 0.000000 0.851111
0.000000 0.000000 0.000000
0.000000 0.013869 0.060849
0.000000 0.030482 0.220354
0.000000 0.047005 0.370834
0.000000 0.063437 0.512289
0.000000 0.079780 0.644719
0.000000 0.096032 0.768124
0.000000 0.109082 0.861133
0.000000 0.109082 0.861133
0.000000 0.143408 0.000000
0.000000 0.159304 0.075488
0.000000 0.175109 0.234185
0.000000 0.190825 0.383858
0.000000 0.206450 0.524505
0.000000 0.221985 0.656128
0.000000 0.237429 0.778725
0.000000 0.249828 0.871083
0.000000 0.249828 0.871083
0.000000 0.282425 0.000000
0.000000 0.297514 0.090055
0.000000 0.312512 0.247945
0.000000 0.327420 0.396810
0.000000 0.342237 0.536650
0.000000 0.356965 0.667465
0.000000 0.371602 0.789255
0.006261 0.383349 0.880961
0.006261 0.383349 0.880961
0.000000 0.414218 0.000000
0.000000 0.428499 0.104549
0.000000 0.442689 0.261632
0.000000 0.456790 0.409690
0.000000 0.470800 0.548722
0.000000 0.484720 0.678729
0.007726 0.498549 0.799712
0.021166 0.509644 0.890766
0.021166 0.509644 0.890766
0.000000 0.538786 0.000000
0.000000 0.552259 0.118972
0.000000 0.565642 0.275247
0.000000 0.578935 0.422497
0.000000 0.592137 0.560722
0.005968 0.605250 0.689922
0.022624 0.618272 0.810097
0.036000 0.628715 0.900500
0.036000 0.628715 0.900500
0.000000 0.656128 0.000000
0.000000 0.668794 0.133322
0.000000 0.681369 0.288789
0.000000 0.693855 0.435232
0.004210 0.706250 0.572649
0.020875 0.718555 0.701042
0.037450 0.730770 0.820409
0.050761 0.740561 0.910161
0.050761 0.740561 0.910161
0.000000 0.766246 0.000000
0.000000 0.778104 0.147600
0.000000 0.789872 0.302260
0.002450 0.801550 0.447895
0.019125 0.813137 0.584505
0.035710 0.824635 0.712090
0.052204 0.836042 0.830650
0.065449 0.845182 0.919749
0.065449 0.845182 0.919749
0.000000 0.853476 0.000000
0.000000 0.864653 0.159582
0.000000 0.875741 0.313561
0.015038 0.886738 0.458515
0.031644 0.897644 0.594444
0.048161 0.908461 0.721349
0.064587 0.919187 0.839228
0.077778 0.927778 0.927778
0.077778 0.927778 0.927778
0.000000 0.000000 0.000000
0.000000 0.000000 0.058834
0.010067 0.000000 0.218450
0.026701 0.000000 0.369041
0.043244 0.000000 0.510606
0.059698 0.000000 0.643147
0.076061 0.000000 0.766663
0.089200 0.000000 0.859762
0.089200 0.000000 0.859762
0.000000 0.010067 0.000000
0.008311 0.026701 0.073483
0.024954 0.043244 0.232291
0.041507 0.059698 0.382075
0.057970 0.076061 0.522833
0.074342 0.092333 0.654566
0.090625 0.108516 0.777275
0.103699 0.121509 0.869722
0.103699 0.121509 0.869722
0.006554 0.155686 0.000000
0.023207 0.171513 0.088060
0.039769 0.187249 0.246061
0.056241 0.202894 0.395036
0.072623 0.218450 0.534987
0.088915 0.233915 0.665913
0.105116 0.249290 0.787814
0.118125 0.261632 0.879609
0.118125 0.261632 0.879609
0.021458 0.294081 0.000000
0.038030 0.309099 0.102564
0.054512 0.324028 0.259758
0.070903 0.338866 0.407926
0.087204 0.353614 0.547069
0.103415 0.368272 0.677188
0.119536 0.382839 0.798281
0.132480 0.394529 0.889425
0.132480 0.394529 0.889425
0.036290 0.425250 0.000000
0.052781 0.439461 0.116997
0.069182 0.453582 0.273382
0.085493 0.467613 0.420743
0.101713 0.481553 0.559079
0.117843 0.495403 0.688390
0.133883 0.509163 0.808676
0.146762 0.520202 0.899168
0.146762 0.520202 0.899168
0.051049 0.549194 0.000000
0.067460 0.562598 0.131357
0.083780 0.575911 0.286935
0.100010 0.589134 0.433488
0.116150 0.602267 0.571017
0.132199 0.615310 0.699520
0.148158 0.628262 0.818998
0.160972 0.638649 0.908839
0.160972 0.638649 0.908839
0.065737 0.665913 0.000000
0.082066 0.678509 0.145644
0.098306 0.691015 0.300415
0.114455 0.703431 0.446161
0.130514 0.715756 0.582882
0.146483 0.727992 0.710578
0.162361 0.740137 0.829249
0.175110 0.749872 0.918437
0.175110 0.749872 0.918437
0.080352 0.775407 0.000000
0.096601 0.787196 0.159860
0.112759 0.798894 0.313823
0.128828 0.810503 0.458762
0.144806 0.822021 0.594675
0.160694 0.833448 0.721563
0.176492 0.844786 0.839427
0.189175 0.853869 0.927964
0.189175 0.853869 0.927964
0.092618 0.862112 0.009482
0.108799 0.873220 0.171790
0.124889 0.884237 0.325072
0.140890 0.895165 0.469330
0.156800 0.906002 0.604562
0.172620 0.916749 0.730769
0.188350 0.927405 0.847952
0.200978 0.935940 0.935940
0.200978 0.935940 0.935940
0.103982 0.000000 0.000000
0.120100 0.000000 0.071477
0.136127 0.000000 0.230396
0.152064 0.000000 0.380290
0.167911 0.000000 0.521159
0.183668 0.000000 0.653003
0.199334 0.000000 0.775822
0.211911 0.000000 0.868359
0.211911 0.000000 0.868359
0.118408 0.022915 0.000000
0.134444 0.039479 0.086063
0.150391 0.055953 0.244175
0.166247 0.072337 0.393262
0.182013 0.088630 0.533323
0.197689 0.104833 0.664360
0.213275 0.120946 0.786372
0.225787 0.133883 0.878257
0.225787 0.133883 0.878257
0.132761 0.167911 0.000000
0.148717 0.183668 0.100578
0.164582 0.199334 0.257882
0.180358 0.214910 0.406161
0.196043 0.230396 0.545415
0.211638 0.245791 0.675644
0.227143 0.261097 0.796849
0.239590 0.273382 0.888082
0.239590 0.273382 0.888082
0.147041 0.305682 0.000000
0.162917 0.320631 0.115020
0.178702 0.335490 0.271517
0.194396 0.350258 0.418988
0.210001 0.364937 0.557435
0.225515 0.379525 0.686857
0.240939 0.394022 0.807253
0.253321 0.405657 0.897835
0.253321 0.405657 0.897835
0.161250 0.436228 0.000000
0.177044 0.450369 0.129390
0.192749 0.464421 0.285079
0.208363 0.478382 0.431743
0.223886 0.492252 0.569382
0.239320 0.506033 0.697997
0.254663 0.519723 0.817586
0.266980 0.530706 0.907516
0.266980 0.530706 0.907516
0.175386 0.559549 0.000000
0.191100 0.572883 0.143688
0.206723 0.586126 0.298569
0.222257 0.599280 0.444426
0.237700 0.612343 0.581258
0.253052 0.625316 0.709064
0.268315 0.638199 0.827846
0.280566 0.648530 0.917124
0.280566 0.648530 0.917124
0.189450 0.675644 0.000000
0.205083 0.688171 0.157913
0.220626 0.700607 0.311987
0.236078 0.712953 0.457036
0.251441 0.725209 0.593061
0.266713 0.737375 0.720060
0.281894 0.749450 0.838034
0.294081 0.759129 0.926661
0.294081 0.759129 0.926661
0.203442 0.784515 0.009775
0.218994 0.796234 0.172066
0.234456 0.807863 0.325333
0.249828 0.819402 0.469575
0.265109 0.830850 0.604791
0.280301 0.842208 0.730983
0.295402 0.853476 0.848150
0.307523 0.862503 0.936125
0.307523 0.862503 0.936125
0.215182 0.870694 0.022332
0.230667 0.881733 0.183943
0.246061 0.892681 0.336529
0.261364 0.903538 0.480090
0.276578 0.914306 0.614626
0.291701 0.924983 0.740137
0.306734 0.935570 0.856622
0.318800 0.944048 0.944048
0.318800 0.944048 0.944048
0.226058 0.000000 0.000000
0.241479 0.000000 0.084065
0.256809 0.000000 0.242288
0.272050 0.000000 0.391486
0.287200 0.000000 0.531658
0.302260 0.000000 0.662805
0.317230 0.000000 0.784928
0.329244 0.000102 0.876902
0.329244 0.000102 0.876902
0.239860 0.035709 0.000000
0.255200 0.052204 0.098590
0.270450 0.068608 0.256005
0.285609 0.084922 0.404395
0.300679 0.101145 0.543760
0.315658 0.117279 0.674100
0.330547 0.133322 0.795415
0.342497 0.146203 0.886738
0.342497 0.146203 0.886738
0.253589 0.180082 0.000000
0.268849 0.195769 0.113042
0.284018 0.211365 0.269650
0.299097 0.226872 0.417232
0.314085 0.242288 0.555789
0.328984 0.257614 0.685322
0.343792 0.272850 0.805829
0.355677 0.285079 0.896501
0.355677 0.285079 0.896501
0.267247 0.317230 0.000000
0.282425 0.332109 0.127422
0.297514 0.346898 0.283222
0.312512 0.361597 0.429997
0.327420 0.376206 0.567747
0.342237 0.390724 0.696472
0.356965 0.405152 0.816172
0.368784 0.416730 0.906191
0.368784 0.416730 0.906191
0.280832 0.447152 0.000000
0.295930 0.461224 0.141730
0.310937 0.475205 0.296722
0.325855 0.489097 0.442690
0.340682 0.502898 0.579632
0.355419 0.516609 0.707549
0.370065 0.530230 0.826442
0.381820 0.541156 0.915810
0.381820 0.541156 0.915810
0.294345 0.569849 0.000000
0.309362 0.583114 0.155965
0.324289 0.596288 0.310150
0.339125 0.609372 0.455310
0.353872 0.622365 0.591445
0.368528 0.635269 0.718555
0.383094 0.648082 0.836640
0.394783 0.658357 0.925356
0.394783 0.658357 0.925356
0.307786 0.685322 0.007726
0.322722 0.697779 0.170128
0.337568 0.710145 0.323505
0.352324 0.722422 0.467858
0.366989 0.734608 0.603185
0.381565 0.746704 0.729488
0.396050 0.758709 0.846766
0.407674 0.768332 0.934830
0.407674 0.768332 0.934830
0.321154 0.793569 0.022624
0.336009 0.805219 0.184219
0.350775 0.816778 0.336789
0.365450 0.828247 0.480334
0.380035 0.839625 0.614854
0.394529 0.850914 0.740349
0.408934 0.862112 0.856819
0.420493 0.871083 0.944232
0.420493 0.871083 0.944232
0.332369 0.879223 0.035129
0.347157 0.890192 0.196043
0.361854 0.901070 0.347932
0.376461 0.911858 0.490797
0.390978 0.922556 0.624636
0.405404 0.933163 0.749450
0.419741 0.943681 0.865239
0.431244 0.952102 0.952102
0.431244 0.952102 0.952102
0.342756 0.000000 0.000000
0.357480 0.000000 0.096601
0.372114 0.000000 0.254126
0.386658 0.000000 0.402627
0.401111 0.000000 0.542103
0.415474 0.000000 0.672554
0.429747 0.000000 0.793980
0.441200 0.012992 0.885392
0.441200 0.012992 0.885392
0.355934 0.048450 0.000000
0.370578 0.064875 0.111063
0.385131 0.081209 0.267781
0.399594 0.097453 0.415474
0.413967 0.113607 0.554143
0.428249 0.129671 0.683786
0.442441 0.145644 0.804404
0.453829 0.158469 0.895165
0.453829 0.158469 0.895165
0.369041 0.192199 0.000000
0.383603 0.207816 0.125452
0.398076 0.223343 0.281363
0.412458 0.238780 0.428249
0.426750 0.254126 0.566110
0.440952 0.269383 0.694946
0.455063 0.284549 0.814757
0.466385 0.296722 0.904866
0.466385 0.296722 0.904866
0.382075 0.328723 0.000000
0.396557 0.343533 0.139770
0.410948 0.358252 0.294873
0.425250 0.372882 0.440952
0.439461 0.387421 0.578005
0.453582 0.401869 0.706033
0.467613 0.416228 0.825037
0.478870 0.427750 0.914494
0.478870 0.427750 0.914494
0.395036 0.458022 0.000000
0.409438 0.472025 0.154015
0.423749 0.485937 0.308311
0.437969 0.499758 0.453582
0.452100 0.513490 0.589828
0.466140 0.527131 0.717049
0.480090 0.540682 0.835244
0.491282 0.551552 0.924050
0.491282 0.551552 0.924050
0.407926 0.580097 0.005675
0.422246 0.593291 0.168188
0.436477 0.606396 0.321677
0.450617 0.619410 0.466140
0.464666 0.632334 0.601578
0.478626 0.645168 0.727992
0.492495 0.657911 0.845380
0.503622 0.668130 0.933534
0.503622 0.668130 0.933534
0.420743 0.694946 0.020583
0.434983 0.707333 0.182289
0.449132 0.719630 0.334970
0.463192 0.731837 0.478626
0.477161 0.743953 0.613257
0.491039 0.755979 0.738862
0.504828 0.767915 0.855443
0.515889 0.777482 0.942945
0.515889 0.777482 0.942945
0.433488 0.802570 0.035419
0.447647 0.814150 0.196318
0.461716 0.825639 0.348191
0.475694 0.837038 0.491039
0.489583 0.848347 0.624863
0.503381 0.859566 0.749661
0.517088 0.870694 0.865434
0.528085 0.879609 0.952285
0.528085 0.879609 0.952285
0.444178 0.887698 0.047872
0.458269 0.898597 0.208090
0.472270 0.909406 0.359282
0.486180 0.920124 0.501450
0.500000 0.930752 0.634592
0.513730 0.941290 0.758709
0.527369 0.951738 0.873802
0.538311 0.960103 0.960103
0.538311 0.960103 0.960103
0.454076 0.000000 0.000000
0.468103 0.000000 0.109082
0.482041 0.000000 0.265911
0.495888 0.000000 0.413715
0.509644 0.000000 0.552494
0.523311 0.000000 0.682249
0.536887 0.012407 0.802978
0.547778 0.025828 0.893828
0.547778 0.025828 0.893828
0.466631 0.061137 0.000000
0.480578 0.077492 0.123482
0.494434 0.093756 0.279503
0.508201 0.109931 0.426500
0.521877 0.126015 0.564472
0.535462 0.142009 0.693418
0.548958 0.157913 0.813340
0.559783 0.170682 0.903538
0.559783 0.170682 0.903538
0.479114 0.204262 0.000000
0.492980 0.219810 0.137809
0.506756 0.235267 0.293023
0.520441 0.250634 0.439212
0.534037 0.265911 0.576377
0.547542 0.281098 0.704516
0.560956 0.296194 0.823630
0.571717 0.308311 0.913177
0.571717 0.308311 0.913177
0.491525 0.340163 0.000000
0.505310 0.354903 0.152064
0.519005 0.369553 0.306471
0.532610 0.384113 0.451853
0.546124 0.398582 0.588209
0.559549 0.412961 0.715541
0.572883 0.427250 0.833848
0.583578 0.438715 0.922743
0.583578 0.438715 0.922743
0.503863 0.468839 0.003623
0.517568 0.482772 0.166247
0.531182 0.496614 0.319846
0.544706 0.510366 0.464421
0.558140 0.524028 0.599970
0.571483 0.537599 0.726494
0.584737 0.551081 0.843993
0.595366 0.561894 0.932236
0.595366 0.561894 0.932236
0.516129 0.590290 0.018541
0.529753 0.603415 0.180358
0.543287 0.616450 0.333150
0.556730 0.629394 0.476916
0.570083 0.642249 0.611658
0.583346 0.655013 0.737375
0.596518 0.667686 0.854066
0.607083 0.677849 0.941658
0.607083 0.677849 0.941658
0.528323 0.704516 0.033387
0.541866 0.716833 0.194396
0.555319 0.729061 0.346381
0.568682 0.741198 0.489340
0.581954 0.753244 0.623274
0.595136 0.765201 0.748183
0.608228 0.777067 0.864067
0.618727 0.786578 0.951007
0.618727 0.786578 0.951007
0.540445 0.811517 0.048161
0.553907 0.823027 0.208363
0.567279 0.834446 0.359539
0.580561 0.845776 0.501691
0.593753 0.857015 0.634818
0.606854 0.868164 0.758919
0.619865 0.879223 0.873996
0.630299 0.888082 0.960284
0.630299 0.888082 0.960284
0.550609 0.896119 0.060561
0.564003 0.906948 0.220082
0.577307 0.917687 0.370578
0.590521 0.928336 0.512049
0.603644 0.938894 0.644494
0.616678 0.949363 0.767915
0.629621 0.959741 0.882311
0.640000 0.968050 0.968050
0.640000 0.968050 0.968050
0.560018 0.000000 0.000000
0.573349 0.000000 0.121510
0.586589 0.000000 0.277642
0.599740 0.000000 0.424749
0.612800 0.000000 0.562832
0.625770 0.008604 0.691889
0.638649 0.025245 0.811922
0.648978 0.038610 0.902210
0.648978 0.038610 0.902210
0.571950 0.073769 0.000000
0.585200 0.090055 0.135847
0.598360 0.106250 0.291172
0.611430 0.122355 0.437472
0.624409 0.138370 0.574747
0.637298 0.154294 0.702997
0.650097 0.170128 0.822222
0.660360 0.182841 0.911858
0.660360 0.182841 0.911858
0.583809 0.216272 0.000000
0.596979 0.231750 0.150112
0.610058 0.247137 0.304630
0.623047 0.262435 0.450122
0.635945 0.277642 0.586589
0.648754 0.292759 0.714032
0.661472 0.307786 0.832449
0.671670 0.319846 0.921434
0.671670 0.319846 0.921434
0.595597 0.351550 0.001570
0.608685 0.366220 0.164305
0.621684 0.380800 0.318015
0.634592 0.395290 0.462700
0.647410 0.409689 0.598360
0.660137 0.423999 0.724995
0.672775 0.438218 0.842605
0.682908 0.449627 0.930938
0.682908 0.449627 0.930938
0.607312 0.479602 0.016498
0.620320 0.493465 0.178426
0.633237 0.507237 0.331328
0.646065 0.520920 0.475205
0.658802 0.534512 0.610058
0.671449 0.548014 0.735885
0.684005 0.561425 0.852688
0.694073 0.572183 0.940369
0.694073 0.572183 0.940369
0.618955 0.600430 0.031354
0.631882 0.613485 0.192474
0.644719 0.626450 0.344569
0.657465 0.639325 0.487639
0.670122 0.652109 0.621684
0.682688 0.664804 0.746704
0.695164 0.677408 0.862699
0.705166 0.687514 0.949728
0.705166 0.687514 0.949728
0.630525 0.714032 0.046137
0.643372 0.726280 0.206450
0.656128 0.738437 0.357737
0.668794 0.750505 0.500000
0.681369 0.762482 0.633237
0.693855 0.774369 0.757450
0.706250 0.786166 0.872638
0.716187 0.795620 0.959015
0.716187 0.795620 0.959015
0.642024 0.820409 0.060849
0.654789 0.831850 0.220354
0.667465 0.843200 0.370834
0.680050 0.854460 0.512289
0.692545 0.865629 0.644719
0.704949 0.876709 0.768124
0.717264 0.887698 0.882504
0.727136 0.896501 0.968230
0.727136 0.896501 0.968230
0.651662 0.904486 0.073196
0.664360 0.915246 0.232021
0.676967 0.925915 0.381820
0.689484 0.936494 0.522594
0.701911 0.946983 0.654343
0.714248 0.957382 0.777067
0.726494 0.967690 0.890766
0.736311 0.975943 0.975943
0.736311 0.975943 0.975943
0.660582 0.000000 0.000000
0.673217 0.000000 0.133883
0.685761 0.000000 0.289319
0.698214 0.000000 0.435730
0.710578 0.004796 0.573116
0.722851 0.021458 0.701477
0.735034 0.038030 0.820812
0.744800 0.051338 0.910538
0.744800 0.051338 0.910538
0.671891 0.086349 0.000000
0.684444 0.102564 0.148158
0.696908 0.118690 0.302787
0.709281 0.134725 0.448390
0.721563 0.150670 0.584968
0.733756 0.166525 0.712522
0.745858 0.182289 0.831050
0.755559 0.194945 0.920124
0.755559 0.194945 0.920124
0.683127 0.228228 0.000000
0.695600 0.243636 0.162361
0.707982 0.258954 0.316182
0.720275 0.274182 0.460978
0.732477 0.289319 0.596749
0.744588 0.304366 0.723494
0.756610 0.319323 0.841215
0.766245 0.331328 0.929637
0.766245 0.331328 0.929637
0.694291 0.362882 0.014453
0.706683 0.377483 0.176492
0.718985 0.391993 0.329505
0.731196 0.406413 0.473493
0.743318 0.420743 0.608457
0.755349 0.434983 0.734395
0.767289 0.449132 0.851308
0.776860 0.460485 0.939079
0.776860 0.460485 0.939079
0.705383 0.490311 0.029319
0.717694 0.504104 0.190550
0.729915 0.517807 0.342756
0.742046 0.531420 0.485937
0.754086 0.544942 0.620092
0.766037 0.558375 0.745223
0.777897 0.571717 0.861329
0.787402 0.582418 0.948448
0.787402 0.582418 0.948448
0.716403 0.610515 0.044113
0.728633 0.623501 0.204536
0.740773 0.636396 0.355934
0.752823 0.649202 0.498308
0.764783 0.661917 0.631656
0.776652 0.674541 0.755979
0.788432 0.687076 0.871278
0.797872 0.697125 0.957745
0.797872 0.697125 0.957745
0.727350 0.723494 0.058834
0.739500 0.735673 0.218450
0.751559 0.747761 0.369041
0.763528 0.759758 0.510606
0.775407 0.771666 0.643147
0.787196 0.783483 0.766663
0.798894 0.795210 0.881154
0.808270 0.804608 0.966969
0.808270 0.804608 0.966969
0.738225 0.829249 0.073483
0.750294 0.840619 0.232291
0.762273 0.851900 0.382075
0.774161 0.863090 0.522833
0.785959 0.874190 0.654566
0.797667 0.885200 0.777275
0.809285 0.896119 0.890958
0.818595 0.904866 0.976122
0.818595 0.904866 0.976122
0.747338 0.912800 0.085778
0.759339 0.923490 0.243905
0.771249 0.934089 0.393008
0.783070 0.944599 0.533086
0.794800 0.955018 0.664138
0.806440 0.965347 0.786165
0.817989 0.975586 0.899168
0.827244 0.983782 0.983782
0.827244 0.983782 0.983782
0.755769 0.000000 0.000000
0.767707 0.000000 0.146203
0.779554 0.000000 0.300942
0.791311 0.000983 0.446657
0.802978 0.017666 0.583346
0.814554 0.034258 0.711010
0.826041 0.050761 0.829649
0.835244 0.064012 0.918812
0.835244 0.064012 0.918812
0.766454 0.098874 0.000000
0.778311 0.115020 0.160416
0.790078 0.131076 0.314348
0.801754 0.147041 0.459254
0.813340 0.162917 0.595136
0.824836 0.178702 0.721993
0.836241 0.194396 0.839824
0.845380 0.206997 0.928336
0.845380 0.206997 0.928336
0.777067 0.240130 0.012407
0.788843 0.255468 0.174556
0.800529 0.270717 0.327681
0.812125 0.285875 0.471780
0.823630 0.300942 0.606854
0.835045 0.315920 0.732903
0.846370 0.330807 0.849927
0.855443 0.342756 0.937787
0.855443 0.342756 0.937787
0.787608 0.374161 0.027283
0.799303 0.388692 0.188625
0.810908 0.403132 0.340941
0.822423 0.417483 0.484233
0.833848 0.431743 0.618500
0.845182 0.445913 0.743741
0.856426 0.459993 0.859958
0.865434 0.471290 0.947166
0.865434 0.471290 0.947166
0.798076 0.500966 0.042086
0.809691 0.514690 0.202621
0.821215 0.528323 0.354130
0.832649 0.541866 0.496614
0.843993 0.555319 0.630073
0.855247 0.568682 0.754507
0.866410 0.581954 0.869916
0.875353 0.592599 0.956473
0.875353 0.592599 0.956473
0.808473 0.620547 0.056818
0.820006 0.633463 0.216544
0.831450 0.646289 0.367246
0.842803 0.659025 0.508923
0.854066 0.671670 0.641574
0.865239 0.684225 0.765201
0.876322 0.696690 0.879803
0.885200 0.706683 0.965708
0.885200 0.706683 0.965708
0.818797 0.732903 0.071477
0.830250 0.745012 0.230396
0.841612 0.757030 0.380290
0.852885 0.768958 0.521159
0.864067 0.780796 0.653003
0.875159 0.792543 0.775822
0.886161 0.804201 0.889617
0.894974 0.813542 0.974870
0.894974 0.813542 0.974870
0.829048 0.838034 0.086063
0.840421 0.849335 0.244175
0.851703 0.860546 0.393262
0.862894 0.871666 0.533323
0.873996 0.882697 0.664360
0.885007 0.893637 0.786372
0.895928 0.904486 0.899358
0.904676 0.913177 0.983960
0.904676 0.913177 0.983960
0.837636 0.921060 0.098306
0.848940 0.931680 0.255737
0.860154 0.942210 0.404142
0.871278 0.952650 0.543523
0.882311 0.962999 0.673879
0.893254 0.973258 0.795210
0.904107 0.983427 0.907516
0.912800 0.991568 0.991568
0.912800 0.991568 0.991568
