app/luts/cool_steel.cube
TITLE "冷调青灰"
# StyleForge original LUT. Cube format compatible with CubeLUT.cn / Premiere.
LUT_3D_SIZE 5
DOMAIN_MIN 0.0 0.0 0.0
DOMAIN_MAX 1.0 1.0 1.0
0.000000 0.000000 0.000000
0.000000 0.000000 0.206450
0.000000 0.000000 0.500000
0.000000 0.000000 0.757450
0.000000 0.000000 0.851111
0.000000 0.143408 0.000000
0.000000 0.175109 0.234185
0.000000 0.206450 0.524505
0.000000 0.237429 0.778725
0.000000 0.249828 0.871083
0.000000 0.414218 0.000000
0.000000 0.442689 0.261632
0.000000 0.470800 0.548722
0.007726 0.498549 0.799712
0.021166 0.509644 0.890766
0.000000 0.656128 0.000000
0.000000 0.681369 0.288789
0.004210 0.706250 0.572649
0.037450 0.730770 0.820409
0.050761 0.740561 0.910161
0.000000 0.853476 0.000000
0.000000 0.875741 0.313561
0.031644 0.897644 0.594444
0.064587 0.919187 0.839228
0.077778 0.927778 0.927778
0.103982 0.000000 0.000000
0.136127 0.000000 0.230396
0.167911 0.000000 0.521159
0.199334 0.000000 0.775822
0.211911 0.000000 0.868359
0.132761 0.167911 0.000000
0.164582 0.199334 0.257882
0.196043 0.230396 0.545415
0.227143 0.261097 0.796849
0.239590 0.273382 0.888082
0.161250 0.436228 0.000000
0.192749 0.464421 0.285079
0.223886 0.492252 0.569382
0.254663 0.519723 0.817586
0.266980 0.530706 0.907516
0.189450 0.675644 0.000000
0.220626 0.700607 0.311987
0.251441 0.725209 0.593061
0.281894 0.749450 0.838034
0.294081 0.759129 0.926661
0.215182 0.870694 0.022332
0.246061 0.892681 0.336529
0.276578 0.914306 0.614626
0.306734 0.935570 0.856622
0.318800 0.944048 0.944048
0.342756 0.000000 0.000000
0.372114 0.000000 0.254126
0.401111 0.000000 0.542103
0.429747 0.000000 0.793980
0.441200 0.012992 0.885392
0.369041 0.192199 0.000000
0.398076 0.223343 0.281363
0.426750 0.254126 0.566110
0.455063 0.284549 0.814757
0.466385 0.296722 0.904866
0.395036 0.458022 0.000000
0.423749 0.485937 0.308311
0.452100 0.513490 0.589828
0.480090 0.540682 0.835244
0.491282 0.551552 0.924050
0.420743 0.694946 0.020583
0.449132 0.719630 0.334970
0.477161 0.743953 0.613257
0.504828 0.767915 0.855443
0.515889 0.777482 0.942945
0.444178 0.887698 0.047872
0.472270 0.909406 0.359282
0.500000 0.930752 0.634592
0.527369 0.951738 0.873802
0.538311 0.960103 0.960103
0.560018 0.000000 0.000000
0.586589 0.000000 0.277642
0.612800 0.000000 0.562832
0.638649 0.025245 0.811922
0.648978 0.038610 0.902210
0.583809 0.216272 0.000000
0.610058 0.247137 0.304630
0.635945 0.277642 0.586589
0.661472 0.307786 0.832449
0.671670 0.319846 0.921434
0.607312 0.479602 0.016498
0.633237 0.507237 0.331328
0.658802 0.534512 0.610058
0.684005 0.561425 0.852688
0.694073 0.572183 0.940369
0.630525 0.714032 0.046137
0.656128 0.738437 0.357737
0.681369 0.762482 0.633237
0.706250 0.786166 0.872638
0.716187 0.795620 0.959015
0.651662 0.904486 0.073196
0.676967 0.925915 0.381820
0.701911 0.946983 0.654343
0.726494 0.967690 0.890766
0.736311 0.975943 0.975943
0.755769 0.000000 0.000000
0.779554 0.000000 0.300942
0.802978 0.017666 0.583346
0.826041 0.050761 0.829649
0.835244 0.064012 0.918812
0.777067 0.240130 0.012407
0.800529 0.270717 0.327681
0.823630 0.300942 0.606854
0.846370 0.330807 0.849927
0.855443 0.342756 0.937787
0.798076 0.500966 0.042086
0.821215 0.528323 0.354130
0.843993 0.555319 0.630073
0.866410 0.581954 0.869916
0.875353 0.592599 0.956473
0.818797 0.732903 0.071477
0.841612 0.757030 0.380290
0.864067 0.780796 0.653003
0.886161 0.804201 0.889617
0.894974 0.813542 0.974870
0.837636 0.921060 0.098306
0.860154 0.942210 0.404142
0.882311 0.962999 0.673879
0.904107 0.983427 0.907516
0.912800 0.991568 0.991568
