app/luts/cool_steel.cube
TITLE "冷调青灰"
# StyleForge original LUT. Cube format compatible with CubeLUT.cn / Premiere.
LUT_3D_SIZE 17
DOMAIN_MIN 0.0 0.0 0.0
DOMAIN_MAX 1.0 1.0 1.0
0.000000 0.000000 0.000000
0.000000 0.000000 0.000000
0.000000 0.000000 0.046138
0.000000 0.000000 0.127422
0.000000 0.000000 0.206450
0.000000 0.000000 0.283222
0.000000 0.000000 0.357738
0.000000 0.000000 0.429997
0.000000 0.000000 0.500000
0.000000 0.000000 0.567747
0.000000 0.000000 0.633237
0.000000 0.000000 0.696472
0.000000 0.000000 0.757450
0.000000 0.000000 0.816172
0.000000 0.000000 0.851111
0.000000 0.000000 0.851111
0.000000 0.000000 0.851111
0.000000 0.000000 0.000000
0.000000 0.000000 0.000000
0.000000 0.000000 0.053502
0.000000 0.000000 0.134585
0.000000 0.000000 0.213411
0.000000 0.000000 0.289981
0.000000 0.000000 0.364295
0.000000 0.000000 0.436352
0.000000 0.000000 0.506153
0.000000 0.000000 0.573698
0.000000 0.005968 0.638987
0.000000 0.014307 0.702020
0.000000 0.022624 0.762796
0.000000 0.030918 0.821316
0.000000 0.036000 0.856131
0.000000 0.036000 0.856131
0.000000 0.036000 0.856131
0.000000 0.000000 0.000000
0.000000 0.005528 0.000000
0.000000 0.013869 0.060849
0.000000 0.022187 0.141730
0.000000 0.030482 0.220354
0.000000 0.038755 0.296722
0.000000 0.047005 0.370834
0.000000 0.055232 0.442690
0.000000 0.063437 0.512289
0.000000 0.071620 0.579632
0.000000 0.079780 0.644719
0.000000 0.087917 0.707549
0.000000 0.096032 0.768124
0.000000 0.104124 0.826442
0.000000 0.109082 0.861133
0.000000 0.109082 0.861133
0.000000 0.109082 0.861133
0.000000 0.071190 0.000000
0.000000 0.079351 0.000000
0.000000 0.087489 0.068177
0.000000 0.095605 0.148856
0.000000 0.103699 0.227279
0.000000 0.111770 0.303445
0.000000 0.119818 0.377355
0.000000 0.127844 0.449009
0.000000 0.135847 0.518406
0.000000 0.143827 0.585547
0.000000 0.151785 0.650432
0.000000 0.159721 0.713061
0.000000 0.167634 0.773434
0.000000 0.175524 0.831550
0.000000 0.180358 0.866117
0.000000 0.180358 0.866117
0.000000 0.180358 0.866117
0.000000 0.143408 0.000000
0.000000 0.151367 0.000000
0.000000 0.159304 0.075488
0.000000 0.167218 0.155965
0.000000 0.175109 0.234185
0.000000 0.182978 0.310150
0.000000 0.190825 0.383858
0.000000 0.198649 0.455310
0.000000 0.206450 0.524505
0.000000 0.214229 0.591445
0.000000 0.221985 0.656128
0.000000 0.229718 0.718555
0.000000 0.237429 0.778725
0.000000 0.245118 0.836640
0.000000 0.249828 0.871083
0.000000 0.249828 0.871083
0.000000 0.249828 0.871083
0.000000 0.213820 0.000000
0.000000 0.221577 0.000249
0.000000 0.229312 0.082780
0.000000 0.237024 0.163055
0.000000 0.244714 0.241074
0.000000 0.252381 0.316837
0.000000 0.260025 0.390343
0.000000 0.267647 0.461593
0.000000 0.275247 0.530587
0.000000 0.282824 0.597324
0.000000 0.290378 0.661805
0.000000 0.297910 0.724030
0.000000 0.305419 0.783999
0.000000 0.312905 0.841712
0.000000 0.317491 0.876031
0.000000 0.317491 0.876031
0.000000 0.317491 0.876031
0.000000 0.282425 0.000000
0.000000 0.289981 0.007726
0.000000 0.297514 0.090055
0.000000 0.305024 0.170128
0.000000 0.312512 0.247945
0.000000 0.319977 0.323505
0.000000 0.327420 0.396810
0.000000 0.334840 0.467858
0.000000 0.342237 0.536650
0.000000 0.349612 0.603185
0.000000 0.356965 0.667465
0.000000 0.364295 0.729488
0.000000 0.371602 0.789255
0.001130 0.378887 0.846765
0.006261 0.383349 0.880961
0.006261 0.383349 0.880961
0.006261 0.383349 0.880961
0.000000 0.349225 0.000000
0.000000 0.356578 0.015184
0.000000 0.363909 0.097311
0.000000 0.371218 0.177182
0.000000 0.378504 0.254797
0.000000 0.385767 0.330156
0.000000 0.393008 0.403259
0.000000 0.400226 0.474105
0.000000 0.407422 0.542695
0.000000 0.414595 0.609029
0.000000 0.421745 0.673106
0.000000 0.428873 0.734927
0.000249 0.435979 0.794492
0.008604 0.443062 0.851801
0.013723 0.447400 0.885873
0.013723 0.447400 0.885873
0.013723 0.447400 0.885873
0.000000 0.414218 0.000000
0.000000 0.421370 0.022624
0.000000 0.428499 0.104549
0.000000 0.435605 0.184219
0.000000 0.442689 0.261632
0.000000 0.449751 0.336789
0.000000 0.456790 0.409690
0.000000 0.463806 0.480334
0.000000 0.470800 0.548722
0.000000 0.477771 0.614854
0.000000 0.484720 0.678729
0.000000 0.491646 0.740349
0.007726 0.498549 0.799712
0.016060 0.505430 0.856819
0.021166 0.509644 0.890766
0.021166 0.509644 0.890766
0.021166 0.509644 0.890766
0.000000 0.477405 0.000000
0.000000 0.484355 0.030046
0.000000 0.491282 0.111770
0.000000 0.498187 0.191237
0.000000 0.505069 0.268448
0.000000 0.511929 0.343403
0.000000 0.518766 0.416102
0.000000 0.525580 0.486545
0.000000 0.532372 0.554731
0.000000 0.539141 0.620661
0.000000 0.545888 0.684335
0.006847 0.552612 0.745752
0.015184 0.559314 0.804914
0.023498 0.565993 0.861818
0.028592 0.570083 0.895642
0.028592 0.570083 0.895642
0.028592 0.570083 0.895642
0.000000 0.538786 0.000000
0.000000 0.545533 0.037450
0.000000 0.552259 0.118972
0.000000 0.558962 0.198238
0.000000 0.565642 0.275247
0.000000 0.572300 0.350000
0.000000 0.578935 0.422497
0.000000 0.585547 0.492738
0.000000 0.592137 0.560722
0.000000 0.598705 0.626450
0.005968 0.605250 0.689922
0.014307 0.611772 0.751137
0.022624 0.618272 0.810097
0.030918 0.624749 0.866800
0.036000 0.628715 0.900500
0.036000 0.628715 0.900500
0.036000 0.628715 0.900500
0.000000 0.598360 0.000000
0.000000 0.604906 0.044836
0.000000 0.611430 0.126156
0.000000 0.617930 0.205220
0.000000 0.624409 0.282027
0.000000 0.630865 0.356578
0.000000 0.637298 0.428873
0.000000 0.643709 0.498912
0.000000 0.650097 0.566695
0.005089 0.656462 0.632221
0.013430 0.662805 0.695491
0.021749 0.669126 0.756505
0.030046 0.675424 0.815262
0.038320 0.681699 0.871763
0.043389 0.685541 0.905339
0.043389 0.685541 0.905339
0.043389 0.685541 0.905339
0.000000 0.656128 0.000000
0.000000 0.662472 0.052204
0.000000 0.668794 0.133322
0.000000 0.675093 0.212184
0.000000 0.681369 0.288789
0.000000 0.687624 0.363139
0.000000 0.693855 0.435232
0.000000 0.700064 0.505069
0.004210 0.706250 0.572649
0.012553 0.712414 0.637974
0.020875 0.718555 0.701042
0.029174 0.724673 0.761854
0.037450 0.730770 0.820409
0.045704 0.736843 0.876709
0.050761 0.740561 0.910161
0.050761 0.740561 0.910161
0.050761 0.740561 0.910161
0.000000 0.712090 0.000000
0.000000 0.718232 0.059554
0.000000 0.724352 0.140470
0.000000 0.730449 0.219130
0.000000 0.736524 0.295534
0.000000 0.742576 0.369681
0.000000 0.748605 0.441572
0.003330 0.754612 0.511207
0.011676 0.760597 0.578586
0.020000 0.766559 0.643709
0.028301 0.772498 0.706575
0.036580 0.778415 0.767185
0.044836 0.784309 0.825539
0.053070 0.790180 0.881636
0.058114 0.793775 0.914964
0.058114 0.793775 0.914964
0.058114 0.793775 0.914964
0.000000 0.766246 0.000000
0.000000 0.772186 0.066885
0.000000 0.778104 0.147600
0.000000 0.783999 0.226058
0.000000 0.789872 0.302260
0.000000 0.795722 0.376205
0.002450 0.801550 0.447895
0.010799 0.807355 0.517328
0.019125 0.813137 0.584505
0.027428 0.818897 0.649425
0.035710 0.824635 0.712090
0.043968 0.830350 0.772498
0.052204 0.836042 0.830650
0.060417 0.841712 0.886545
0.065449 0.845182 0.919749
0.065449 0.845182 0.919749
0.065449 0.845182 0.919749
0.000000 0.818595 0.000000
0.000000 0.824333 0.074199
0.000000 0.830049 0.154712
0.000000 0.835743 0.232968
0.000000 0.841414 0.308968
0.001570 0.847062 0.382712
0.009921 0.852688 0.454199
0.018250 0.858291 0.523430
0.026555 0.863872 0.590405
0.034839 0.869430 0.655124
0.043100 0.874965 0.717587
0.051338 0.880478 0.777793
0.059554 0.885969 0.835743
0.067747 0.891437 0.891437
0.072767 0.894783 0.924517
0.072767 0.894783 0.924517
0.072767 0.894783 0.924517
0.000000 0.853476 0.000000
0.000000 0.859076 0.079208
0.000000 0.864653 0.159582
0.000000 0.870208 0.237700
0.000000 0.875741 0.313561
0.006700 0.881250 0.387166
0.015038 0.886738 0.458515
0.023352 0.892202 0.527608
0.031644 0.897644 0.594444
0.039914 0.903064 0.659025
0.048161 0.908461 0.721349
0.056385 0.913835 0.781416
0.064587 0.919187 0.839228
0.072767 0.924517 0.894783
0.077778 0.927778 0.927778
0.077778 0.927778 0.927778
0.077778 0.927778 0.927778
0.000000 0.000000 0.000000
0.000000 0.000000 0.000000
0.000000 0.000000 0.052492
0.000000 0.000000 0.133603
0.000000 0.000000 0.212457
0.000000 0.000000 0.289054
0.000000 0.000000 0.363396
0.000000 0.000000 0.435481
0.000000 0.000000 0.505310
0.000000 0.000000 0.572883
0.000000 0.000000 0.638199
0.004063 0.000000 0.701259
0.012407 0.000000 0.762063
0.020729 0.000000 0.820611
0.025828 0.000000 0.855443
0.025828 0.000000 0.855443
0.025828 0.000000 0.855443
0.000000 0.000000 0.000000
0.000000 0.000000 0.000000
0.000000 0.000000 0.059842
0.000000 0.000000 0.140750
0.000000 0.000000 0.219402
0.000000 0.000000 0.295798
0.000000 0.000000 0.369937
0.000000 0.000000 0.441821
0.000000 0.000000 0.511448
0.000000 0.004063 0.578819
0.003183 0.012407 0.643933
0.011530 0.020729 0.706792
0.019854 0.029028 0.767394
0.028156 0.037305 0.825739
0.033242 0.042376 0.860448
0.033242 0.042376 0.860448
0.033242 0.042376 0.860448
0.000000 0.003623 0.000000
0.000000 0.011969 0.000000
0.000000 0.020292 0.067173
0.000000 0.028592 0.147879
0.000000 0.036870 0.226329
0.000000 0.045125 0.302523
0.000000 0.053358 0.376461
0.000000 0.061568 0.448142
0.000000 0.069756 0.517568
0.002303 0.077921 0.584737
0.010652 0.086063 0.649649
0.018979 0.094183 0.712306
0.027283 0.102281 0.772706
0.035564 0.110355 0.830850
0.040638 0.115302 0.865434
0.040638 0.115302 0.865434
0.040638 0.115302 0.865434
0.000000 0.077492 0.000000
0.000000 0.085635 0.000000
0.000000 0.093756 0.074486
0.000000 0.101855 0.154990
0.000000 0.109931 0.233239
0.000000 0.117984 0.309231
0.000000 0.126015 0.382966
0.000000 0.134024 0.454446
0.001423 0.142009 0.523669
0.009775 0.149972 0.590636
0.018104 0.157913 0.655347
0.026410 0.165831 0.717802
0.034694 0.173727 0.778000
0.042955 0.181600 0.835942
0.048017 0.186423 0.870403
0.048017 0.186423 0.870403
0.048017 0.186423 0.870403
0.000000 0.149554 0.000000
0.000000 0.157496 0.000000
0.000000 0.165415 0.081781
0.000000 0.173312 0.162083
0.000000 0.181186 0.240130
0.000000 0.189037 0.315920
0.000000 0.196866 0.389454
0.000543 0.204673 0.460732
0.008897 0.212457 0.529753
0.017228 0.220218 0.596518
0.025537 0.227957 0.661027
0.033823 0.235673 0.723280
0.042086 0.243366 0.783276
0.050328 0.251037 0.841017
0.055377 0.255737 0.875353
0.055377 0.255737 0.875353
0.055377 0.255737 0.875353
0.000000 0.219810 0.000000
0.000000 0.227550 0.006700
0.000000 0.235267 0.089057
0.000000 0.242962 0.169158
0.000000 0.250634 0.247003
0.000000 0.258284 0.322591
0.000000 0.265911 0.395923
0.008018 0.273516 0.466999
0.016352 0.281098 0.535819
0.024663 0.288657 0.602382
0.032952 0.296194 0.666689
0.041218 0.303708 0.728740
0.049461 0.311200 0.788535
0.057682 0.318669 0.846073
0.062719 0.323244 0.880285
0.062719 0.323244 0.880285
0.062719 0.323244 0.880285
0.000000 0.288260 0.000000
0.000000 0.295798 0.014161
0.000000 0.303313 0.096316
0.000000 0.310806 0.176215
0.000000 0.318277 0.253858
0.000000 0.325724 0.329244
0.007140 0.333150 0.402375
0.015476 0.340552 0.473249
0.023789 0.347932 0.541866
0.032080 0.355290 0.608228
0.040349 0.362625 0.672333
0.048594 0.369937 0.734182
0.056818 0.377227 0.793775
0.065018 0.384495 0.851111
0.070043 0.388946 0.885200
0.070043 0.388946 0.885200
0.070043 0.388946 0.885200
0.000000 0.354903 0.000000
0.000000 0.362239 0.021604
0.000000 0.369553 0.103557
0.000000 0.376844 0.183254
0.000000 0.384113 0.260695
0.006261 0.391359 0.335880
0.014599 0.398582 0.408808
0.022915 0.405783 0.479480
0.031209 0.412961 0.547896
0.039479 0.420117 0.614055
0.047727 0.427250 0.677959
0.055953 0.434360 0.739606
0.064156 0.441448 0.798997
0.072337 0.448514 0.856131
0.077349 0.452841 0.890096
0.077349 0.452841 0.890096
0.077349 0.452841 0.890096
0.000000 0.419741 0.000000
0.000000 0.426875 0.029028
0.000000 0.433987 0.110780
0.000000 0.441076 0.190275
0.005382 0.448142 0.267514
0.013723 0.455186 0.342497
0.022041 0.462208 0.415223
0.030337 0.469207 0.485693
0.038610 0.476183 0.553907
0.046860 0.483137 0.619865
0.055088 0.490068 0.683566
0.063294 0.496977 0.745012
0.071477 0.503863 0.804201
0.079637 0.510727 0.861133
0.084636 0.514930 0.894974
0.084636 0.514930 0.894974
0.084636 0.514930 0.894974
0.000000 0.482772 0.000000
0.000000 0.489704 0.036435
0.000000 0.496614 0.117984
0.004503 0.503501 0.197278
0.012846 0.510366 0.274315
0.021166 0.517208 0.349096
0.029465 0.524028 0.421620
0.037740 0.530825 0.491889
0.045993 0.537599 0.559901
0.054223 0.544351 0.625656
0.062431 0.551081 0.689156
0.070616 0.557787 0.750399
0.078779 0.564472 0.809386
0.086919 0.571133 0.866117
0.091906 0.575213 0.899834
0.091906 0.575213 0.899834
0.091906 0.575213 0.899834
0.000000 0.543996 0.000000
0.000000 0.550727 0.043823
0.003623 0.557435 0.125171
0.011969 0.564120 0.204262
0.020292 0.570783 0.281098
0.028592 0.577424 0.355677
0.036870 0.584041 0.427999
0.045125 0.590636 0.498066
0.053358 0.597209 0.565876
0.061568 0.603759 0.631430
0.069756 0.610287 0.694728
0.077921 0.616792 0.755769
0.086063 0.623274 0.814554
0.094183 0.629734 0.871083
0.099158 0.633689 0.904676
0.099158 0.633689 0.904676
0.099158 0.633689 0.904676
0.000000 0.603415 0.000000
0.002743 0.609944 0.051194
0.011091 0.616450 0.132340
0.019417 0.622933 0.211229
0.027719 0.629394 0.287862
0.036000 0.635833 0.362239
0.044257 0.642249 0.434360
0.052492 0.648642 0.504225
0.060705 0.655013 0.571833
0.068895 0.661361 0.637185
0.077062 0.667686 0.700281
0.085207 0.673989 0.761121
0.093330 0.680270 0.819704
0.101429 0.686528 0.876031
0.106392 0.690359 0.909500
0.106392 0.690359 0.909500
0.106392 0.690359 0.909500
0.001863 0.661027 0.000000
0.010214 0.667354 0.058546
0.018541 0.673658 0.139490
0.026847 0.679940 0.218178
0.035129 0.686199 0.294609
0.043389 0.692436 0.368784
0.051627 0.698650 0.440703
0.059842 0.704841 0.510366
0.068034 0.711010 0.577772
0.076204 0.717156 0.642923
0.084351 0.723280 0.705817
0.092476 0.729381 0.766454
0.100578 0.735460 0.824836
0.108657 0.741516 0.880961
0.113607 0.745223 0.914306
0.113607 0.745223 0.914306
0.113607 0.745223 0.914306
0.009336 0.716833 0.000000
0.017666 0.722958 0.065880
0.025973 0.729061 0.146622
0.034258 0.735140 0.225108
0.042521 0.741198 0.301338
0.050761 0.747232 0.375311
0.058978 0.753244 0.447028
0.067173 0.759234 0.516489
0.075345 0.765201 0.583694
0.083494 0.771145 0.648642
0.091621 0.777067 0.711334
0.099726 0.782967 0.771770
0.107808 0.788843 0.829949
0.115867 0.794698 0.885873
0.120805 0.798281 0.919094
0.120805 0.798281 0.919094
0.120805 0.798281 0.919094
0.016790 0.770833 0.000000
0.025100 0.776756 0.073196
0.033387 0.782657 0.153737
0.041652 0.788535 0.232021
0.049894 0.794390 0.308048
0.058114 0.800223 0.381820
0.066311 0.806033 0.453335
0.074486 0.811821 0.522594
0.082638 0.817586 0.589597
0.090767 0.823328 0.654343
0.098874 0.829048 0.716833
0.106958 0.834746 0.777067
0.115020 0.840421 0.835045
0.123059 0.846073 0.890766
0.127984 0.849532 0.923863
0.127984 0.849532 0.923863
0.127984 0.849532 0.923863
0.024226 0.823027 0.000000
0.032516 0.828748 0.080495
0.040783 0.834446 0.160833
0.049028 0.840122 0.238915
0.057250 0.845776 0.314741
0.065449 0.851407 0.388310
0.073626 0.857015 0.459624
0.081781 0.862601 0.528681
0.089912 0.868164 0.595482
0.098022 0.873705 0.660026
0.106108 0.879223 0.722315
0.114172 0.884719 0.782347
0.122214 0.890192 0.840122
0.130233 0.895642 0.895642
0.135146 0.898978 0.928615
0.135146 0.898978 0.928615
0.135146 0.898978 0.928615
0.029319 0.857801 0.003037
0.037595 0.863383 0.085493
0.045848 0.868943 0.165692
0.054079 0.874481 0.243636
0.062287 0.879996 0.319323
0.070473 0.885488 0.392754
0.078636 0.890958 0.463929
0.086776 0.896405 0.532848
0.094894 0.901830 0.599510
0.102990 0.907232 0.663916
0.111063 0.912612 0.726066
0.119113 0.917969 0.785959
0.127141 0.923303 0.843597
0.135146 0.928615 0.898978
0.140050 0.931866 0.931866
0.140050 0.931866 0.931866
0.140050 0.931866 0.931866
0.000000 0.000000 0.000000
0.000000 0.000000 0.000000
0.000000 0.000000 0.058834
0.001717 0.000000 0.139770
0.010067 0.000000 0.218450
0.018395 0.000000 0.294873
0.026701 0.000000 0.369041
0.034984 0.000000 0.440952
0.043244 0.000000 0.510606
0.051482 0.000000 0.578005
0.059698 0.000000 0.643147
0.067890 0.000000 0.706033
0.076061 0.000000 0.766663
0.084208 0.000000 0.825037
0.089200 0.000000 0.859762
0.089200 0.000000 0.859762
0.089200 0.000000 0.859762
0.000000 0.000000 0.000000
0.000000 0.000000 0.000000
0.000836 0.000000 0.066168
0.009189 0.000000 0.146902
0.017520 0.000000 0.225380
0.025828 0.000000 0.301601
0.034113 0.000000 0.375567
0.042376 0.000000 0.447276
0.050616 0.002157 0.516729
0.058834 0.010506 0.583925
0.067029 0.018833 0.648866
0.075202 0.027137 0.711550
0.083352 0.035419 0.771978
0.091479 0.043679 0.830150
0.096458 0.048739 0.864751
0.096458 0.048739 0.864751
0.096458 0.048739 0.864751
0.000000 0.010067 0.000000
0.000000 0.018395 0.000000
0.008311 0.026701 0.073483
0.016644 0.034984 0.154015
0.024954 0.043244 0.232291
0.033242 0.051482 0.308311
0.041507 0.059698 0.382075
0.049750 0.067890 0.453582
0.057970 0.076061 0.522833
0.066168 0.084208 0.589828
0.074342 0.092333 0.654566
0.082495 0.100436 0.717049
0.090625 0.108516 0.777275
0.098732 0.116573 0.835244
0.103699 0.121509 0.869722
0.103699 0.121509 0.869722
0.103699 0.121509 0.869722
0.000000 0.083780 0.000000
0.007433 0.091906 0.000000
0.015768 0.100010 0.080780
0.024081 0.108091 0.161111
0.032371 0.116150 0.239185
0.040638 0.124186 0.315003
0.048883 0.132199 0.388565
0.057106 0.140190 0.459870
0.065306 0.148158 0.528919
0.073483 0.156104 0.595712
0.081638 0.164027 0.660249
0.089770 0.171928 0.722529
0.097880 0.179806 0.782553
0.105967 0.187661 0.840321
0.110921 0.192474 0.874675
0.110921 0.192474 0.874675
0.110921 0.192474 0.874675
0.006554 0.155686 0.000000
0.014892 0.163611 0.005675
0.023207 0.171513 0.088060
0.031499 0.179392 0.168188
0.039769 0.187249 0.246061
0.048017 0.195083 0.321677
0.056241 0.202894 0.395036
0.064444 0.210683 0.466140
0.072623 0.218450 0.534987
0.080780 0.226194 0.601578
0.088915 0.233915 0.665913
0.097027 0.241614 0.727992
0.105116 0.249290 0.787814
0.113183 0.256944 0.845380
0.118125 0.261632 0.879609
0.118125 0.261632 0.879609
0.118125 0.261632 0.879609
0.014015 0.225787 0.000000
0.022332 0.233509 0.013138
0.030627 0.241209 0.095321
0.038900 0.248886 0.175248
0.047149 0.256541 0.252918
0.055377 0.264174 0.328332
0.063581 0.271783 0.401490
0.071763 0.279370 0.472392
0.079923 0.286935 0.541037
0.088060 0.294477 0.607426
0.096174 0.301996 0.671559
0.104266 0.309493 0.733436
0.112335 0.316968 0.793056
0.120382 0.324419 0.850421
0.125312 0.328984 0.884526
0.125312 0.328984 0.884526
0.125312 0.328984 0.884526
0.021458 0.294081 0.000000
0.029755 0.301601 0.020583
0.038030 0.309099 0.102564
0.046282 0.316575 0.182289
0.054512 0.324028 0.259758
0.062719 0.331458 0.334970
0.070903 0.338866 0.407926
0.079065 0.346251 0.478626
0.087204 0.353614 0.547069
0.095321 0.360954 0.613257
0.103415 0.368272 0.677188
0.111487 0.375567 0.738862
0.119536 0.382839 0.798281
0.127562 0.390089 0.855443
0.132480 0.394529 0.889425
0.132480 0.394529 0.889425
0.132480 0.394529 0.889425
0.028883 0.360568 0.000000
0.037160 0.367887 0.028010
0.045414 0.375183 0.109789
0.053646 0.382457 0.189312
0.061856 0.389708 0.266579
0.070043 0.396937 0.341589
0.078207 0.404142 0.414344
0.086349 0.411326 0.484842
0.094468 0.418487 0.553083
0.102564 0.425625 0.619069
0.110638 0.432741 0.682798
0.118690 0.439834 0.744271
0.126719 0.446904 0.803487
0.134725 0.453952 0.860448
0.139630 0.458269 0.894305
0.139630 0.458269 0.894305
0.139630 0.458269 0.894305
0.036290 0.425250 0.000000
0.044547 0.432367 0.035419
0.052781 0.439461 0.116997
0.060993 0.446533 0.196318
0.069182 0.453582 0.273382
0.077349 0.460609 0.348191
0.085493 0.467613 0.420743
0.093614 0.474594 0.491039
0.101713 0.481553 0.559079
0.109789 0.488490 0.624863
0.117843 0.495403 0.688390
0.125875 0.502295 0.749661
0.133883 0.509163 0.808676
0.141869 0.516009 0.865434
0.146762 0.520202 0.899168
0.146762 0.520202 0.899168
0.146762 0.520202 0.899168
0.043679 0.488125 0.000000
0.051915 0.495040 0.042810
0.060129 0.501932 0.124186
0.068321 0.508802 0.203305
0.076490 0.515650 0.280168
0.084636 0.522474 0.354774
0.092760 0.529277 0.427125
0.100862 0.536056 0.497219
0.108940 0.542813 0.565057
0.116997 0.549548 0.630639
0.125030 0.556260 0.693964
0.133041 0.562949 0.755033
0.141030 0.569616 0.813846
0.148996 0.576260 0.870403
0.153876 0.580329 0.904012
0.153876 0.580329 0.904012
0.153876 0.580329 0.904012
0.051049 0.549194 0.000000
0.059266 0.555907 0.050183
0.067460 0.562598 0.131357
0.075631 0.569266 0.210274
0.083780 0.575911 0.286935
0.091906 0.582534 0.361340
0.100010 0.589134 0.433488
0.108091 0.595712 0.503381
0.116150 0.602267 0.571017
0.124186 0.608800 0.636396
0.132199 0.615310 0.699520
0.140190 0.621798 0.760387
0.148158 0.628262 0.818998
0.156104 0.634705 0.875353
0.160972 0.638649 0.908839
0.160972 0.638649 0.908839
0.160972 0.638649 0.908839
0.058402 0.608457 0.000000
0.066598 0.614968 0.057538
0.074772 0.621457 0.138510
0.082923 0.627923 0.217225
0.091052 0.634366 0.293684
0.099158 0.640787 0.367887
0.107242 0.647186 0.439834
0.115302 0.653562 0.509524
0.123341 0.659915 0.576958
0.131357 0.666246 0.642136
0.139350 0.672554 0.705058
0.147321 0.678840 0.765723
0.155269 0.685103 0.824132
0.163194 0.691343 0.880285
0.168050 0.695164 0.913647
0.168050 0.695164 0.913647
0.168050 0.695164 0.913647
0.065737 0.665913 0.000000
0.073913 0.672222 0.064875
0.082066 0.678509 0.145644
0.090197 0.684774 0.224158
0.098306 0.691015 0.300415
0.106392 0.697234 0.374416
0.114455 0.703431 0.446161
0.122496 0.709605 0.515650
0.130514 0.715756 0.582882
0.138510 0.721885 0.647858
0.146483 0.727992 0.710578
0.154433 0.734075 0.771041
0.162361 0.740137 0.829249
0.170267 0.746175 0.885200
0.175110 0.749872 0.918437
0.175110 0.749872 0.918437
0.175110 0.749872 0.918437
0.073053 0.721563 0.000000
0.081209 0.727671 0.072193
0.089342 0.733756 0.152761
0.097453 0.739818 0.231073
0.105542 0.745858 0.307128
0.113607 0.751875 0.380928
0.121650 0.757870 0.452470
0.129671 0.763842 0.521757
0.137669 0.769792 0.588787
0.145644 0.775719 0.653562
0.153597 0.781623 0.716080
0.161528 0.787505 0.776341
0.169435 0.793364 0.834347
0.177321 0.799201 0.890096
0.182151 0.802774 0.923210
0.182151 0.802774 0.923210
0.182151 0.802774 0.923210
0.080352 0.775407 0.000000
0.088487 0.781313 0.079494
0.096601 0.787196 0.159860
0.104691 0.793056 0.237970
0.112759 0.798894 0.313823
0.120805 0.804710 0.387421
0.128828 0.810503 0.458762
0.136828 0.816273 0.527847
0.144806 0.822021 0.594675
0.152761 0.827746 0.659247
0.160694 0.833448 0.721563
0.168604 0.839128 0.781623
0.176492 0.844786 0.839427
0.184357 0.850421 0.894974
0.189175 0.853869 0.927964
0.189175 0.853869 0.927964
0.189175 0.853869 0.927964
0.087632 0.827445 0.004356
0.095748 0.833149 0.086776
0.103841 0.838830 0.166941
0.111911 0.844489 0.244849
0.119959 0.850125 0.320500
0.127984 0.855738 0.393896
0.135987 0.861329 0.465035
0.143967 0.866897 0.533918
0.151925 0.872443 0.600544
0.159860 0.877967 0.664915
0.167772 0.883467 0.727029
0.175662 0.888945 0.786887
0.183530 0.894401 0.844489
0.191375 0.899834 0.899834
0.196180 0.903159 0.932700
0.196180 0.903159 0.932700
0.196180 0.903159 0.932700
0.092618 0.862112 0.009482
0.100720 0.867677 0.091764
0.108799 0.873220 0.171790
0.116855 0.878740 0.249559
0.124889 0.884237 0.325072
0.132901 0.889713 0.398329
0.140890 0.895165 0.469330
0.148856 0.900595 0.538074
0.156800 0.906002 0.604562
0.164721 0.911387 0.668794
0.172620 0.916749 0.730769
0.180496 0.922088 0.790489
0.188350 0.927405 0.847952
0.196180 0.932700 0.903159
0.200978 0.935940 0.935940
0.200978 0.935940 0.935940
0.200978 0.935940 0.935940
0.040928 0.000000 0.000000
0.049172 0.000000 0.000000
0.057394 0.000000 0.065162
0.065593 0.000000 0.145924
0.073769 0.000000 0.224430
0.081923 0.000000 0.300679
0.090055 0.000000 0.374672
0.098164 0.000000 0.446409
0.106250 0.000000 0.515889
0.114314 0.000000 0.583114
0.122355 0.000000 0.648082
0.130373 0.000000 0.710794
0.138370 0.000000 0.771249
0.146343 0.000000 0.829449
0.151228 0.000000 0.864067
0.151228 0.000000 0.864067
