app/luts/film_portra.cube
TITLE "胶片暖调"
# StyleForge original LUT. Cube format compatible with CubeLUT.cn / Premiere.
LUT_3D_SIZE 17
DOMAIN_MIN 0.0 0.0 0.0
DOMAIN_MAX 1.0 1.0 1.0
0.000000 0.000000 0.000000
0.000000 0.000000 0.000000
0.000000 0.000000 0.000000
0.000000 0.000000 0.058454
0.000000 0.000000 0.150806
0.000000 0.000000 0.239591
0.000000 0.000000 0.324810
0.000000 0.000000 0.406463
0.000000 0.000000 0.484550
0.000000 0.000000 0.559071
0.000000 0.000000 0.630025
0.000000 0.000000 0.697412
0.000000 0.000000 0.761234
0.000000 0.000000 0.821489
0.000000 0.000000 0.878178
0.000000 0.000000 0.931301
0.000000 0.000000 0.980857
0.000000 0.000000 0.000000
0.000000 0.000000 0.000000
0.000000 0.000000 0.000000
0.000000 0.000000 0.058454
0.000000 0.000000 0.150806
0.000000 0.000000 0.239591
0.000000 0.000000 0.324810
0.000000 0.000000 0.406463
0.000000 0.000000 0.484550
0.000000 0.000000 0.559071
0.000000 0.000000 0.630025
0.000000 0.000000 0.697412
0.000000 0.000000 0.761234
0.000000 0.000000 0.821489
0.000000 0.000000 0.878178
0.000000 0.000000 0.931301
0.000000 0.000000 0.980857
0.000000 0.000000 0.000000
0.000000 0.000000 0.000000
0.000000 0.000000 0.000000
0.000000 0.000000 0.058454
0.000000 0.000000 0.150806
0.000000 0.000000 0.239591
0.000000 0.000000 0.324810
0.000000 0.000000 0.406463
0.000000 0.000000 0.484550
0.000000 0.000000 0.559071
0.000000 0.000000 0.630025
0.000000 0.000000 0.697412
0.000000 0.000000 0.761234
0.000000 0.000000 0.821489
0.000000 0.000000 0.878178
0.000000 0.000000 0.931301
0.000000 0.000000 0.980857
0.000000 0.095016 0.000000
0.000000 0.095016 0.000000
0.000000 0.095016 0.000000
0.000000 0.095016 0.058454
0.000000 0.095016 0.150806
0.000000 0.095016 0.239591
0.000000 0.095016 0.324810
0.000000 0.095016 0.406463
0.000000 0.095016 0.484550
0.000000 0.095016 0.559071
0.000000 0.095016 0.630025
0.000000 0.095016 0.697412
0.000000 0.095016 0.761234
0.000000 0.095016 0.821489
0.000000 0.095016 0.878178
0.000000 0.095016 0.931301
0.000000 0.095016 0.980857
0.000000 0.197573 0.000000
0.000000 0.197573 0.000000
0.000000 0.197573 0.000000
0.000000 0.197573 0.058454
0.000000 0.197573 0.150806
0.000000 0.197573 0.239591
0.000000 0.197573 0.324810
0.000000 0.197573 0.406463
0.000000 0.197573 0.484550
0.000000 0.197573 0.559071
0.000000 0.197573 0.630025
0.000000 0.197573 0.697412
0.000000 0.197573 0.761234
0.000000 0.197573 0.821489
0.000000 0.197573 0.878178
0.000000 0.197573 0.931301
0.000000 0.197573 0.980857
0.000000 0.295573 0.000000
0.000000 0.295573 0.000000
0.000000 0.295573 0.000000
0.000000 0.295573 0.058454
0.000000 0.295573 0.150806
0.000000 0.295573 0.239591
0.000000 0.295573 0.324810
0.000000 0.295573 0.406463
0.000000 0.295573 0.484550
0.000000 0.295573 0.559071
0.000000 0.295573 0.630025
0.000000 0.295573 0.697412
0.000000 0.295573 0.761234
0.000000 0.295573 0.821489
0.000000 0.295573 0.878178
0.000000 0.295573 0.931301
0.000000 0.295573 0.980857
0.000000 0.389016 0.000000
0.000000 0.389016 0.000000
0.000000 0.389016 0.000000
0.000000 0.389016 0.058454
0.000000 0.389016 0.150806
0.000000 0.389016 0.239591
0.000000 0.389016 0.324810
0.000000 0.389016 0.406463
0.000000 0.389016 0.484550
0.000000 0.389016 0.559071
0.000000 0.389016 0.630025
0.000000 0.389016 0.697412
0.000000 0.389016 0.761234
0.000000 0.389016 0.821489
0.000000 0.389016 0.878178
0.000000 0.389016 0.931301
0.000000 0.389016 0.980857
0.000000 0.477902 0.000000
0.000000 0.477902 0.000000
0.000000 0.477902 0.000000
0.000000 0.477902 0.058454
0.000000 0.477902 0.150806
0.000000 0.477902 0.239591
0.000000 0.477902 0.324810
0.000000 0.477902 0.406463
0.000000 0.477902 0.484550
0.000000 0.477902 0.559071
0.000000 0.477902 0.630025
0.000000 0.477902 0.697412
0.000000 0.477902 0.761234
0.000000 0.477902 0.821489
0.000000 0.477902 0.878178
0.000000 0.477902 0.931301
0.000000 0.477902 0.980857
0.000000 0.562230 0.000000
0.000000 0.562230 0.000000
0.000000 0.562230 0.000000
0.000000 0.562230 0.058454
0.000000 0.562230 0.150806
0.000000 0.562230 0.239591
0.000000 0.562230 0.324810
0.000000 0.562230 0.406463
0.000000 0.562230 0.484550
0.000000 0.562230 0.559071
0.000000 0.562230 0.630025
0.000000 0.562230 0.697412
0.000000 0.562230 0.761234
0.000000 0.562230 0.821489
0.000000 0.562230 0.878178
0.000000 0.562230 0.931301
0.000000 0.562230 0.980857
0.000000 0.642000 0.000000
0.000000 0.642000 0.000000
0.000000 0.642000 0.000000
0.000000 0.642000 0.058454
0.000000 0.642000 0.150806
0.000000 0.642000 0.239591
0.000000 0.642000 0.324810
0.000000 0.642000 0.406463
0.000000 0.642000 0.484550
0.000000 0.642000 0.559071
0.000000 0.642000 0.630025
0.000000 0.642000 0.697412
0.000000 0.642000 0.761234
0.000000 0.642000 0.821489
0.000000 0.642000 0.878178
0.000000 0.642000 0.931301
0.000000 0.642000 0.980857
0.000000 0.717214 0.000000
0.000000 0.717214 0.000000
0.000000 0.717214 0.000000
0.000000 0.717214 0.058454
0.000000 0.717214 0.150806
0.000000 0.717214 0.239591
0.000000 0.717214 0.324810
0.000000 0.717214 0.406463
0.000000 0.717214 0.484550
0.000000 0.717214 0.559071
0.000000 0.717214 0.630025
0.000000 0.717214 0.697412
0.000000 0.717214 0.761234
0.000000 0.717214 0.821489
0.000000 0.717214 0.878178
0.000000 0.717214 0.931301
0.000000 0.717214 0.980857
0.000000 0.787870 0.000000
0.000000 0.787870 0.000000
0.000000 0.787870 0.000000
0.000000 0.787870 0.058454
0.000000 0.787870 0.150806
0.000000 0.787870 0.239591
0.000000 0.787870 0.324810
0.000000 0.787870 0.406463
0.000000 0.787870 0.484550
0.000000 0.787870 0.559071
0.000000 0.787870 0.630025
0.000000 0.787870 0.697412
0.000000 0.787870 0.761234
0.000000 0.787870 0.821489
0.000000 0.787870 0.878178
0.000000 0.787870 0.931301
0.000000 0.787870 0.980857
0.000000 0.853969 0.000000
0.000000 0.853969 0.000000
0.000000 0.853969 0.000000
0.000000 0.853969 0.058454
0.000000 0.853969 0.150806
0.000000 0.853969 0.239591
0.000000 0.853969 0.324810
0.000000 0.853969 0.406463
0.000000 0.853969 0.484550
0.000000 0.853969 0.559071
0.000000 0.853969 0.630025
0.000000 0.853969 0.697412
0.000000 0.853969 0.761234
0.000000 0.853969 0.821489
0.000000 0.853969 0.878178
0.000000 0.853969 0.931301
0.000000 0.853969 0.980857
0.000000 0.915510 0.000000
0.000000 0.915510 0.000000
0.000000 0.915510 0.000000
0.000000 0.915510 0.058454
0.000000 0.915510 0.150806
0.000000 0.915510 0.239591
0.000000 0.915510 0.324810
0.000000 0.915510 0.406463
0.000000 0.915510 0.484550
0.000000 0.915510 0.559071
0.000000 0.915510 0.630025
0.000000 0.915510 0.697412
0.000000 0.915510 0.761234
0.000000 0.915510 0.821489
0.000000 0.915510 0.878178
0.000000 0.915510 0.931301
0.000000 0.915510 0.980857
0.000000 0.972494 0.000000
0.000000 0.972494 0.000000
0.000000 0.972494 0.000000
0.000000 0.972494 0.058454
0.000000 0.972494 0.150806
0.000000 0.972494 0.239591
0.000000 0.972494 0.324810
0.000000 0.972494 0.406463
0.000000 0.972494 0.484550
0.000000 0.972494 0.559071
0.000000 0.972494 0.630025
0.000000 0.972494 0.697412
0.000000 0.972494 0.761234
0.000000 0.972494 0.821489
0.000000 0.972494 0.878178
0.000000 0.972494 0.931301
0.000000 0.972494 0.980857
0.000000 1.000000 0.000000
0.000000 1.000000 0.000000
0.000000 1.000000 0.000000
0.000000 1.000000 0.058454
0.000000 1.000000 0.150806
0.000000 1.000000 0.239591
0.000000 1.000000 0.324810
0.000000 1.000000 0.406463
0.000000 1.000000 0.484550
0.000000 1.000000 0.559071
0.000000 1.000000 0.630025
0.000000 1.000000 0.697412
0.000000 1.000000 0.761234
0.000000 1.000000 0.821489
0.000000 1.000000 0.878178
0.000000 1.000000 0.931301
0.000000 1.000000 0.980857
0.000000 1.000000 0.000000
0.000000 1.000000 0.000000
0.000000 1.000000 0.000000
0.000000 1.000000 0.058454
0.000000 1.000000 0.150806
0.000000 1.000000 0.239591
0.000000 1.000000 0.324810
0.000000 1.000000 0.406463
0.000000 1.000000 0.484550
0.000000 1.000000 0.559071
0.000000 1.000000 0.630025
0.000000 1.000000 0.697412
0.000000 1.000000 0.761234
0.000000 1.000000 0.821489
0.000000 1.000000 0.878178
0.000000 1.000000 0.931301
0.000000 1.000000 0.980857
0.000000 0.000000 0.000000
0.000000 0.000000 0.000000
0.000000 0.000000 0.000000
0.000000 0.000000 0.058454
0.000000 0.000000 0.150806
0.000000 0.000000 0.239591
0.000000 0.000000 0.324810
0.000000 0.000000 0.406463
0.000000 0.000000 0.484550
0.000000 0.000000 0.559071
0.000000 0.000000 0.630025
0.000000 0.000000 0.697412
0.000000 0.000000 0.761234
0.000000 0.000000 0.821489
0.000000 0.000000 0.878178
0.000000 0.000000 0.931301
0.000000 0.000000 0.980857
0.000000 0.000000 0.000000
0.000000 0.000000 0.000000
0.000000 0.000000 0.000000
0.000000 0.000000 0.058454
0.000000 0.000000 0.150806
0.000000 0.000000 0.239591
0.000000 0.000000 0.324810
0.000000 0.000000 0.406463
0.000000 0.000000 0.484550
0.000000 0.000000 0.559071
0.000000 0.000000 0.630025
0.000000 0.000000 0.697412
0.000000 0.000000 0.761234
0.000000 0.000000 0.821489
0.000000 0.000000 0.878178
0.000000 0.000000 0.931301
0.000000 0.000000 0.980857
0.000000 0.000000 0.000000
0.000000 0.000000 0.000000
0.000000 0.000000 0.000000
0.000000 0.000000 0.058454
0.000000 0.000000 0.150806
0.000000 0.000000 0.239591
0.000000 0.000000 0.324810
0.000000 0.000000 0.406463
0.000000 0.000000 0.484550
0.000000 0.000000 0.559071
0.000000 0.000000 0.630025
0.000000 0.000000 0.697412
0.000000 0.000000 0.761234
0.000000 0.000000 0.821489
0.000000 0.000000 0.878178
0.000000 0.000000 0.931301
0.000000 0.000000 0.980857
0.000000 0.095016 0.000000
0.000000 0.095016 0.000000
0.000000 0.095016 0.000000
0.000000 0.095016 0.058454
0.000000 0.095016 0.150806
0.000000 0.095016 0.239591
0.000000 0.095016 0.324810
0.000000 0.095016 0.406463
0.000000 0.095016 0.484550
0.000000 0.095016 0.559071
0.000000 0.095016 0.630025
0.000000 0.095016 0.697412
0.000000 0.095016 0.761234
0.000000 0.095016 0.821489
0.000000 0.095016 0.878178
0.000000 0.095016 0.931301
0.000000 0.095016 0.980857
0.000000 0.197573 0.000000
0.000000 0.197573 0.000000
0.000000 0.197573 0.000000
0.000000 0.197573 0.058454
0.000000 0.197573 0.150806
0.000000 0.197573 0.239591
0.000000 0.197573 0.324810
0.000000 0.197573 0.406463
0.000000 0.197573 0.484550
0.000000 0.197573 0.559071
0.000000 0.197573 0.630025
0.000000 0.197573 0.697412
0.000000 0.197573 0.761234
0.000000 0.197573 0.821489
0.000000 0.197573 0.878178
0.000000 0.197573 0.931301
0.000000 0.197573 0.980857
0.000000 0.295573 0.000000
0.000000 0.295573 0.000000
0.000000 0.295573 0.000000
0.000000 0.295573 0.058454
0.000000 0.295573 0.150806
0.000000 0.295573 0.239591
0.000000 0.295573 0.324810
0.000000 0.295573 0.406463
0.000000 0.295573 0.484550
0.000000 0.295573 0.559071
0.000000 0.295573 0.630025
0.000000 0.295573 0.697412
0.000000 0.295573 0.761234
0.000000 0.295573 0.821489
0.000000 0.295573 0.878178
0.000000 0.295573 0.931301
0.000000 0.295573 0.980857
0.000000 0.389016 0.000000
0.000000 0.389016 0.000000
0.000000 0.389016 0.000000
0.000000 0.389016 0.058454
0.000000 0.389016 0.150806
0.000000 0.389016 0.239591
0.000000 0.389016 0.324810
0.000000 0.389016 0.406463
0.000000 0.389016 0.484550
0.000000 0.389016 0.559071
0.000000 0.389016 0.630025
0.000000 0.389016 0.697412
0.000000 0.389016 0.761234
0.000000 0.389016 0.821489
0.000000 0.389016 0.878178
0.000000 0.389016 0.931301
0.000000 0.389016 0.980857
0.000000 0.477902 0.000000
0.000000 0.477902 0.000000
0.000000 0.477902 0.000000
0.000000 0.477902 0.058454
0.000000 0.477902 0.150806
0.000000 0.477902 0.239591
0.000000 0.477902 0.324810
0.000000 0.477902 0.406463
0.000000 0.477902 0.484550
0.000000 0.477902 0.559071
0.000000 0.477902 0.630025
0.000000 0.477902 0.697412
0.000000 0.477902 0.761234
0.000000 0.477902 0.821489
0.000000 0.477902 0.878178
0.000000 0.477902 0.931301
0.000000 0.477902 0.980857
0.000000 0.562230 0.000000
0.000000 0.562230 0.000000
0.000000 0.562230 0.000000
0.000000 0.562230 0.058454
0.000000 0.562230 0.150806
0.000000 0.562230 0.239591
0.000000 0.562230 0.324810
0.000000 0.562230 0.406463
0.000000 0.562230 0.484550
0.000000 0.562230 0.559071
0.000000 0.562230 0.630025
0.000000 0.562230 0.697412
0.000000 0.562230 0.761234
0.000000 0.562230 0.821489
0.000000 0.562230 0.878178
0.000000 0.562230 0.931301
0.000000 0.562230 0.980857
0.000000 0.642000 0.000000
0.000000 0.642000 0.000000
0.000000 0.642000 0.000000
0.000000 0.642000 0.058454
0.000000 0.642000 0.150806
0.000000 0.642000 0.239591
0.000000 0.642000 0.324810
0.000000 0.642000 0.406463
0.000000 0.642000 0.484550
0.000000 0.642000 0.559071
0.000000 0.642000 0.630025
0.000000 0.642000 0.697412
0.000000 0.642000 0.761234
0.000000 0.642000 0.821489
0.000000 0.642000 0.878178
0.000000 0.642000 0.931301
0.000000 0.642000 0.980857
0.000000 0.717214 0.000000
0.000000 0.717214 0.000000
0.000000 0.717214 0.000000
0.000000 0.717214 0.058454
0.000000 0.717214 0.150806
0.000000 0.717214 0.239591
0.000000 0.717214 0.324810
0.000000 0.717214 0.406463
0.000000 0.717214 0.484550
0.000000 0.717214 0.559071
0.000000 0.717214 0.630025
0.000000 0.717214 0.697412
0.000000 0.717214 0.761234
0.000000 0.717214 0.821489
0.000000 0.717214 0.878178
0.000000 0.717214 0.931301
0.000000 0.717214 0.980857
0.000000 0.787870 0.000000
0.000000 0.787870 0.000000
0.000000 0.787870 0.000000
0.000000 0.787870 0.058454
0.000000 0.787870 0.150806
0.000000 0.787870 0.239591
0.000000 0.787870 0.324810
0.000000 0.787870 0.406463
0.000000 0.787870 0.484550
0.000000 0.787870 0.559071
0.000000 0.787870 0.630025
0.000000 0.787870 0.697412
0.000000 0.787870 0.761234
0.000000 0.787870 0.821489
0.000000 0.787870 0.878178
0.000000 0.787870 0.931301
0.000000 0.787870 0.980857
0.000000 0.853969 0.000000
0.000000 0.853969 0.000000
0.000000 0.853969 0.000000
0.000000 0.853969 0.058454
0.000000 0.853969 0.150806
0.000000 0.853969 0.239591
0.000000 0.853969 0.324810
0.000000 0.853969 0.406463
0.000000 0.853969 0.484550
0.000000 0.853969 0.559071
0.000000 0.853969 0.630025
0.000000 0.853969 0.697412
0.000000 0.853969 0.761234
0.000000 0.853969 0.821489
0.000000 0.853969 0.878178
0.000000 0.853969 0.931301
0.000000 0.853969 0.980857
0.000000 0.915510 0.000000
0.000000 0.915510 0.000000
0.000000 0.915510 0.000000
0.000000 0.915510 0.058454
0.000000 0.915510 0.150806
0.000000 0.915510 0.239591
0.000000 0.915510 0.324810
0.000000 0.915510 0.406463
0.000000 0.915510 0.484550
0.000000 0.915510 0.559071
0.000000 0.915510 0.630025
0.000000 0.915510 0.697412
0.000000 0.915510 0.761234
0.000000 0.915510 0.821489
0.000000 0.915510 0.878178
0.000000 0.915510 0.931301
0.000000 0.915510 0.980857
0.000000 0.972494 0.000000
0.000000 0.972494 0.000000
0.000000 0.972494 0.000000
0.000000 0.972494 0.058454
0.000000 0.972494 0.150806
0.000000 0.972494 0.239591
0.000000 0.972494 0.324810
0.000000 0.972494 0.406463
0.000000 0.972494 0.484550
0.000000 0.972494 0.559071
0.000000 0.972494 0.630025
0.000000 0.972494 0.697412
0.000000 0.972494 0.761234
0.000000 0.972494 0.821489
0.000000 0.972494 0.878178
0.000000 0.972494 0.931301
0.000000 0.972494 0.980857
0.000000 1.000000 0.000000
0.000000 1.000000 0.000000
0.000000 1.000000 0.000000
0.000000 1.000000 0.058454
0.000000 1.000000 0.150806
0.000000 1.000000 0.239591
0.000000 1.000000 0.324810
0.000000 1.000000 0.406463
0.000000 1.000000 0.484550
0.000000 1.000000 0.559071
0.000000 1.000000 0.630025
0.000000 1.000000 0.697412
0.000000 1.000000 0.761234
0.000000 1.000000 0.821489
0.000000 1.000000 0.878178
0.000000 1.000000 0.931301
0.000000 1.000000 0.980857
0.000000 1.000000 0.000000
0.000000 1.000000 0.000000
0.000000 1.000000 0.000000
0.000000 1.000000 0.058454
0.000000 1.000000 0.150806
0.000000 1.000000 0.239591
0.000000 1.000000 0.324810
0.000000 1.000000 0.406463
0.000000 1.000000 0.484550
0.000000 1.000000 0.559071
0.000000 1.000000 0.630025
0.000000 1.000000 0.697412
0.000000 1.000000 0.761234
0.000000 1.000000 0.821489
0.000000 1.000000 0.878178
0.000000 1.000000 0.931301
0.000000 1.000000 0.980857
0.033775 0.000000 0.000000
0.033775 0.000000 0.000000
0.033775 0.000000 0.000000
0.033775 0.000000 0.058454
0.033775 0.000000 0.150806
0.033775 0.000000 0.239591
0.033775 0.000000 0.324810
0.033775 0.000000 0.406463
0.033775 0.000000 0.484550
0.033775 0.000000 0.559071
0.033775 0.000000 0.630025
0.033775 0.000000 0.697412
0.033775 0.000000 0.761234
0.033775 0.000000 0.821489
0.033775 0.000000 0.878178
0.033775 0.000000 0.931301
0.033775 0.000000 0.980857
0.033775 0.000000 0.000000
0.033775 0.000000 0.000000
0.033775 0.000000 0.000000
0.033775 0.000000 0.058454
0.033775 0.000000 0.150806
0.033775 0.000000 0.239591
0.033775 0.000000 0.324810
0.033775 0.000000 0.406463
0.033775 0.000000 0.484550
0.033775 0.000000 0.559071
0.033775 0.000000 0.630025
0.033775 0.000000 0.697412
0.033775 0.000000 0.761234
0.033775 0.000000 0.821489
0.033775 0.000000 0.878178
0.033775 0.000000 0.931301
0.033775 0.000000 0.980857
0.033775 0.000000 0.000000
0.033775 0.000000 0.000000
0.033775 0.000000 0.000000
0.033775 0.000000 0.058454
0.033775 0.000000 0.150806
0.033775 0.000000 0.239591
0.033775 0.000000 0.324810
0.033775 0.000000 0.406463
0.033775 0.000000 0.484550
0.033775 0.000000 0.559071
0.033775 0.000000 0.630025
0.033775 0.000000 0.697412
0.033775 0.000000 0.761234
0.033775 0.000000 0.821489
0.033775 0.000000 0.878178
0.033775 0.000000 0.931301
0.033775 0.000000 0.980857
0.033775 0.095016 0.000000
0.033775 0.095016 0.000000
0.033775 0.095016 0.000000
0.033775 0.095016 0.058454
0.033775 0.095016 0.150806
0.033775 0.095016 0.239591
0.033775 0.095016 0.324810
0.033775 0.095016 0.406463
0.033775 0.095016 0.484550
0.033775 0.095016 0.559071
0.033775 0.095016 0.630025
0.033775 0.095016 0.697412
0.033775 0.095016 0.761234
0.033775 0.095016 0.821489
0.033775 0.095016 0.878178
0.033775 0.095016 0.931301
0.033775 0.095016 0.980857
0.033775 0.197573 0.000000
0.033775 0.197573 0.000000
0.033775 0.197573 0.000000
0.033775 0.197573 0.058454
0.033775 0.197573 0.150806
0.033775 0.197573 0.239591
0.033775 0.197573 0.324810
0.033775 0.197573 0.406463
0.033775 0.197573 0.484550
0.033775 0.197573 0.559071
0.033775 0.197573 0.630025
0.033775 0.197573 0.697412
0.033775 0.197573 0.761234
0.033775 0.197573 0.821489
0.033775 0.197573 0.878178
0.033775 0.197573 0.931301
0.033775 0.197573 0.980857
0.033775 0.295573 0.000000
0.033775 0.295573 0.000000
0.033775 0.295573 0.000000
0.033775 0.295573 0.058454
0.033775 0.295573 0.150806
0.033775 0.295573 0.239591
0.033775 0.295573 0.324810
0.033775 0.295573 0.406463
0.033775 0.295573 0.484550
0.033775 0.295573 0.559071
0.033775 0.295573 0.630025
0.033775 0.295573 0.697412
0.033775 0.295573 0.761234
0.033775 0.295573 0.821489
0.033775 0.295573 0.878178
0.033775 0.295573 0.931301
0.033775 0.295573 0.980857
0.033775 0.389016 0.000000
0.033775 0.389016 0.000000
0.033775 0.389016 0.000000
0.033775 0.389016 0.058454
0.033775 0.389016 0.150806
0.033775 0.389016 0.239591
0.033775 0.389016 0.324810
0.033775 0.389016 0.406463
0.033775 0.389016 0.484550
0.033775 0.389016 0.559071
0.033775 0.389016 0.630025
0.033775 0.389016 0.697412
0.033775 0.389016 0.761234
0.033775 0.389016 0.821489
0.033775 0.389016 0.878178
0.033775 0.389016 0.931301
0.033775 0.389016 0.980857
0.033775 0.477902 0.000000
0.033775 0.477902 0.000000
0.033775 0.477902 0.000000
0.033775 0.477902 0.058454
0.033775 0.477902 0.150806
0.033775 0.477902 0.239591
0.033775 0.477902 0.324810
0.033775 0.477902 0.406463
0.033775 0.477902 0.484550
0.033775 0.477902 0.559071
0.033775 0.477902 0.630025
0.033775 0.477902 0.697412
0.033775 0.477902 0.761234
0.033775 0.477902 0.821489
0.033775 0.477902 0.878178
0.033775 0.477902 0.931301
0.033775 0.477902 0.980857
0.033775 0.562230 0.000000
0.033775 0.562230 0.000000
0.033775 0.562230 0.000000
0.033775 0.562230 0.058454
0.033775 0.562230 0.150806
0.033775 0.562230 0.239591
0.033775 0.562230 0.324810
0.033775 0.562230 0.406463
0.033775 0.562230 0.484550
0.033775 0.562230 0.559071
0.033775 0.562230 0.630025
0.033775 0.562230 0.697412
0.033775 0.562230 0.761234
0.033775 0.562230 0.821489
0.033775 0.562230 0.878178
0.033775 0.562230 0.931301
0.033775 0.562230 0.980857
0.033775 0.642000 0.000000
0.033775 0.642000 0.000000
0.033775 0.642000 0.000000
0.033775 0.642000 0.058454
0.033775 0.642000 0.150806
0.033775 0.642000 0.239591
0.033775 0.642000 0.324810
0.033775 0.642000 0.406463
0.033775 0.642000 0.484550
0.033775 0.642000 0.559071
0.033775 0.642000 0.630025
0.033775 0.642000 0.697412
0.033775 0.642000 0.761234
0.033775 0.642000 0.821489
0.033775 0.642000 0.878178
0.033775 0.642000 0.931301
0.033775 0.642000 0.980857
0.033775 0.717214 0.000000
0.033775 0.717214 0.000000
0.033775 0.717214 0.000000
0.033775 0.717214 0.058454
0.033775 0.717214 0.150806
0.033775 0.717214 0.239591
0.033775 0.717214 0.324810
0.033775 0.717214 0.406463
0.033775 0.717214 0.484550
0.033775 0.717214 0.559071
0.033775 0.717214 0.630025
0.033775 0.717214 0.697412
0.033775 0.717214 0.761234
0.033775 0.717214 0.821489
0.033775 0.717214 0.878178
0.033775 0.717214 0.931301
0.033775 0.717214 0.980857
0.033775 0.787870 0.000000
0.033775 0.787870 0.000000
0.033775 0.787870 0.000000
0.033775 0.787870 0.058454
0.033775 0.787870 0.150806
0.033775 0.787870 0.239591
0.033775 0.787870 0.324810
0.033775 0.787870 0.406463
0.033775 0.787870 0.484550
0.033775 0.787870 0.559071
0.033775 0.787870 0.630025
0.033775 0.787870 0.697412
0.033775 0.787870 0.761234
0.033775 0.787870 0.821489
0.033775 0.787870 0.878178
0.033775 0.787870 0.931301
0.033775 0.787870 0.980857
0.033775 0.853969 0.000000
0.033775 0.853969 0.000000
0.033775 0.853969 0.000000
0.033775 0.853969 0.058454
0.033775 0.853969 0.150806
0.033775 0.853969 0.239591
0.033775 0.853969 0.324810
0.033775 0.853969 0.406463
0.033775 0.853969 0.484550
0.033775 0.853969 0.559071
0.033775 0.853969 0.630025
0.033775 0.853969 0.697412
0.033775 0.853969 0.761234
0.033775 0.853969 0.821489
0.033775 0.853969 0.878178
0.033775 0.853969 0.931301
0.033775 0.853969 0.980857
0.033775 0.915510 0.000000
0.033775 0.915510 0.000000
0.033775 0.915510 0.000000
0.033775 0.915510 0.058454
0.033775 0.915510 0.150806
0.033775 0.915510 0.239591
0.033775 0.915510 0.324810
0.033775 0.915510 0.406463
0.033775 0.915510 0.484550
0.033775 0.915510 0.559071
0.033775 0.915510 0.630025
0.033775 0.915510 0.697412
0.033775 0.915510 0.761234
0.033775 0.915510 0.821489
0.033775 0.915510 0.878178
0.033775 0.915510 0.931301
0.033775 0.915510 0.980857
0.033775 0.972494 0.000000
0.033775 0.972494 0.000000
0.033775 0.972494 0.000000
0.033775 0.972494 0.058454
0.033775 0.972494 0.150806
0.033775 0.972494 0.239591
0.033775 0.972494 0.324810
0.033775 0.972494 0.406463
0.033775 0.972494 0.484550
0.033775 0.972494 0.559071
0.033775 0.972494 0.630025
0.033775 0.972494 0.697412
0.033775 0.972494 0.761234
0.033775 0.972494 0.821489
0.033775 0.972494 0.878178
0.033775 0.972494 0.931301
0.033775 0.972494 0.980857
0.033775 1.000000 0.000000
0.033775 1.000000 0.000000
0.033775 1.000000 0.000000
0.033775 1.000000 0.058454
0.033775 1.000000 0.150806
0.033775 1.000000 0.239591
0.033775 1.000000 0.324810
0.033775 1.000000 0.406463
0.033775 1.000000 0.484550
0.033775 1.000000 0.559071
0.033775 1.000000 0.630025
0.033775 1.000000 0.697412
0.033775 1.000000 0.761234
0.033775 1.000000 0.821489
0.033775 1.000000 0.878178
0.033775 1.000000 0.931301
0.033775 1.000000 0.980857
0.033775 1.000000 0.000000
0.033775 1.000000 0.000000
0.033775 1.000000 0.000000
0.033775 1.000000 0.058454
0.033775 1.000000 0.150806
0.033775 1.000000 0.239591
0.033775 1.000000 0.324810
0.033775 1.000000 0.406463
0.033775 1.000000 0.484550
0.033775 1.000000 0.559071
0.033775 1.000000 0.630025
0.033775 1.000000 0.697412
0.033775 1.000000 0.761234
0.033775 1.000000 0.821489
0.033775 1.000000 0.878178
0.033775 1.000000 0.931301
0.033775 1.000000 0.980857
0.144891 0.000000 0.000000
0.144891 0.000000 0.000000
0.144891 0.000000 0.000000
0.144891 0.000000 0.058454
0.144891 0.000000 0.150806
0.144891 0.000000 0.239591
0.144891 0.000000 0.324810
0.144891 0.000000 0.406463
0.144891 0.000000 0.484550
0.144891 0.000000 0.559071
0.144891 0.000000 0.630025
0.144891 0.000000 0.697412
0.144891 0.000000 0.761234
0.144891 0.000000 0.821489
0.144891 0.000000 0.878178
0.144891 0.000000 0.931301
