app/luts/film_portra.cube
TITLE "胶片暖调"
# StyleForge original LUT. Cube format compatible with CubeLUT.cn / Premiere.
LUT_3D_SIZE 9
DOMAIN_MIN 0.0 0.0 0.0
DOMAIN_MAX 1.0 1.0 1.0
0.000000 0.000000 0.000000
0.000000 0.000000 0.000000
0.000000 0.000000 0.150806
0.000000 0.000000 0.324810
0.000000 0.000000 0.484550
0.000000 0.000000 0.630025
0.000000 0.000000 0.761234
0.000000 0.000000 0.878178
0.000000 0.000000 0.980857
0.000000 0.000000 0.000000
0.000000 0.000000 0.000000
0.000000 0.000000 0.150806
0.000000 0.000000 0.324810
0.000000 0.000000 0.484550
0.000000 0.000000 0.630025
0.000000 0.000000 0.761234
0.000000 0.000000 0.878178
0.000000 0.000000 0.980857
0.000000 0.197573 0.000000
0.000000 0.197573 0.000000
0.000000 0.197573 0.150806
0.000000 0.197573 0.324810
0.000000 0.197573 0.484550
0.000000 0.197573 0.630025
0.000000 0.197573 0.761234
0.000000 0.197573 0.878178
0.000000 0.197573 0.980857
0.000000 0.389016 0.000000
0.000000 0.389016 0.000000
0.000000 0.389016 0.150806
0.000000 0.389016 0.324810
0.000000 0.389016 0.484550
0.000000 0.389016 0.630025
0.000000 0.389016 0.761234
0.000000 0.389016 0.878178
0.000000 0.389016 0.980857
0.000000 0.562230 0.000000
0.000000 0.562230 0.000000
0.000000 0.562230 0.150806
0.000000 0.562230 0.324810
0.000000 0.562230 0.484550
0.000000 0.562230 0.630025
0.000000 0.562230 0.761234
0.000000 0.562230 0.878178
0.000000 0.562230 0.980857
0.000000 0.717214 0.000000
0.000000 0.717214 0.000000
0.000000 0.717214 0.150806
0.000000 0.717214 0.324810
0.000000 0.717214 0.484550
0.000000 0.717214 0.630025
0.000000 0.717214 0.761234
0.000000 0.717214 0.878178
0.000000 0.717214 0.980857
0.000000 0.853969 0.000000
0.000000 0.853969 0.000000
0.000000 0.853969 0.150806
0.000000 0.853969 0.324810
0.000000 0.853969 0.484550
0.000000 0.853969 0.630025
0.000000 0.853969 0.761234
0.000000 0.853969 0.878178
0.000000 0.853969 0.980857
0.000000 0.972494 0.000000
0.000000 0.972494 0.000000
0.000000 0.972494 0.150806
0.000000 0.972494 0.324810
0.000000 0.972494 0.484550
0.000000 0.972494 0.630025
0.000000 0.972494 0.761234
0.000000 0.972494 0.878178
0.000000 0.972494 0.980857
0.000000 1.000000 0.000000
0.000000 1.000000 0.000000
0.000000 1.000000 0.150806
0.000000 1.000000 0.324810
0.000000 1.000000 0.484550
0.000000 1.000000 0.630025
0.000000 1.000000 0.761234
0.000000 1.000000 0.878178
0.000000 1.000000 0.980857
0.033775 0.000000 0.000000
0.033775 0.000000 0.000000
0.033775 0.000000 0.150806
0.033775 0.000000 0.324810
0.033775 0.000000 0.484550
0.033775 0.000000 0.630025
0.033775 0.000000 0.761234
0.033775 0.000000 0.878178
0.033775 0.000000 0.980857
0.033775 0.000000 0.000000
0.033775 0.000000 0.000000
0.033775 0.000000 0.150806
0.033775 0.000000 0.324810
0.033775 0.000000 0.484550
0.033775 0.000000 0.630025
0.033775 0.000000 0.761234
0.033775 0.000000 0.878178
0.033775 0.000000 0.980857
0.033775 0.197573 0.000000
0.033775 0.197573 0.000000
0.033775 0.197573 0.150806
0.033775 0.197573 0.324810
0.033775 0.197573 0.484550
0.033775 0.197573 0.630025
0.033775 0.197573 0.761234
0.033775 0.197573 0.878178
0.033775 0.197573 0.980857
0.033775 0.389016 0.000000
0.033775 0.389016 0.000000
0.033775 0.389016 0.150806
0.033775 0.389016 0.324810
0.033775 0.389016 0.484550
0.033775 0.389016 0.630025
0.033775 0.389016 0.761234
0.033775 0.389016 0.878178
0.033775 0.389016 0.980857
0.033775 0.562230 0.000000
0.033775 0.562230 0.000000
0.033775 0.562230 0.150806
0.033775 0.562230 0.324810
0.033775 0.562230 0.484550
0.033775 0.562230 0.630025
0.033775 0.562230 0.761234
0.033775 0.562230 0.878178
0.033775 0.562230 0.980857
0.033775 0.717214 0.000000
0.033775 0.717214 0.000000
0.033775 0.717214 0.150806
0.033775 0.717214 0.324810
0.033775 0.717214 0.484550
0.033775 0.717214 0.630025
0.033775 0.717214 0.761234
0.033775 0.717214 0.878178
0.033775 0.717214 0.980857
0.033775 0.853969 0.000000
0.033775 0.853969 0.000000
0.033775 0.853969 0.150806
0.033775 0.853969 0.324810
0.033775 0.853969 0.484550
0.033775 0.853969 0.630025
0.033775 0.853969 0.761234
0.033775 0.853969 0.878178
0.033775 0.853969 0.980857
0.033775 0.972494 0.000000
0.033775 0.972494 0.000000
0.033775 0.972494 0.150806
0.033775 0.972494 0.324810
0.033775 0.972494 0.484550
0.033775 0.972494 0.630025
0.033775 0.972494 0.761234
0.033775 0.972494 0.878178
0.033775 0.972494 0.980857
0.033775 1.000000 0.000000
0.033775 1.000000 0.000000
0.033775 1.000000 0.150806
0.033775 1.000000 0.324810
0.033775 1.000000 0.484550
0.033775 1.000000 0.630025
0.033775 1.000000 0.761234
0.033775 1.000000 0.878178
0.033775 1.000000 0.980857
0.250909 0.000000 0.000000
0.250909 0.000000 0.000000
0.250909 0.000000 0.150806
0.250909 0.000000 0.324810
0.250909 0.000000 0.484550
0.250909 0.000000 0.630025
0.250909 0.000000 0.761234
0.250909 0.000000 0.878178
0.250909 0.000000 0.980857
0.250909 0.000000 0.000000
0.250909 0.000000 0.000000
0.250909 0.000000 0.150806
0.250909 0.000000 0.324810
0.250909 0.000000 0.484550
0.250909 0.000000 0.630025
0.250909 0.000000 0.761234
0.250909 0.000000 0.878178
0.250909 0.000000 0.980857
0.250909 0.197573 0.000000
0.250909 0.197573 0.000000
0.250909 0.197573 0.150806
0.250909 0.197573 0.324810
0.250909 0.197573 0.484550
0.250909 0.197573 0.630025
0.250909 0.197573 0.761234
0.250909 0.197573 0.878178
0.250909 0.197573 0.980857
0.250909 0.389016 0.000000
0.250909 0.389016 0.000000
0.250909 0.389016 0.150806
0.250909 0.389016 0.324810
0.250909 0.389016 0.484550
0.250909 0.389016 0.630025
0.250909 0.389016 0.761234
0.250909 0.389016 0.878178
0.250909 0.389016 0.980857
0.250909 0.562230 0.000000
0.250909 0.562230 0.000000
0.250909 0.562230 0.150806
0.250909 0.562230 0.324810
0.250909 0.562230 0.484550
0.250909 0.562230 0.630025
0.250909 0.562230 0.761234
0.250909 0.562230 0.878178
0.250909 0.562230 0.980857
0.250909 0.717214 0.000000
0.250909 0.717214 0.000000
0.250909 0.717214 0.150806
0.250909 0.717214 0.324810
0.250909 0.717214 0.484550
0.250909 0.717214 0.630025
0.250909 0.717214 0.761234
0.250909 0.717214 0.878178
0.250909 0.717214 0.980857
0.250909 0.853969 0.000000
0.250909 0.853969 0.000000
0.250909 0.853969 0.150806
0.250909 0.853969 0.324810
0.250909 0.853969 0.484550
0.250909 0.853969 0.630025
0.250909 0.853969 0.761234
0.250909 0.853969 0.878178
0.250909 0.853969 0.980857
0.250909 0.972494 0.000000
0.250909 0.972494 0.000000
0.250909 0.972494 0.150806
0.250909 0.972494 0.324810
0.250909 0.972494 0.484550
0.250909 0.972494 0.630025
0.250909 0.972494 0.761234
0.250909 0.972494 0.878178
0.250909 0.972494 0.980857
0.250909 1.000000 0.000000
0.250909 1.000000 0.000000
0.250909 1.000000 0.150806
0.250909 1.000000 0.324810
0.250909 1.000000 0.484550
0.250909 1.000000 0.630025
0.250909 1.000000 0.761234
0.250909 1.000000 0.878178
0.250909 1.000000 0.980857
0.447649 0.000000 0.000000
0.447649 0.000000 0.000000
0.447649 0.000000 0.150806
0.447649 0.000000 0.324810
0.447649 0.000000 0.484550
0.447649 0.000000 0.630025
0.447649 0.000000 0.761234
0.447649 0.000000 0.878178
0.447649 0.000000 0.980857
0.447649 0.000000 0.000000
0.447649 0.000000 0.000000
0.447649 0.000000 0.150806
0.447649 0.000000 0.324810
0.447649 0.000000 0.484550
0.447649 0.000000 0.630025
0.447649 0.000000 0.761234
0.447649 0.000000 0.878178
0.447649 0.000000 0.980857
0.447649 0.197573 0.000000
0.447649 0.197573 0.000000
0.447649 0.197573 0.150806
0.447649 0.197573 0.324810
0.447649 0.197573 0.484550
0.447649 0.197573 0.630025
0.447649 0.197573 0.761234
0.447649 0.197573 0.878178
0.447649 0.197573 0.980857
0.447649 0.389016 0.000000
0.447649 0.389016 0.000000
0.447649 0.389016 0.150806
0.447649 0.389016 0.324810
0.447649 0.389016 0.484550
0.447649 0.389016 0.630025
0.447649 0.389016 0.761234
0.447649 0.389016 0.878178
0.447649 0.389016 0.980857
0.447649 0.562230 0.000000
0.447649 0.562230 0.000000
0.447649 0.562230 0.150806
0.447649 0.562230 0.324810
0.447649 0.562230 0.484550
0.447649 0.562230 0.630025
0.447649 0.562230 0.761234
0.447649 0.562230 0.878178
0.447649 0.562230 0.980857
0.447649 0.717214 0.000000
0.447649 0.717214 0.000000
0.447649 0.717214 0.150806
0.447649 0.717214 0.324810
0.447649 0.717214 0.484550
0.447649 0.717214 0.630025
0.447649 0.717214 0.761234
0.447649 0.717214 0.878178
0.447649 0.717214 0.980857
0.447649 0.853969 0.000000
0.447649 0.853969 0.000000
0.447649 0.853969 0.150806
0.447649 0.853969 0.324810
0.447649 0.853969 0.484550
0.447649 0.853969 0.630025
0.447649 0.853969 0.761234
0.447649 0.853969 0.878178
0.447649 0.853969 0.980857
0.447649 0.972494 0.000000
0.447649 0.972494 0.000000
0.447649 0.972494 0.150806
0.447649 0.972494 0.324810
0.447649 0.972494 0.484550
0.447649 0.972494 0.630025
0.447649 0.972494 0.761234
0.447649 0.972494 0.878178
0.447649 0.972494 0.980857
0.447649 1.000000 0.000000
0.447649 1.000000 0.000000
0.447649 1.000000 0.150806
0.447649 1.000000 0.324810
0.447649 1.000000 0.484550
0.447649 1.000000 0.630025
0.447649 1.000000 0.761234
0.447649 1.000000 0.878178
0.447649 1.000000 0.980857
0.623996 0.000000 0.000000
0.623996 0.000000 0.000000
0.623996 0.000000 0.150806
0.623996 0.000000 0.324810
0.623996 0.000000 0.484550
0.623996 0.000000 0.630025
0.623996 0.000000 0.761234
0.623996 0.000000 0.878178
0.623996 0.000000 0.980857
0.623996 0.000000 0.000000
0.623996 0.000000 0.000000
0.623996 0.000000 0.150806
0.623996 0.000000 0.324810
0.623996 0.000000 0.484550
0.623996 0.000000 0.630025
0.623996 0.000000 0.761234
0.623996 0.000000 0.878178
0.623996 0.000000 0.980857
0.623996 0.197573 0.000000
0.623996 0.197573 0.000000
0.623996 0.197573 0.150806
0.623996 0.197573 0.324810
0.623996 0.197573 0.484550
0.623996 0.197573 0.630025
0.623996 0.197573 0.761234
0.623996 0.197573 0.878178
0.623996 0.197573 0.980857
0.623996 0.389016 0.000000
0.623996 0.389016 0.000000
0.623996 0.389016 0.150806
0.623996 0.389016 0.324810
0.623996 0.389016 0.484550
0.623996 0.389016 0.630025
0.623996 0.389016 0.761234
0.623996 0.389016 0.878178
0.623996 0.389016 0.980857
0.623996 0.562230 0.000000
0.623996 0.562230 0.000000
0.623996 0.562230 0.150806
0.623996 0.562230 0.324810
0.623996 0.562230 0.484550
0.623996 0.562230 0.630025
0.623996 0.562230 0.761234
0.623996 0.562230 0.878178
0.623996 0.562230 0.980857
0.623996 0.717214 0.000000
0.623996 0.717214 0.000000
0.623996 0.717214 0.150806
0.623996 0.717214 0.324810
0.623996 0.717214 0.484550
0.623996 0.717214 0.630025
0.623996 0.717214 0.761234
0.623996 0.717214 0.878178
0.623996 0.717214 0.980857
0.623996 0.853969 0.000000
0.623996 0.853969 0.000000
0.623996 0.853969 0.150806
0.623996 0.853969 0.324810
0.623996 0.853969 0.484550
0.623996 0.853969 0.630025
0.623996 0.853969 0.761234
0.623996 0.853969 0.878178
0.623996 0.853969 0.980857
0.623996 0.972494 0.000000
0.623996 0.972494 0.000000
0.623996 0.972494 0.150806
0.623996 0.972494 0.324810
0.623996 0.972494 0.484550
0.623996 0.972494 0.630025
0.623996 0.972494 0.761234
0.623996 0.972494 0.878178
0.623996 0.972494 0.980857
0.623996 1.000000 0.000000
0.623996 1.000000 0.000000
0.623996 1.000000 0.150806
0.623996 1.000000 0.324810
0.623996 1.000000 0.484550
0.623996 1.000000 0.630025
0.623996 1.000000 0.761234
0.623996 1.000000 0.878178
0.623996 1.000000 0.980857
0.779950 0.000000 0.000000
0.779950 0.000000 0.000000
0.779950 0.000000 0.150806
0.779950 0.000000 0.324810
0.779950 0.000000 0.484550
0.779950 0.000000 0.630025
0.779950 0.000000 0.761234
0.779950 0.000000 0.878178
0.779950 0.000000 0.980857
0.779950 0.000000 0.000000
0.779950 0.000000 0.000000
0.779950 0.000000 0.150806
0.779950 0.000000 0.324810
0.779950 0.000000 0.484550
0.779950 0.000000 0.630025
0.779950 0.000000 0.761234
0.779950 0.000000 0.878178
0.779950 0.000000 0.980857
0.779950 0.197573 0.000000
0.779950 0.197573 0.000000
0.779950 0.197573 0.150806
0.779950 0.197573 0.324810
0.779950 0.197573 0.484550
0.779950 0.197573 0.630025
0.779950 0.197573 0.761234
0.779950 0.197573 0.878178
0.779950 0.197573 0.980857
0.779950 0.389016 0.000000
0.779950 0.389016 0.000000
0.779950 0.389016 0.150806
0.779950 0.389016 0.324810
0.779950 0.389016 0.484550
0.779950 0.389016 0.630025
0.779950 0.389016 0.761234
0.779950 0.389016 0.878178
0.779950 0.389016 0.980857
0.779950 0.562230 0.000000
0.779950 0.562230 0.000000
0.779950 0.562230 0.150806
0.779950 0.562230 0.324810
0.779950 0.562230 0.484550
0.779950 0.562230 0.630025
0.779950 0.562230 0.761234
0.779950 0.562230 0.878178
0.779950 0.562230 0.980857
0.779950 0.717214 0.000000
0.779950 0.717214 0.000000
0.779950 0.717214 0.150806
0.779950 0.717214 0.324810
0.779950 0.717214 0.484550
0.779950 0.717214 0.630025
0.779950 0.717214 0.761234
0.779950 0.717214 0.878178
0.779950 0.717214 0.980857
0.779950 0.853969 0.000000
0.779950 0.853969 0.000000
0.779950 0.853969 0.150806
0.779950 0.853969 0.324810
0.779950 0.853969 0.484550
0.779950 0.853969 0.630025
0.779950 0.853969 0.761234
0.779950 0.853969 0.878178
0.779950 0.853969 0.980857
0.779950 0.972494 0.000000
0.779950 0.972494 0.000000
0.779950 0.972494 0.150806
0.779950 0.972494 0.324810
0.779950 0.972494 0.484550
0.779950 0.972494 0.630025
0.779950 0.972494 0.761234
0.779950 0.972494 0.878178
0.779950 0.972494 0.980857
0.779950 1.000000 0.000000
0.779950 1.000000 0.000000
0.779950 1.000000 0.150806
0.779950 1.000000 0.324810
0.779950 1.000000 0.484550
0.779950 1.000000 0.630025
0.779950 1.000000 0.761234
0.779950 1.000000 0.878178
0.779950 1.000000 0.980857
0.915510 0.000000 0.000000
0.915510 0.000000 0.000000
0.915510 0.000000 0.150806
0.915510 0.000000 0.324810
0.915510 0.000000 0.484550
0.915510 0.000000 0.630025
0.915510 0.000000 0.761234
0.915510 0.000000 0.878178
0.915510 0.000000 0.980857
0.915510 0.000000 0.000000
0.915510 0.000000 0.000000
0.915510 0.000000 0.150806
0.915510 0.000000 0.324810
0.915510 0.000000 0.484550
0.915510 0.000000 0.630025
0.915510 0.000000 0.761234
0.915510 0.000000 0.878178
0.915510 0.000000 0.980857
0.915510 0.197573 0.000000
0.915510 0.197573 0.000000
0.915510 0.197573 0.150806
0.915510 0.197573 0.324810
0.915510 0.197573 0.484550
0.915510 0.197573 0.630025
0.915510 0.197573 0.761234
0.915510 0.197573 0.878178
0.915510 0.197573 0.980857
0.915510 0.389016 0.000000
0.915510 0.389016 0.000000
0.915510 0.389016 0.150806
0.915510 0.389016 0.324810
0.915510 0.389016 0.484550
0.915510 0.389016 0.630025
0.915510 0.389016 0.761234
0.915510 0.389016 0.878178
0.915510 0.389016 0.980857
0.915510 0.562230 0.000000
0.915510 0.562230 0.000000
0.915510 0.562230 0.150806
0.915510 0.562230 0.324810
0.915510 0.562230 0.484550
0.915510 0.562230 0.630025
0.915510 0.562230 0.761234
0.915510 0.562230 0.878178
0.915510 0.562230 0.980857
0.915510 0.717214 0.000000
0.915510 0.717214 0.000000
0.915510 0.717214 0.150806
0.915510 0.717214 0.324810
0.915510 0.717214 0.484550
0.915510 0.717214 0.630025
0.915510 0.717214 0.761234
0.915510 0.717214 0.878178
0.915510 0.717214 0.980857
0.915510 0.853969 0.000000
0.915510 0.853969 0.000000
0.915510 0.853969 0.150806
0.915510 0.853969 0.324810
0.915510 0.853969 0.484550
0.915510 0.853969 0.630025
0.915510 0.853969 0.761234
0.915510 0.853969 0.878178
0.915510 0.853969 0.980857
0.915510 0.972494 0.000000
0.915510 0.972494 0.000000
0.915510 0.972494 0.150806
0.915510 0.972494 0.324810
0.915510 0.972494 0.484550
0.915510 0.972494 0.630025
0.915510 0.972494 0.761234
0.915510 0.972494 0.878178
0.915510 0.972494 0.980857
0.915510 1.000000 0.000000
0.915510 1.000000 0.000000
0.915510 1.000000 0.150806
0.915510 1.000000 0.324810
0.915510 1.000000 0.484550
0.915510 1.000000 0.630025
0.915510 1.000000 0.761234
0.915510 1.000000 0.878178
0.915510 1.000000 0.980857
1.000000 0.000000 0.000000
1.000000 0.000000 0.000000
1.000000 0.000000 0.150806
1.000000 0.000000 0.324810
1.000000 0.000000 0.484550
1.000000 0.000000 0.630025
1.000000 0.000000 0.761234
1.000000 0.000000 0.878178
1.000000 0.000000 0.980857
1.000000 0.000000 0.000000
1.000000 0.000000 0.000000
1.000000 0.000000 0.150806
1.000000 0.000000 0.324810
1.000000 0.000000 0.484550
1.000000 0.000000 0.630025
1.000000 0.000000 0.761234
1.000000 0.000000 0.878178
1.000000 0.000000 0.980857
1.000000 0.197573 0.000000
1.000000 0.197573 0.000000
1.000000 0.197573 0.150806
1.000000 0.197573 0.324810
1.000000 0.197573 0.484550
1.000000 0.197573 0.630025
1.000000 0.197573 0.761234
1.000000 0.197573 0.878178
1.000000 0.197573 0.980857
1.000000 0.389016 0.000000
1.000000 0.389016 0.000000
1.000000 0.389016 0.150806
1.000000 0.389016 0.324810
1.000000 0.389016 0.484550
1.000000 0.389016 0.630025
1.000000 0.389016 0.761234
1.000000 0.389016 0.878178
1.000000 0.389016 0.980857
1.000000 0.562230 0.000000
1.000000 0.562230 0.000000
1.000000 0.562230 0.150806
1.000000 0.562230 0.324810
1.000000 0.562230 0.484550
1.000000 0.562230 0.630025
1.000000 0.562230 0.761234
1.000000 0.562230 0.878178
1.000000 0.562230 0.980857
1.000000 0.717214 0.000000
1.000000 0.717214 0.000000
1.000000 0.717214 0.150806
1.000000 0.717214 0.324810
1.000000 0.717214 0.484550
1.000000 0.717214 0.630025
1.000000 0.717214 0.761234
1.000000 0.717214 0.878178
1.000000 0.717214 0.980857
1.000000 0.853969 0.000000
1.000000 0.853969 0.000000
1.000000 0.853969 0.150806
1.000000 0.853969 0.324810
1.000000 0.853969 0.484550
1.000000 0.853969 0.630025
1.000000 0.853969 0.761234
1.000000 0.853969 0.878178
1.000000 0.853969 0.980857
1.000000 0.972494 0.000000
1.000000 0.972494 0.000000
1.000000 0.972494 0.150806
1.000000 0.972494 0.324810
1.000000 0.972494 0.484550
1.000000 0.972494 0.630025
1.000000 0.972494 0.761234
1.000000 0.972494 0.878178
1.000000 0.972494 0.980857
1.000000 1.000000 0.000000
1.000000 1.000000 0.000000
1.000000 1.000000 0.150806
1.000000 1.000000 0.324810
1.000000 1.000000 0.484550
1.000000 1.000000 0.630025
1.000000 1.000000 0.761234
1.000000 1.000000 0.878178
1.000000 1.000000 0.980857
1.000000 0.000000 0.000000
1.000000 0.000000 0.000000
1.000000 0.000000 0.150806
1.000000 0.000000 0.324810
1.000000 0.000000 0.484550
1.000000 0.000000 0.630025
1.000000 0.000000 0.761234
1.000000 0.000000 0.878178
1.000000 0.000000 0.980857
1.000000 0.000000 0.000000
1.000000 0.000000 0.000000
1.000000 0.000000 0.150806
1.000000 0.000000 0.324810
1.000000 0.000000 0.484550
1.000000 0.000000 0.630025
1.000000 0.000000 0.761234
1.000000 0.000000 0.878178
1.000000 0.000000 0.980857
1.000000 0.197573 0.000000
1.000000 0.197573 0.000000
1.000000 0.197573 0.150806
1.000000 0.197573 0.324810
1.000000 0.197573 0.484550
1.000000 0.197573 0.630025
1.000000 0.197573 0.761234
1.000000 0.197573 0.878178
1.000000 0.197573 0.980857
1.000000 0.389016 0.000000
1.000000 0.389016 0.000000
1.000000 0.389016 0.150806
1.000000 0.389016 0.324810
1.000000 0.389016 0.484550
1.000000 0.389016 0.630025
1.000000 0.389016 0.761234
1.000000 0.389016 0.878178
1.000000 0.389016 0.980857
1.000000 0.562230 0.000000
1.000000 0.562230 0.000000
1.000000 0.562230 0.150806
1.000000 0.562230 0.324810
1.000000 0.562230 0.484550
1.000000 0.562230 0.630025
1.000000 0.562230 0.761234
1.000000 0.562230 0.878178
1.000000 0.562230 0.980857
1.000000 0.717214 0.000000
1.000000 0.717214 0.000000
1.000000 0.717214 0.150806
1.000000 0.717214 0.324810
1.000000 0.717214 0.484550
1.000000 0.717214 0.630025
1.000000 0.717214 0.761234
1.000000 0.717214 0.878178
1.000000 0.717214 0.980857
1.000000 0.853969 0.000000
1.000000 0.853969 0.000000
1.000000 0.853969 0.150806
1.000000 0.853969 0.324810
1.000000 0.853969 0.484550
1.000000 0.853969 0.630025
1.000000 0.853969 0.761234
1.000000 0.853969 0.878178
1.000000 0.853969 0.980857
1.000000 0.972494 0.000000
1.000000 0.972494 0.000000
1.000000 0.972494 0.150806
1.000000 0.972494 0.324810
1.000000 0.972494 0.484550
1.000000 0.972494 0.630025
1.000000 0.972494 0.761234
1.000000 0.972494 0.878178
1.000000 0.972494 0.980857
1.000000 1.000000 0.000000
1.000000 1.000000 0.000000
1.000000 1.000000 0.150806
1.000000 1.000000 0.324810
1.000000 1.000000 0.484550
1.000000 1.000000 0.630025
1.000000 1.000000 0.761234
1.000000 1.000000 0.878178
1.000000 1.000000 0.980857
