app/luts/film_portra.cube
TITLE "胶片暖调"
# StyleForge original LUT. Cube format compatible with CubeLUT.cn / Premiere.
LUT_3D_SIZE 5
DOMAIN_MIN 0.0 0.0 0.0
DOMAIN_MAX 1.0 1.0 1.0
0.000000 0.000000 0.000000
0.000000 0.000000 0.150806
0.000000 0.000000 0.484550
0.000000 0.000000 0.761234
0.000000 0.000000 0.980857
0.000000 0.197573 0.000000
0.000000 0.197573 0.150806
0.000000 0.197573 0.484550
0.000000 0.197573 0.761234
0.000000 0.197573 0.980857
0.000000 0.562230 0.000000
0.000000 0.562230 0.150806
0.000000 0.562230 0.484550
0.000000 0.562230 0.761234
0.000000 0.562230 0.980857
0.000000 0.853969 0.000000
0.000000 0.853969 0.150806
0.000000 0.853969 0.484550
0.000000 0.853969 0.761234
0.000000 0.853969 0.980857
0.000000 1.000000 0.000000
0.000000 1.000000 0.150806
0.000000 1.000000 0.484550
0.000000 1.000000 0.761234
0.000000 1.000000 0.980857
0.250909 0.000000 0.000000
0.250909 0.000000 0.150806
0.250909 0.000000 0.484550
0.250909 0.000000 0.761234
0.250909 0.000000 0.980857
0.250909 0.197573 0.000000
0.250909 0.197573 0.150806
0.250909 0.197573 0.484550
0.250909 0.197573 0.761234
0.250909 0.197573 0.980857
0.250909 0.562230 0.000000
0.250909 0.562230 0.150806
0.250909 0.562230 0.484550
0.250909 0.562230 0.761234
0.250909 0.562230 0.980857
0.250909 0.853969 0.000000
0.250909 0.853969 0.150806
0.250909 0.853969 0.484550
0.250909 0.853969 0.761234
0.250909 0.853969 0.980857
0.250909 1.000000 0.000000
0.250909 1.000000 0.150806
0.250909 1.000000 0.484550
0.250909 1.000000 0.761234
0.250909 1.000000 0.980857
0.623996 0.000000 0.000000
0.623996 0.000000 0.150806
0.623996 0.000000 0.484550
0.623996 0.000000 0.761234
0.623996 0.000000 0.980857
0.623996 0.197573 0.000000
0.623996 0.197573 0.150806
0.623996 0.197573 0.484550
0.623996 0.197573 0.761234
0.623996 0.197573 0.980857
0.623996 0.562230 0.000000
0.623996 0.562230 0.150806
0.623996 0.562230 0.484550
0.623996 0.562230 0.761234
0.623996 0.562230 0.980857
0.623996 0.853969 0.000000
0.623996 0.853969 0.150806
0.623996 0.853969 0.484550
0.623996 0.853969 0.761234
0.623996 0.853969 0.980857
0.623996 1.000000 0.000000
0.623996 1.000000 0.150806
0.623996 1.000000 0.484550
0.623996 1.000000 0.761234
0.623996 1.000000 0.980857
0.915510 0.000000 0.000000
0.915510 0.000000 0.150806
0.915510 0.000000 0.484550
0.915510 0.000000 0.761234
0.915510 0.000000 0.980857
0.915510 0.197573 0.000000
0.915510 0.197573 0.150806
0.915510 0.197573 0.484550
0.915510 0.197573 0.761234
0.915510 0.197573 0.980857
0.915510 0.562230 0.000000
0.915510 0.562230 0.150806
0.915510 0.562230 0.484550
0.915510 0.562230 0.761234
0.915510 0.562230 0.980857
0.915510 0.853969 0.000000
0.915510 0.853969 0.150806
0.915510 0.853969 0.484550
0.915510 0.853969 0.761234
0.915510 0.853969 0.980857
0.915510 1.000000 0.000000
0.915510 1.000000 0.150806
0.915510 1.000000 0.484550
0.915510 1.000000 0.761234
0.915510 1.000000 0.980857
1.000000 0.000000 0.000000
1.000000 0.000000 0.150806
1.000000 0.000000 0.484550
1.000000 0.000000 0.761234
1.000000 0.000000 0.980857
1.000000 0.197573 0.000000
1.000000 0.197573 0.150806
1.000000 0.197573 0.484550
1.000000 0.197573 0.761234
1.000000 0.197573 0.980857
1.000000 0.562230 0.000000
1.000000 0.562230 0.150806
1.000000 0.562230 0.484550
1.000000 0.562230 0.761234
1.000000 0.562230 0.980857
1.000000 0.853969 0.000000
1.000000 0.853969 0.150806
1.000000 0.853969 0.484550
1.000000 0.853969 0.761234
1.000000 0.853969 0.980857
1.000000 1.000000 0.000000
1.000000 1.000000 0.150806
1.000000 1.000000 0.484550
1.000000 1.000000 0.761234
1.000000 1.000000 0.980857
