app/luts/golden_hour.cube
TITLE "黄金时刻"
# StyleForge original LUT. Cube format compatible with CubeLUT.cn / Premiere.
LUT_3D_SIZE 5
DOMAIN_MIN 0.0 0.0 0.0
DOMAIN_MAX 1.0 1.0 1.0
0.000000 0.000000 0.000000
0.000000 0.000000 0.096790
0.000000 0.000000 0.363160
0.000000 0.000000 0.599110
0.000000 0.000000 0.804640
0.000000 0.230360 0.000000
0.000000 0.230360 0.096790
0.000000 0.230360 0.363160
0.000000 0.230360 0.599110
0.000000 0.230360 0.804640
0.000000 0.570560 0.000000
0.000000 0.570560 0.096790
0.000000 0.570560 0.363160
0.000000 0.570560 0.599110
0.000000 0.570560 0.804640
0.000000 0.852440 0.000000
0.000000 0.852440 0.096790
0.000000 0.852440 0.363160
0.000000 0.852440 0.599110
0.000000 0.852440 0.804640
0.000000 1.000000 0.000000
0.000000 1.000000 0.096790
0.000000 1.000000 0.363160
0.000000 1.000000 0.599110
0.000000 1.000000 0.804640
0.291110 0.000000 0.000000
0.291110 0.000000 0.096790
0.291110 0.000000 0.363160
0.291110 0.000000 0.599110
0.291110 0.000000 0.804640
0.291110 0.230360 0.000000
0.291110 0.230360 0.096790
0.291110 0.230360 0.363160
0.291110 0.230360 0.599110
0.291110 0.230360 0.804640
0.291110 0.570560 0.000000
0.291110 0.570560 0.096790
0.291110 0.570560 0.363160
0.291110 0.570560 0.599110
0.291110 0.570560 0.804640
0.291110 0.852440 0.000000
0.291110 0.852440 0.096790
0.291110 0.852440 0.363160
0.291110 0.852440 0.599110
0.291110 0.852440 0.804640
0.291110 1.000000 0.000000
0.291110 1.000000 0.096790
0.291110 1.000000 0.363160
0.291110 1.000000 0.599110
0.291110 1.000000 0.804640
0.649240 0.000000 0.000000
0.649240 0.000000 0.096790
0.649240 0.000000 0.363160
0.649240 0.000000 0.599110
0.649240 0.000000 0.804640
0.649240 0.230360 0.000000
0.649240 0.230360 0.096790
0.649240 0.230360 0.363160
0.649240 0.230360 0.599110
0.649240 0.230360 0.804640
0.649240 0.570560 0.000000
0.649240 0.570560 0.096790
0.649240 0.570560 0.363160
0.649240 0.570560 0.599110
0.649240 0.570560 0.804640
0.649240 0.852440 0.000000
0.649240 0.852440 0.096790
0.649240 0.852440 0.363160
0.649240 0.852440 0.599110
0.649240 0.852440 0.804640
0.649240 1.000000 0.000000
0.649240 1.000000 0.096790
0.649240 1.000000 0.363160
0.649240 1.000000 0.599110
0.649240 1.000000 0.804640
0.937750 0.000000 0.000000
0.937750 0.000000 0.096790
0.937750 0.000000 0.363160
0.937750 0.000000 0.599110
0.937750 0.000000 0.804640
0.937750 0.230360 0.000000
0.937750 0.230360 0.096790
0.937750 0.230360 0.363160
0.937750 0.230360 0.599110
0.937750 0.230360 0.804640
0.937750 0.570560 0.000000
0.937750 0.570560 0.096790
0.937750 0.570560 0.363160
0.937750 0.570560 0.599110
0.937750 0.570560 0.804640
0.937750 0.852440 0.000000
0.937750 0.852440 0.096790
0.937750 0.852440 0.363160
0.937750 0.852440 0.599110
0.937750 0.852440 0.804640
0.937750 1.000000 0.000000
0.937750 1.000000 0.096790
0.937750 1.000000 0.363160
0.937750 1.000000 0.599110
0.937750 1.000000 0.804640
1.000000 0.000000 0.000000
1.000000 0.000000 0.096790
1.000000 0.000000 0.363160
1.000000 0.000000 0.599110
1.000000 0.000000 0.804640
1.000000 0.230360 0.000000
1.000000 0.230360 0.096790
1.000000 0.230360 0.363160
1.000000 0.230360 0.599110
1.000000 0.230360 0.804640
1.000000 0.570560 0.000000
1.000000 0.570560 0.096790
1.000000 0.570560 0.363160
1.000000 0.570560 0.599110
1.000000 0.570560 0.804640
1.000000 0.852440 0.000000
1.000000 0.852440 0.096790
1.000000 0.852440 0.363160
1.000000 0.852440 0.599110
1.000000 0.852440 0.804640
1.000000 1.000000 0.000000
1.000000 1.000000 0.096790
1.000000 1.000000 0.363160
1.000000 1.000000 0.599110
1.000000 1.000000 0.804640
