app/luts/golden_hour.cube
TITLE "黄金时刻"
# StyleForge original LUT. Cube format compatible with CubeLUT.cn / Premiere.
LUT_3D_SIZE 17
DOMAIN_MIN 0.0 0.0 0.0
DOMAIN_MAX 1.0 1.0 1.0
0.000000 0.000000 0.000000
0.000000 0.000000 0.000000
0.000000 0.000000 0.000000
0.000000 0.000000 0.025444
0.000000 0.000000 0.096790
0.000000 0.000000 0.166234
0.000000 0.000000 0.233777
0.000000 0.000000 0.299419
0.000000 0.000000 0.363160
0.000000 0.000000 0.424999
0.000000 0.000000 0.484937
0.000000 0.000000 0.542974
0.000000 0.000000 0.599110
0.000000 0.000000 0.653344
0.000000 0.000000 0.705678
0.000000 0.000000 0.756109
0.000000 0.000000 0.804640
0.000000 0.000000 0.000000
0.000000 0.000000 0.000000
0.000000 0.000000 0.000000
0.000000 0.000000 0.025444
0.000000 0.000000 0.096790
0.000000 0.000000 0.166234
0.000000 0.000000 0.233777
0.000000 0.000000 0.299419
0.000000 0.000000 0.363160
0.000000 0.000000 0.424999
0.000000 0.000000 0.484937
0.000000 0.000000 0.542974
0.000000 0.000000 0.599110
0.000000 0.000000 0.653344
0.000000 0.000000 0.705678
0.000000 0.000000 0.756109
0.000000 0.000000 0.804640
0.000000 0.038390 0.000000
0.000000 0.038390 0.000000
0.000000 0.038390 0.000000
0.000000 0.038390 0.025444
0.000000 0.038390 0.096790
0.000000 0.038390 0.166234
0.000000 0.038390 0.233777
0.000000 0.038390 0.299419
0.000000 0.038390 0.363160
0.000000 0.038390 0.424999
0.000000 0.038390 0.484937
0.000000 0.038390 0.542974
0.000000 0.038390 0.599110
0.000000 0.038390 0.653344
0.000000 0.038390 0.705678
0.000000 0.038390 0.756109
0.000000 0.038390 0.804640
0.000000 0.136198 0.000000
0.000000 0.136198 0.000000
0.000000 0.136198 0.000000
0.000000 0.136198 0.025444
0.000000 0.136198 0.096790
0.000000 0.136198 0.166234
0.000000 0.136198 0.233777
0.000000 0.136198 0.299419
0.000000 0.136198 0.363160
0.000000 0.136198 0.424999
0.000000 0.136198 0.484937
0.000000 0.136198 0.542974
0.000000 0.136198 0.599110
0.000000 0.136198 0.653344
0.000000 0.136198 0.705678
0.000000 0.136198 0.756109
0.000000 0.136198 0.804640
0.000000 0.230360 0.000000
0.000000 0.230360 0.000000
0.000000 0.230360 0.000000
0.000000 0.230360 0.025444
0.000000 0.230360 0.096790
0.000000 0.230360 0.166234
0.000000 0.230360 0.233777
0.000000 0.230360 0.299419
0.000000 0.230360 0.363160
0.000000 0.230360 0.424999
0.000000 0.230360 0.484937
0.000000 0.230360 0.542974
0.000000 0.230360 0.599110
0.000000 0.230360 0.653344
0.000000 0.230360 0.705678
0.000000 0.230360 0.756109
0.000000 0.230360 0.804640
0.000000 0.320878 0.000000
0.000000 0.320878 0.000000
0.000000 0.320878 0.000000
0.000000 0.320878 0.025444
0.000000 0.320878 0.096790
0.000000 0.320878 0.166234
0.000000 0.320878 0.233777
0.000000 0.320878 0.299419
0.000000 0.320878 0.363160
0.000000 0.320878 0.424999
0.000000 0.320878 0.484937
0.000000 0.320878 0.542974
0.000000 0.320878 0.599110
0.000000 0.320878 0.653344
0.000000 0.320878 0.705678
0.000000 0.320878 0.756109
0.000000 0.320878 0.804640
0.000000 0.407750 0.000000
0.000000 0.407750 0.000000
0.000000 0.407750 0.000000
0.000000 0.407750 0.025444
0.000000 0.407750 0.096790
0.000000 0.407750 0.166234
0.000000 0.407750 0.233777
0.000000 0.407750 0.299419
0.000000 0.407750 0.363160
0.000000 0.407750 0.424999
0.000000 0.407750 0.484937
0.000000 0.407750 0.542974
0.000000 0.407750 0.599110
0.000000 0.407750 0.653344
0.000000 0.407750 0.705678
0.000000 0.407750 0.756109
0.000000 0.407750 0.804640
0.000000 0.490978 0.000000
0.000000 0.490978 0.000000
0.000000 0.490978 0.000000
0.000000 0.490978 0.025444
0.000000 0.490978 0.096790
0.000000 0.490978 0.166234
0.000000 0.490978 0.233777
0.000000 0.490978 0.299419
0.000000 0.490978 0.363160
0.000000 0.490978 0.424999
0.000000 0.490978 0.484937
0.000000 0.490978 0.542974
0.000000 0.490978 0.599110
0.000000 0.490978 0.653344
0.000000 0.490978 0.705678
0.000000 0.490978 0.756109
0.000000 0.490978 0.804640
0.000000 0.570560 0.000000
0.000000 0.570560 0.000000
0.000000 0.570560 0.000000
0.000000 0.570560 0.025444
0.000000 0.570560 0.096790
0.000000 0.570560 0.166234
0.000000 0.570560 0.233777
0.000000 0.570560 0.299419
0.000000 0.570560 0.363160
0.000000 0.570560 0.424999
0.000000 0.570560 0.484937
0.000000 0.570560 0.542974
0.000000 0.570560 0.599110
0.000000 0.570560 0.653344
0.000000 0.570560 0.705678
0.000000 0.570560 0.756109
0.000000 0.570560 0.804640
0.000000 0.646497 0.000000
0.000000 0.646497 0.000000
0.000000 0.646497 0.000000
0.000000 0.646497 0.025444
0.000000 0.646497 0.096790
0.000000 0.646497 0.166234
0.000000 0.646497 0.233777
0.000000 0.646497 0.299419
0.000000 0.646497 0.363160
0.000000 0.646497 0.424999
0.000000 0.646497 0.484937
0.000000 0.646497 0.542974
0.000000 0.646497 0.599110
0.000000 0.646497 0.653344
0.000000 0.646497 0.705678
0.000000 0.646497 0.756109
0.000000 0.646497 0.804640
0.000000 0.718790 0.000000
0.000000 0.718790 0.000000
0.000000 0.718790 0.000000
0.000000 0.718790 0.025444
0.000000 0.718790 0.096790
0.000000 0.718790 0.166234
0.000000 0.718790 0.233777
0.000000 0.718790 0.299419
0.000000 0.718790 0.363160
0.000000 0.718790 0.424999
0.000000 0.718790 0.484937
0.000000 0.718790 0.542974
0.000000 0.718790 0.599110
0.000000 0.718790 0.653344
0.000000 0.718790 0.705678
0.000000 0.718790 0.756109
0.000000 0.718790 0.804640
0.000000 0.787437 0.000000
0.000000 0.787437 0.000000
0.000000 0.787437 0.000000
0.000000 0.787437 0.025444
0.000000 0.787437 0.096790
0.000000 0.787437 0.166234
0.000000 0.787437 0.233777
0.000000 0.787437 0.299419
0.000000 0.787437 0.363160
0.000000 0.787437 0.424999
0.000000 0.787437 0.484937
0.000000 0.787437 0.542974
0.000000 0.787437 0.599110
0.000000 0.787437 0.653344
0.000000 0.787437 0.705678
0.000000 0.787437 0.756109
0.000000 0.787437 0.804640
0.000000 0.852440 0.000000
0.000000 0.852440 0.000000
0.000000 0.852440 0.000000
0.000000 0.852440 0.025444
0.000000 0.852440 0.096790
0.000000 0.852440 0.166234
0.000000 0.852440 0.233777
0.000000 0.852440 0.299419
0.000000 0.852440 0.363160
0.000000 0.852440 0.424999
0.000000 0.852440 0.484937
0.000000 0.852440 0.542974
0.000000 0.852440 0.599110
0.000000 0.852440 0.653344
0.000000 0.852440 0.705678
0.000000 0.852440 0.756109
0.000000 0.852440 0.804640
0.000000 0.913798 0.000000
0.000000 0.913798 0.000000
0.000000 0.913798 0.000000
0.000000 0.913798 0.025444
0.000000 0.913798 0.096790
0.000000 0.913798 0.166234
0.000000 0.913798 0.233777
0.000000 0.913798 0.299419
0.000000 0.913798 0.363160
0.000000 0.913798 0.424999
0.000000 0.913798 0.484937
0.000000 0.913798 0.542974
0.000000 0.913798 0.599110
0.000000 0.913798 0.653344
0.000000 0.913798 0.705678
0.000000 0.913798 0.756109
0.000000 0.913798 0.804640
0.000000 0.971510 0.000000
0.000000 0.971510 0.000000
0.000000 0.971510 0.000000
0.000000 0.971510 0.025444
0.000000 0.971510 0.096790
0.000000 0.971510 0.166234
0.000000 0.971510 0.233777
0.000000 0.971510 0.299419
0.000000 0.971510 0.363160
0.000000 0.971510 0.424999
0.000000 0.971510 0.484937
0.000000 0.971510 0.542974
0.000000 0.971510 0.599110
0.000000 0.971510 0.653344
0.000000 0.971510 0.705678
0.000000 0.971510 0.756109
0.000000 0.971510 0.804640
0.000000 1.000000 0.000000
0.000000 1.000000 0.000000
0.000000 1.000000 0.000000
0.000000 1.000000 0.025444
0.000000 1.000000 0.096790
0.000000 1.000000 0.166234
0.000000 1.000000 0.233777
0.000000 1.000000 0.299419
0.000000 1.000000 0.363160
0.000000 1.000000 0.424999
0.000000 1.000000 0.484937
0.000000 1.000000 0.542974
0.000000 1.000000 0.599110
0.000000 1.000000 0.653344
0.000000 1.000000 0.705678
0.000000 1.000000 0.756109
0.000000 1.000000 0.804640
0.000000 1.000000 0.000000
0.000000 1.000000 0.000000
0.000000 1.000000 0.000000
0.000000 1.000000 0.025444
0.000000 1.000000 0.096790
0.000000 1.000000 0.166234
0.000000 1.000000 0.233777
0.000000 1.000000 0.299419
0.000000 1.000000 0.363160
0.000000 1.000000 0.424999
0.000000 1.000000 0.484937
0.000000 1.000000 0.542974
0.000000 1.000000 0.599110
0.000000 1.000000 0.653344
0.000000 1.000000 0.705678
0.000000 1.000000 0.756109
0.000000 1.000000 0.804640
0.000000 0.000000 0.000000
0.000000 0.000000 0.000000
0.000000 0.000000 0.000000
0.000000 0.000000 0.025444
0.000000 0.000000 0.096790
0.000000 0.000000 0.166234
0.000000 0.000000 0.233777
0.000000 0.000000 0.299419
0.000000 0.000000 0.363160
0.000000 0.000000 0.424999
0.000000 0.000000 0.484937
0.000000 0.000000 0.542974
0.000000 0.000000 0.599110
0.000000 0.000000 0.653344
0.000000 0.000000 0.705678
0.000000 0.000000 0.756109
0.000000 0.000000 0.804640
0.000000 0.000000 0.000000
0.000000 0.000000 0.000000
0.000000 0.000000 0.000000
0.000000 0.000000 0.025444
0.000000 0.000000 0.096790
0.000000 0.000000 0.166234
0.000000 0.000000 0.233777
0.000000 0.000000 0.299419
0.000000 0.000000 0.363160
0.000000 0.000000 0.424999
0.000000 0.000000 0.484937
0.000000 0.000000 0.542974
0.000000 0.000000 0.599110
0.000000 0.000000 0.653344
0.000000 0.000000 0.705678
0.000000 0.000000 0.756109
0.000000 0.000000 0.804640
0.000000 0.038390 0.000000
0.000000 0.038390 0.000000
0.000000 0.038390 0.000000
0.000000 0.038390 0.025444
0.000000 0.038390 0.096790
0.000000 0.038390 0.166234
0.000000 0.038390 0.233777
0.000000 0.038390 0.299419
0.000000 0.038390 0.363160
0.000000 0.038390 0.424999
0.000000 0.038390 0.484937
0.000000 0.038390 0.542974
0.000000 0.038390 0.599110
0.000000 0.038390 0.653344
0.000000 0.038390 0.705678
0.000000 0.038390 0.756109
0.000000 0.038390 0.804640
0.000000 0.136198 0.000000
0.000000 0.136198 0.000000
0.000000 0.136198 0.000000
0.000000 0.136198 0.025444
0.000000 0.136198 0.096790
0.000000 0.136198 0.166234
0.000000 0.136198 0.233777
0.000000 0.136198 0.299419
0.000000 0.136198 0.363160
0.000000 0.136198 0.424999
0.000000 0.136198 0.484937
0.000000 0.136198 0.542974
0.000000 0.136198 0.599110
0.000000 0.136198 0.653344
0.000000 0.136198 0.705678
0.000000 0.136198 0.756109
0.000000 0.136198 0.804640
0.000000 0.230360 0.000000
0.000000 0.230360 0.000000
0.000000 0.230360 0.000000
0.000000 0.230360 0.025444
0.000000 0.230360 0.096790
0.000000 0.230360 0.166234
0.000000 0.230360 0.233777
0.000000 0.230360 0.299419
0.000000 0.230360 0.363160
0.000000 0.230360 0.424999
0.000000 0.230360 0.484937
0.000000 0.230360 0.542974
0.000000 0.230360 0.599110
0.000000 0.230360 0.653344
0.000000 0.230360 0.705678
0.000000 0.230360 0.756109
0.000000 0.230360 0.804640
0.000000 0.320878 0.000000
0.000000 0.320878 0.000000
0.000000 0.320878 0.000000
0.000000 0.320878 0.025444
0.000000 0.320878 0.096790
0.000000 0.320878 0.166234
0.000000 0.320878 0.233777
0.000000 0.320878 0.299419
0.000000 0.320878 0.363160
0.000000 0.320878 0.424999
0.000000 0.320878 0.484937
0.000000 0.320878 0.542974
0.000000 0.320878 0.599110
0.000000 0.320878 0.653344
0.000000 0.320878 0.705678
0.000000 0.320878 0.756109
0.000000 0.320878 0.804640
0.000000 0.407750 0.000000
0.000000 0.407750 0.000000
0.000000 0.407750 0.000000
0.000000 0.407750 0.025444
0.000000 0.407750 0.096790
0.000000 0.407750 0.166234
0.000000 0.407750 0.233777
0.000000 0.407750 0.299419
0.000000 0.407750 0.363160
0.000000 0.407750 0.424999
0.000000 0.407750 0.484937
0.000000 0.407750 0.542974
0.000000 0.407750 0.599110
0.000000 0.407750 0.653344
0.000000 0.407750 0.705678
0.000000 0.407750 0.756109
0.000000 0.407750 0.804640
0.000000 0.490978 0.000000
0.000000 0.490978 0.000000
0.000000 0.490978 0.000000
0.000000 0.490978 0.025444
0.000000 0.490978 0.096790
0.000000 0.490978 0.166234
0.000000 0.490978 0.233777
0.000000 0.490978 0.299419
0.000000 0.490978 0.363160
0.000000 0.490978 0.424999
0.000000 0.490978 0.484937
0.000000 0.490978 0.542974
0.000000 0.490978 0.599110
0.000000 0.490978 0.653344
0.000000 0.490978 0.705678
0.000000 0.490978 0.756109
0.000000 0.490978 0.804640
0.000000 0.570560 0.000000
0.000000 0.570560 0.000000
0.000000 0.570560 0.000000
0.000000 0.570560 0.025444
0.000000 0.570560 0.096790
0.000000 0.570560 0.166234
0.000000 0.570560 0.233777
0.000000 0.570560 0.299419
0.000000 0.570560 0.363160
0.000000 0.570560 0.424999
0.000000 0.570560 0.484937
0.000000 0.570560 0.542974
0.000000 0.570560 0.599110
0.000000 0.570560 0.653344
0.000000 0.570560 0.705678
0.000000 0.570560 0.756109
0.000000 0.570560 0.804640
0.000000 0.646497 0.000000
0.000000 0.646497 0.000000
0.000000 0.646497 0.000000
0.000000 0.646497 0.025444
0.000000 0.646497 0.096790
0.000000 0.646497 0.166234
0.000000 0.646497 0.233777
0.000000 0.646497 0.299419
0.000000 0.646497 0.363160
0.000000 0.646497 0.424999
0.000000 0.646497 0.484937
0.000000 0.646497 0.542974
0.000000 0.646497 0.599110
0.000000 0.646497 0.653344
0.000000 0.646497 0.705678
0.000000 0.646497 0.756109
0.000000 0.646497 0.804640
0.000000 0.718790 0.000000
0.000000 0.718790 0.000000
0.000000 0.718790 0.000000
0.000000 0.718790 0.025444
0.000000 0.718790 0.096790
0.000000 0.718790 0.166234
0.000000 0.718790 0.233777
0.000000 0.718790 0.299419
0.000000 0.718790 0.363160
0.000000 0.718790 0.424999
0.000000 0.718790 0.484937
0.000000 0.718790 0.542974
0.000000 0.718790 0.599110
0.000000 0.718790 0.653344
0.000000 0.718790 0.705678
0.000000 0.718790 0.756109
0.000000 0.718790 0.804640
0.000000 0.787437 0.000000
0.000000 0.787437 0.000000
0.000000 0.787437 0.000000
0.000000 0.787437 0.025444
0.000000 0.787437 0.096790
0.000000 0.787437 0.166234
0.000000 0.787437 0.233777
0.000000 0.787437 0.299419
0.000000 0.787437 0.363160
0.000000 0.787437 0.424999
0.000000 0.787437 0.484937
0.000000 0.787437 0.542974
0.000000 0.787437 0.599110
0.000000 0.787437 0.653344
0.000000 0.787437 0.705678
0.000000 0.787437 0.756109
0.000000 0.787437 0.804640
0.000000 0.852440 0.000000
0.000000 0.852440 0.000000
0.000000 0.852440 0.000000
0.000000 0.852440 0.025444
0.000000 0.852440 0.096790
0.000000 0.852440 0.166234
0.000000 0.852440 0.233777
0.000000 0.852440 0.299419
0.000000 0.852440 0.363160
0.000000 0.852440 0.424999
0.000000 0.852440 0.484937
0.000000 0.852440 0.542974
0.000000 0.852440 0.599110
0.000000 0.852440 0.653344
0.000000 0.852440 0.705678
0.000000 0.852440 0.756109
0.000000 0.852440 0.804640
0.000000 0.913798 0.000000
0.000000 0.913798 0.000000
0.000000 0.913798 0.000000
0.000000 0.913798 0.025444
0.000000 0.913798 0.096790
0.000000 0.913798 0.166234
0.000000 0.913798 0.233777
0.000000 0.913798 0.299419
0.000000 0.913798 0.363160
0.000000 0.913798 0.424999
0.000000 0.913798 0.484937
0.000000 0.913798 0.542974
0.000000 0.913798 0.599110
0.000000 0.913798 0.653344
0.000000 0.913798 0.705678
0.000000 0.913798 0.756109
0.000000 0.913798 0.804640
0.000000 0.971510 0.000000
0.000000 0.971510 0.000000
0.000000 0.971510 0.000000
0.000000 0.971510 0.025444
0.000000 0.971510 0.096790
0.000000 0.971510 0.166234
0.000000 0.971510 0.233777
0.000000 0.971510 0.299419
0.000000 0.971510 0.363160
0.000000 0.971510 0.424999
0.000000 0.971510 0.484937
0.000000 0.971510 0.542974
0.000000 0.971510 0.599110
0.000000 0.971510 0.653344
0.000000 0.971510 0.705678
0.000000 0.971510 0.756109
0.000000 0.971510 0.804640
0.000000 1.000000 0.000000
0.000000 1.000000 0.000000
0.000000 1.000000 0.000000
0.000000 1.000000 0.025444
0.000000 1.000000 0.096790
0.000000 1.000000 0.166234
0.000000 1.000000 0.233777
0.000000 1.000000 0.299419
0.000000 1.000000 0.363160
0.000000 1.000000 0.424999
0.000000 1.000000 0.484937
0.000000 1.000000 0.542974
0.000000 1.000000 0.599110
0.000000 1.000000 0.653344
0.000000 1.000000 0.705678
0.000000 1.000000 0.756109
0.000000 1.000000 0.804640
0.000000 1.000000 0.000000
0.000000 1.000000 0.000000
0.000000 1.000000 0.000000
0.000000 1.000000 0.025444
0.000000 1.000000 0.096790
0.000000 1.000000 0.166234
0.000000 1.000000 0.233777
0.000000 1.000000 0.299419
0.000000 1.000000 0.363160
0.000000 1.000000 0.424999
0.000000 1.000000 0.484937
0.000000 1.000000 0.542974
0.000000 1.000000 0.599110
0.000000 1.000000 0.653344
0.000000 1.000000 0.705678
0.000000 1.000000 0.756109
0.000000 1.000000 0.804640
0.085938 0.000000 0.000000
0.085938 0.000000 0.000000
0.085938 0.000000 0.000000
0.085938 0.000000 0.025444
0.085938 0.000000 0.096790
0.085938 0.000000 0.166234
0.085938 0.000000 0.233777
0.085938 0.000000 0.299419
0.085938 0.000000 0.363160
0.085938 0.000000 0.424999
0.085938 0.000000 0.484937
0.085938 0.000000 0.542974
0.085938 0.000000 0.599110
0.085938 0.000000 0.653344
0.085938 0.000000 0.705678
0.085938 0.000000 0.756109
0.085938 0.000000 0.804640
0.085938 0.000000 0.000000
0.085938 0.000000 0.000000
0.085938 0.000000 0.000000
0.085938 0.000000 0.025444
0.085938 0.000000 0.096790
0.085938 0.000000 0.166234
0.085938 0.000000 0.233777
0.085938 0.000000 0.299419
0.085938 0.000000 0.363160
0.085938 0.000000 0.424999
0.085938 0.000000 0.484937
0.085938 0.000000 0.542974
0.085938 0.000000 0.599110
0.085938 0.000000 0.653344
0.085938 0.000000 0.705678
0.085938 0.000000 0.756109
0.085938 0.000000 0.804640
0.085938 0.038390 0.000000
0.085938 0.038390 0.000000
0.085938 0.038390 0.000000
0.085938 0.038390 0.025444
0.085938 0.038390 0.096790
0.085938 0.038390 0.166234
0.085938 0.038390 0.233777
0.085938 0.038390 0.299419
0.085938 0.038390 0.363160
0.085938 0.038390 0.424999
0.085938 0.038390 0.484937
0.085938 0.038390 0.542974
0.085938 0.038390 0.599110
0.085938 0.038390 0.653344
0.085938 0.038390 0.705678
0.085938 0.038390 0.756109
0.085938 0.038390 0.804640
0.085938 0.136198 0.000000
0.085938 0.136198 0.000000
0.085938 0.136198 0.000000
0.085938 0.136198 0.025444
0.085938 0.136198 0.096790
0.085938 0.136198 0.166234
0.085938 0.136198 0.233777
0.085938 0.136198 0.299419
0.085938 0.136198 0.363160
0.085938 0.136198 0.424999
0.085938 0.136198 0.484937
0.085938 0.136198 0.542974
0.085938 0.136198 0.599110
0.085938 0.136198 0.653344
0.085938 0.136198 0.705678
0.085938 0.136198 0.756109
0.085938 0.136198 0.804640
0.085938 0.230360 0.000000
0.085938 0.230360 0.000000
0.085938 0.230360 0.000000
0.085938 0.230360 0.025444
0.085938 0.230360 0.096790
0.085938 0.230360 0.166234
0.085938 0.230360 0.233777
0.085938 0.230360 0.299419
0.085938 0.230360 0.363160
0.085938 0.230360 0.424999
0.085938 0.230360 0.484937
0.085938 0.230360 0.542974
0.085938 0.230360 0.599110
0.085938 0.230360 0.653344
0.085938 0.230360 0.705678
0.085938 0.230360 0.756109
0.085938 0.230360 0.804640
0.085938 0.320878 0.000000
0.085938 0.320878 0.000000
0.085938 0.320878 0.000000
0.085938 0.320878 0.025444
0.085938 0.320878 0.096790
0.085938 0.320878 0.166234
0.085938 0.320878 0.233777
0.085938 0.320878 0.299419
0.085938 0.320878 0.363160
0.085938 0.320878 0.424999
0.085938 0.320878 0.484937
0.085938 0.320878 0.542974
0.085938 0.320878 0.599110
0.085938 0.320878 0.653344
0.085938 0.320878 0.705678
0.085938 0.320878 0.756109
0.085938 0.320878 0.804640
0.085938 0.407750 0.000000
0.085938 0.407750 0.000000
0.085938 0.407750 0.000000
0.085938 0.407750 0.025444
0.085938 0.407750 0.096790
0.085938 0.407750 0.166234
0.085938 0.407750 0.233777
0.085938 0.407750 0.299419
0.085938 0.407750 0.363160
0.085938 0.407750 0.424999
0.085938 0.407750 0.484937
0.085938 0.407750 0.542974
0.085938 0.407750 0.599110
0.085938 0.407750 0.653344
0.085938 0.407750 0.705678
0.085938 0.407750 0.756109
0.085938 0.407750 0.804640
0.085938 0.490978 0.000000
0.085938 0.490978 0.000000
0.085938 0.490978 0.000000
0.085938 0.490978 0.025444
0.085938 0.490978 0.096790
0.085938 0.490978 0.166234
0.085938 0.490978 0.233777
0.085938 0.490978 0.299419
0.085938 0.490978 0.363160
0.085938 0.490978 0.424999
0.085938 0.490978 0.484937
0.085938 0.490978 0.542974
0.085938 0.490978 0.599110
0.085938 0.490978 0.653344
0.085938 0.490978 0.705678
0.085938 0.490978 0.756109
0.085938 0.490978 0.804640
0.085938 0.570560 0.000000
0.085938 0.570560 0.000000
0.085938 0.570560 0.000000
0.085938 0.570560 0.025444
0.085938 0.570560 0.096790
0.085938 0.570560 0.166234
0.085938 0.570560 0.233777
0.085938 0.570560 0.299419
0.085938 0.570560 0.363160
0.085938 0.570560 0.424999
0.085938 0.570560 0.484937
0.085938 0.570560 0.542974
0.085938 0.570560 0.599110
0.085938 0.570560 0.653344
0.085938 0.570560 0.705678
0.085938 0.570560 0.756109
0.085938 0.570560 0.804640
0.085938 0.646497 0.000000
0.085938 0.646497 0.000000
0.085938 0.646497 0.000000
0.085938 0.646497 0.025444
0.085938 0.646497 0.096790
0.085938 0.646497 0.166234
0.085938 0.646497 0.233777
0.085938 0.646497 0.299419
0.085938 0.646497 0.363160
0.085938 0.646497 0.424999
0.085938 0.646497 0.484937
0.085938 0.646497 0.542974
0.085938 0.646497 0.599110
0.085938 0.646497 0.653344
0.085938 0.646497 0.705678
0.085938 0.646497 0.756109
0.085938 0.646497 0.804640
0.085938 0.718790 0.000000
0.085938 0.718790 0.000000
0.085938 0.718790 0.000000
0.085938 0.718790 0.025444
0.085938 0.718790 0.096790
0.085938 0.718790 0.166234
0.085938 0.718790 0.233777
0.085938 0.718790 0.299419
0.085938 0.718790 0.363160
0.085938 0.718790 0.424999
0.085938 0.718790 0.484937
0.085938 0.718790 0.542974
0.085938 0.718790 0.599110
0.085938 0.718790 0.653344
0.085938 0.718790 0.705678
0.085938 0.718790 0.756109
0.085938 0.718790 0.804640
0.085938 0.787437 0.000000
0.085938 0.787437 0.000000
0.085938 0.787437 0.000000
0.085938 0.787437 0.025444
0.085938 0.787437 0.096790
0.085938 0.787437 0.166234
0.085938 0.787437 0.233777
0.085938 0.787437 0.299419
0.085938 0.787437 0.363160
0.085938 0.787437 0.424999
0.085938 0.787437 0.484937
0.085938 0.787437 0.542974
0.085938 0.787437 0.599110
0.085938 0.787437 0.653344
0.085938 0.787437 0.705678
0.085938 0.787437 0.756109
0.085938 0.787437 0.804640
0.085938 0.852440 0.000000
0.085938 0.852440 0.000000
0.085938 0.852440 0.000000
0.085938 0.852440 0.025444
0.085938 0.852440 0.096790
0.085938 0.852440 0.166234
0.085938 0.852440 0.233777
0.085938 0.852440 0.299419
0.085938 0.852440 0.363160
0.085938 0.852440 0.424999
0.085938 0.852440 0.484937
0.085938 0.852440 0.542974
0.085938 0.852440 0.599110
0.085938 0.852440 0.653344
0.085938 0.852440 0.705678
0.085938 0.852440 0.756109
0.085938 0.852440 0.804640
0.085938 0.913798 0.000000
0.085938 0.913798 0.000000
0.085938 0.913798 0.000000
0.085938 0.913798 0.025444
0.085938 0.913798 0.096790
0.085938 0.913798 0.166234
0.085938 0.913798 0.233777
0.085938 0.913798 0.299419
0.085938 0.913798 0.363160
0.085938 0.913798 0.424999
0.085938 0.913798 0.484937
0.085938 0.913798 0.542974
0.085938 0.913798 0.599110
0.085938 0.913798 0.653344
0.085938 0.913798 0.705678
0.085938 0.913798 0.756109
0.085938 0.913798 0.804640
0.085938 0.971510 0.000000
0.085938 0.971510 0.000000
0.085938 0.971510 0.000000
0.085938 0.971510 0.025444
0.085938 0.971510 0.096790
0.085938 0.971510 0.166234
0.085938 0.971510 0.233777
0.085938 0.971510 0.299419
0.085938 0.971510 0.363160
0.085938 0.971510 0.424999
0.085938 0.971510 0.484937
0.085938 0.971510 0.542974
0.085938 0.971510 0.599110
0.085938 0.971510 0.653344
0.085938 0.971510 0.705678
0.085938 0.971510 0.756109
0.085938 0.971510 0.804640
0.085938 1.000000 0.000000
0.085938 1.000000 0.000000
0.085938 1.000000 0.000000
0.085938 1.000000 0.025444
0.085938 1.000000 0.096790
0.085938 1.000000 0.166234
0.085938 1.000000 0.233777
0.085938 1.000000 0.299419
0.085938 1.000000 0.363160
0.085938 1.000000 0.424999
0.085938 1.000000 0.484937
0.085938 1.000000 0.542974
0.085938 1.000000 0.599110
0.085938 1.000000 0.653344
0.085938 1.000000 0.705678
0.085938 1.000000 0.756109
0.085938 1.000000 0.804640
0.085938 1.000000 0.000000
0.085938 1.000000 0.000000
0.085938 1.000000 0.000000
0.085938 1.000000 0.025444
0.085938 1.000000 0.096790
0.085938 1.000000 0.166234
0.085938 1.000000 0.233777
0.085938 1.000000 0.299419
0.085938 1.000000 0.363160
0.085938 1.000000 0.424999
0.085938 1.000000 0.484937
0.085938 1.000000 0.542974
0.085938 1.000000 0.599110
0.085938 1.000000 0.653344
0.085938 1.000000 0.705678
0.085938 1.000000 0.756109
0.085938 1.000000 0.804640
0.190699 0.000000 0.000000
0.190699 0.000000 0.000000
0.190699 0.000000 0.000000
0.190699 0.000000 0.025444
0.190699 0.000000 0.096790
0.190699 0.000000 0.166234
0.190699 0.000000 0.233777
0.190699 0.000000 0.299419
0.190699 0.000000 0.363160
0.190699 0.000000 0.424999
0.190699 0.000000 0.484937
0.190699 0.000000 0.542974
0.190699 0.000000 0.599110
0.190699 0.000000 0.653344
0.190699 0.000000 0.705678
0.190699 0.000000 0.756109
