app/luts/golden_hour.cube
TITLE "黄金时刻"
# StyleForge original LUT. Cube format compatible with CubeLUT.cn / Premiere.
LUT_3D_SIZE 9
DOMAIN_MIN 0.0 0.0 0.0
DOMAIN_MAX 1.0 1.0 1.0
0.000000 0.000000 0.000000
0.000000 0.000000 0.000000
0.000000 0.000000 0.096790
0.000000 0.000000 0.233777
0.000000 0.000000 0.363160
0.000000 0.000000 0.484937
0.000000 0.000000 0.599110
0.000000 0.000000 0.705678
0.000000 0.000000 0.804640
0.000000 0.038390 0.000000
0.000000 0.038390 0.000000
0.000000 0.038390 0.096790
0.000000 0.038390 0.233777
0.000000 0.038390 0.363160
0.000000 0.038390 0.484937
0.000000 0.038390 0.599110
0.000000 0.038390 0.705678
0.000000 0.038390 0.804640
0.000000 0.230360 0.000000
0.000000 0.230360 0.000000
0.000000 0.230360 0.096790
0.000000 0.230360 0.233777
0.000000 0.230360 0.363160
0.000000 0.230360 0.484937
0.000000 0.230360 0.599110
0.000000 0.230360 0.705678
0.000000 0.230360 0.804640
0.000000 0.407750 0.000000
0.000000 0.407750 0.000000
0.000000 0.407750 0.096790
0.000000 0.407750 0.233777
0.000000 0.407750 0.363160
0.000000 0.407750 0.484937
0.000000 0.407750 0.599110
0.000000 0.407750 0.705678
0.000000 0.407750 0.804640
0.000000 0.570560 0.000000
0.000000 0.570560 0.000000
0.000000 0.570560 0.096790
0.000000 0.570560 0.233777
0.000000 0.570560 0.363160
0.000000 0.570560 0.484937
0.000000 0.570560 0.599110
0.000000 0.570560 0.705678
0.000000 0.570560 0.804640
0.000000 0.718790 0.000000
0.000000 0.718790 0.000000
0.000000 0.718790 0.096790
0.000000 0.718790 0.233777
0.000000 0.718790 0.363160
0.000000 0.718790 0.484937
0.000000 0.718790 0.599110
0.000000 0.718790 0.705678
0.000000 0.718790 0.804640
0.000000 0.852440 0.000000
0.000000 0.852440 0.000000
0.000000 0.852440 0.096790
0.000000 0.852440 0.233777
0.000000 0.852440 0.363160
0.000000 0.852440 0.484937
0.000000 0.852440 0.599110
0.000000 0.852440 0.705678
0.000000 0.852440 0.804640
0.000000 0.971510 0.000000
0.000000 0.971510 0.000000
0.000000 0.971510 0.096790
0.000000 0.971510 0.233777
0.000000 0.971510 0.363160
0.000000 0.971510 0.484937
0.000000 0.971510 0.599110
0.000000 0.971510 0.705678
0.000000 0.971510 0.804640
0.000000 1.000000 0.000000
0.000000 1.000000 0.000000
0.000000 1.000000 0.096790
0.000000 1.000000 0.233777
0.000000 1.000000 0.363160
0.000000 1.000000 0.484937
0.000000 1.000000 0.599110
0.000000 1.000000 0.705678
0.000000 1.000000 0.804640
0.085938 0.000000 0.000000
0.085938 0.000000 0.000000
0.085938 0.000000 0.096790
0.085938 0.000000 0.233777
0.085938 0.000000 0.363160
0.085938 0.000000 0.484937
0.085938 0.000000 0.599110
0.085938 0.000000 0.705678
0.085938 0.000000 0.804640
0.085938 0.038390 0.000000
0.085938 0.038390 0.000000
0.085938 0.038390 0.096790
0.085938 0.038390 0.233777
0.085938 0.038390 0.363160
0.085938 0.038390 0.484937
0.085938 0.038390 0.599110
0.085938 0.038390 0.705678
0.085938 0.038390 0.804640
0.085938 0.230360 0.000000
0.085938 0.230360 0.000000
0.085938 0.230360 0.096790
0.085938 0.230360 0.233777
0.085938 0.230360 0.363160
0.085938 0.230360 0.484937
0.085938 0.230360 0.599110
0.085938 0.230360 0.705678
0.085938 0.230360 0.804640
0.085938 0.407750 0.000000
0.085938 0.407750 0.000000
0.085938 0.407750 0.096790
0.085938 0.407750 0.233777
0.085938 0.407750 0.363160
0.085938 0.407750 0.484937
0.085938 0.407750 0.599110
0.085938 0.407750 0.705678
0.085938 0.407750 0.804640
0.085938 0.570560 0.000000
0.085938 0.570560 0.000000
0.085938 0.570560 0.096790
0.085938 0.570560 0.233777
0.085938 0.570560 0.363160
0.085938 0.570560 0.484937
0.085938 0.570560 0.599110
0.085938 0.570560 0.705678
0.085938 0.570560 0.804640
0.085938 0.718790 0.000000
0.085938 0.718790 0.000000
0.085938 0.718790 0.096790
0.085938 0.718790 0.233777
0.085938 0.718790 0.363160
0.085938 0.718790 0.484937
0.085938 0.718790 0.599110
0.085938 0.718790 0.705678
0.085938 0.718790 0.804640
0.085938 0.852440 0.000000
0.085938 0.852440 0.000000
0.085938 0.852440 0.096790
0.085938 0.852440 0.233777
0.085938 0.852440 0.363160
0.085938 0.852440 0.484937
0.085938 0.852440 0.599110
0.085938 0.852440 0.705678
0.085938 0.852440 0.804640
0.085938 0.971510 0.000000
0.085938 0.971510 0.000000
0.085938 0.971510 0.096790
0.085938 0.971510 0.233777
0.085938 0.971510 0.363160
0.085938 0.971510 0.484937
0.085938 0.971510 0.599110
0.085938 0.971510 0.705678
0.085938 0.971510 0.804640
0.085938 1.000000 0.000000
0.085938 1.000000 0.000000
0.085938 1.000000 0.096790
0.085938 1.000000 0.233777
0.085938 1.000000 0.363160
0.085938 1.000000 0.484937
0.085938 1.000000 0.599110
0.085938 1.000000 0.705678
0.085938 1.000000 0.804640
0.291110 0.000000 0.000000
0.291110 0.000000 0.000000
0.291110 0.000000 0.096790
0.291110 0.000000 0.233777
0.291110 0.000000 0.363160
0.291110 0.000000 0.484937
0.291110 0.000000 0.599110
0.291110 0.000000 0.705678
0.291110 0.000000 0.804640
0.291110 0.038390 0.000000
0.291110 0.038390 0.000000
0.291110 0.038390 0.096790
0.291110 0.038390 0.233777
0.291110 0.038390 0.363160
0.291110 0.038390 0.484937
0.291110 0.038390 0.599110
0.291110 0.038390 0.705678
0.291110 0.038390 0.804640
0.291110 0.230360 0.000000
0.291110 0.230360 0.000000
0.291110 0.230360 0.096790
0.291110 0.230360 0.233777
0.291110 0.230360 0.363160
0.291110 0.230360 0.484937
0.291110 0.230360 0.599110
0.291110 0.230360 0.705678
0.291110 0.230360 0.804640
0.291110 0.407750 0.000000
0.291110 0.407750 0.000000
0.291110 0.407750 0.096790
0.291110 0.407750 0.233777
0.291110 0.407750 0.363160
0.291110 0.407750 0.484937
0.291110 0.407750 0.599110
0.291110 0.407750 0.705678
0.291110 0.407750 0.804640
0.291110 0.570560 0.000000
0.291110 0.570560 0.000000
0.291110 0.570560 0.096790
0.291110 0.570560 0.233777
0.291110 0.570560 0.363160
0.291110 0.570560 0.484937
0.291110 0.570560 0.599110
0.291110 0.570560 0.705678
0.291110 0.570560 0.804640
0.291110 0.718790 0.000000
0.291110 0.718790 0.000000
0.291110 0.718790 0.096790
0.291110 0.718790 0.233777
0.291110 0.718790 0.363160
0.291110 0.718790 0.484937
0.291110 0.718790 0.599110
0.291110 0.718790 0.705678
0.291110 0.718790 0.804640
0.291110 0.852440 0.000000
0.291110 0.852440 0.000000
0.291110 0.852440 0.096790
0.291110 0.852440 0.233777
0.291110 0.852440 0.363160
0.291110 0.852440 0.484937
0.291110 0.852440 0.599110
0.291110 0.852440 0.705678
0.291110 0.852440 0.804640
0.291110 0.971510 0.000000
0.291110 0.971510 0.000000
0.291110 0.971510 0.096790
0.291110 0.971510 0.233777
0.291110 0.971510 0.363160
0.291110 0.971510 0.484937
0.291110 0.971510 0.599110
0.291110 0.971510 0.705678
0.291110 0.971510 0.804640
0.291110 1.000000 0.000000
0.291110 1.000000 0.000000
0.291110 1.000000 0.096790
0.291110 1.000000 0.233777
0.291110 1.000000 0.363160
0.291110 1.000000 0.484937
0.291110 1.000000 0.599110
0.291110 1.000000 0.705678
0.291110 1.000000 0.804640
0.478877 0.000000 0.000000
0.478877 0.000000 0.000000
0.478877 0.000000 0.096790
0.478877 0.000000 0.233777
0.478877 0.000000 0.363160
0.478877 0.000000 0.484937
0.478877 0.000000 0.599110
0.478877 0.000000 0.705678
0.478877 0.000000 0.804640
0.478877 0.038390 0.000000
0.478877 0.038390 0.000000
0.478877 0.038390 0.096790
0.478877 0.038390 0.233777
0.478877 0.038390 0.363160
0.478877 0.038390 0.484937
0.478877 0.038390 0.599110
0.478877 0.038390 0.705678
0.478877 0.038390 0.804640
0.478877 0.230360 0.000000
0.478877 0.230360 0.000000
0.478877 0.230360 0.096790
0.478877 0.230360 0.233777
0.478877 0.230360 0.363160
0.478877 0.230360 0.484937
0.478877 0.230360 0.599110
0.478877 0.230360 0.705678
0.478877 0.230360 0.804640
0.478877 0.407750 0.000000
0.478877 0.407750 0.000000
0.478877 0.407750 0.096790
0.478877 0.407750 0.233777
0.478877 0.407750 0.363160
0.478877 0.407750 0.484937
0.478877 0.407750 0.599110
0.478877 0.407750 0.705678
0.478877 0.407750 0.804640
0.478877 0.570560 0.000000
0.478877 0.570560 0.000000
0.478877 0.570560 0.096790
0.478877 0.570560 0.233777
0.478877 0.570560 0.363160
0.478877 0.570560 0.484937
0.478877 0.570560 0.599110
0.478877 0.570560 0.705678
0.478877 0.570560 0.804640
0.478877 0.718790 0.000000
0.478877 0.718790 0.000000
0.478877 0.718790 0.096790
0.478877 0.718790 0.233777
0.478877 0.718790 0.363160
0.478877 0.718790 0.484937
0.478877 0.718790 0.599110
0.478877 0.718790 0.705678
0.478877 0.718790 0.804640
0.478877 0.852440 0.000000
0.478877 0.852440 0.000000
0.478877 0.852440 0.096790
0.478877 0.852440 0.233777
0.478877 0.852440 0.363160
0.478877 0.852440 0.484937
0.478877 0.852440 0.599110
0.478877 0.852440 0.705678
0.478877 0.852440 0.804640
0.478877 0.971510 0.000000
0.478877 0.971510 0.000000
0.478877 0.971510 0.096790
0.478877 0.971510 0.233777
0.478877 0.971510 0.363160
0.478877 0.971510 0.484937
0.478877 0.971510 0.599110
0.478877 0.971510 0.705678
0.478877 0.971510 0.804640
0.478877 1.000000 0.000000
0.478877 1.000000 0.000000
0.478877 1.000000 0.096790
0.478877 1.000000 0.233777
0.478877 1.000000 0.363160
0.478877 1.000000 0.484937
0.478877 1.000000 0.599110
0.478877 1.000000 0.705678
0.478877 1.000000 0.804640
0.649240 0.000000 0.000000
0.649240 0.000000 0.000000
0.649240 0.000000 0.096790
0.649240 0.000000 0.233777
0.649240 0.000000 0.363160
0.649240 0.000000 0.484937
0.649240 0.000000 0.599110
0.649240 0.000000 0.705678
0.649240 0.000000 0.804640
0.649240 0.038390 0.000000
0.649240 0.038390 0.000000
0.649240 0.038390 0.096790
0.649240 0.038390 0.233777
0.649240 0.038390 0.363160
0.649240 0.038390 0.484937
0.649240 0.038390 0.599110
0.649240 0.038390 0.705678
0.649240 0.038390 0.804640
0.649240 0.230360 0.000000
0.649240 0.230360 0.000000
0.649240 0.230360 0.096790
0.649240 0.230360 0.233777
0.649240 0.230360 0.363160
0.649240 0.230360 0.484937
0.649240 0.230360 0.599110
0.649240 0.230360 0.705678
0.649240 0.230360 0.804640
0.649240 0.407750 0.000000
0.649240 0.407750 0.000000
0.649240 0.407750 0.096790
0.649240 0.407750 0.233777
0.649240 0.407750 0.363160
0.649240 0.407750 0.484937
0.649240 0.407750 0.599110
0.649240 0.407750 0.705678
0.649240 0.407750 0.804640
0.649240 0.570560 0.000000
0.649240 0.570560 0.000000
0.649240 0.570560 0.096790
0.649240 0.570560 0.233777
0.649240 0.570560 0.363160
0.649240 0.570560 0.484937
0.649240 0.570560 0.599110
0.649240 0.570560 0.705678
0.649240 0.570560 0.804640
0.649240 0.718790 0.000000
0.649240 0.718790 0.000000
0.649240 0.718790 0.096790
0.649240 0.718790 0.233777
0.649240 0.718790 0.363160
0.649240 0.718790 0.484937
0.649240 0.718790 0.599110
0.649240 0.718790 0.705678
0.649240 0.718790 0.804640
0.649240 0.852440 0.000000
0.649240 0.852440 0.000000
0.649240 0.852440 0.096790
0.649240 0.852440 0.233777
0.649240 0.852440 0.363160
0.649240 0.852440 0.484937
0.649240 0.852440 0.599110
0.649240 0.852440 0.705678
0.649240 0.852440 0.804640
0.649240 0.971510 0.000000
0.649240 0.971510 0.000000
0.649240 0.971510 0.096790
0.649240 0.971510 0.233777
0.649240 0.971510 0.363160
0.649240 0.971510 0.484937
0.649240 0.971510 0.599110
0.649240 0.971510 0.705678
0.649240 0.971510 0.804640
0.649240 1.000000 0.000000
0.649240 1.000000 0.000000
0.649240 1.000000 0.096790
0.649240 1.000000 0.233777
0.649240 1.000000 0.363160
0.649240 1.000000 0.484937
0.649240 1.000000 0.599110
0.649240 1.000000 0.705678
0.649240 1.000000 0.804640
0.802197 0.000000 0.000000
0.802197 0.000000 0.000000
0.802197 0.000000 0.096790
0.802197 0.000000 0.233777
0.802197 0.000000 0.363160
0.802197 0.000000 0.484937
0.802197 0.000000 0.599110
0.802197 0.000000 0.705678
0.802197 0.000000 0.804640
0.802197 0.038390 0.000000
0.802197 0.038390 0.000000
0.802197 0.038390 0.096790
0.802197 0.038390 0.233777
0.802197 0.038390 0.363160
0.802197 0.038390 0.484937
0.802197 0.038390 0.599110
0.802197 0.038390 0.705678
0.802197 0.038390 0.804640
0.802197 0.230360 0.000000
0.802197 0.230360 0.000000
0.802197 0.230360 0.096790
0.802197 0.230360 0.233777
0.802197 0.230360 0.363160
0.802197 0.230360 0.484937
0.802197 0.230360 0.599110
0.802197 0.230360 0.705678
0.802197 0.230360 0.804640
0.802197 0.407750 0.000000
0.802197 0.407750 0.000000
0.802197 0.407750 0.096790
0.802197 0.407750 0.233777
0.802197 0.407750 0.363160
0.802197 0.407750 0.484937
0.802197 0.407750 0.599110
0.802197 0.407750 0.705678
0.802197 0.407750 0.804640
0.802197 0.570560 0.000000
0.802197 0.570560 0.000000
0.802197 0.570560 0.096790
0.802197 0.570560 0.233777
0.802197 0.570560 0.363160
0.802197 0.570560 0.484937
0.802197 0.570560 0.599110
0.802197 0.570560 0.705678
0.802197 0.570560 0.804640
0.802197 0.718790 0.000000
0.802197 0.718790 0.000000
0.802197 0.718790 0.096790
0.802197 0.718790 0.233777
0.802197 0.718790 0.363160
0.802197 0.718790 0.484937
0.802197 0.718790 0.599110
0.802197 0.718790 0.705678
0.802197 0.718790 0.804640
0.802197 0.852440 0.000000
0.802197 0.852440 0.000000
0.802197 0.852440 0.096790
0.802197 0.852440 0.233777
0.802197 0.852440 0.363160
0.802197 0.852440 0.484937
0.802197 0.852440 0.599110
0.802197 0.852440 0.705678
0.802197 0.852440 0.804640
0.802197 0.971510 0.000000
0.802197 0.971510 0.000000
0.802197 0.971510 0.096790
0.802197 0.971510 0.233777
0.802197 0.971510 0.363160
0.802197 0.971510 0.484937
0.802197 0.971510 0.599110
0.802197 0.971510 0.705678
0.802197 0.971510 0.804640
0.802197 1.000000 0.000000
0.802197 1.000000 0.000000
0.802197 1.000000 0.096790
0.802197 1.000000 0.233777
0.802197 1.000000 0.363160
0.802197 1.000000 0.484937
0.802197 1.000000 0.599110
0.802197 1.000000 0.705678
0.802197 1.000000 0.804640
0.937750 0.000000 0.000000
0.937750 0.000000 0.000000
0.937750 0.000000 0.096790
0.937750 0.000000 0.233777
0.937750 0.000000 0.363160
0.937750 0.000000 0.484937
0.937750 0.000000 0.599110
0.937750 0.000000 0.705678
0.937750 0.000000 0.804640
0.937750 0.038390 0.000000
0.937750 0.038390 0.000000
0.937750 0.038390 0.096790
0.937750 0.038390 0.233777
0.937750 0.038390 0.363160
0.937750 0.038390 0.484937
0.937750 0.038390 0.599110
0.937750 0.038390 0.705678
0.937750 0.038390 0.804640
0.937750 0.230360 0.000000
0.937750 0.230360 0.000000
0.937750 0.230360 0.096790
0.937750 0.230360 0.233777
0.937750 0.230360 0.363160
0.937750 0.230360 0.484937
0.937750 0.230360 0.599110
0.937750 0.230360 0.705678
0.937750 0.230360 0.804640
0.937750 0.407750 0.000000
0.937750 0.407750 0.000000
0.937750 0.407750 0.096790
0.937750 0.407750 0.233777
0.937750 0.407750 0.363160
0.937750 0.407750 0.484937
0.937750 0.407750 0.599110
0.937750 0.407750 0.705678
0.937750 0.407750 0.804640
0.937750 0.570560 0.000000
0.937750 0.570560 0.000000
0.937750 0.570560 0.096790
0.937750 0.570560 0.233777
0.937750 0.570560 0.363160
0.937750 0.570560 0.484937
0.937750 0.570560 0.599110
0.937750 0.570560 0.705678
0.937750 0.570560 0.804640
0.937750 0.718790 0.000000
0.937750 0.718790 0.000000
0.937750 0.718790 0.096790
0.937750 0.718790 0.233777
0.937750 0.718790 0.363160
0.937750 0.718790 0.484937
0.937750 0.718790 0.599110
0.937750 0.718790 0.705678
0.937750 0.718790 0.804640
0.937750 0.852440 0.000000
0.937750 0.852440 0.000000
0.937750 0.852440 0.096790
0.937750 0.852440 0.233777
0.937750 0.852440 0.363160
0.937750 0.852440 0.484937
0.937750 0.852440 0.599110
0.937750 0.852440 0.705678
0.937750 0.852440 0.804640
0.937750 0.971510 0.000000
0.937750 0.971510 0.000000
0.937750 0.971510 0.096790
0.937750 0.971510 0.233777
0.937750 0.971510 0.363160
0.937750 0.971510 0.484937
0.937750 0.971510 0.599110
0.937750 0.971510 0.705678
0.937750 0.971510 0.804640
0.937750 1.000000 0.000000
0.937750 1.000000 0.000000
0.937750 1.000000 0.096790
0.937750 1.000000 0.233777
0.937750 1.000000 0.363160
0.937750 1.000000 0.484937
0.937750 1.000000 0.599110
0.937750 1.000000 0.705678
0.937750 1.000000 0.804640
1.000000 0.000000 0.000000
1.000000 0.000000 0.000000
1.000000 0.000000 0.096790
1.000000 0.000000 0.233777
1.000000 0.000000 0.363160
1.000000 0.000000 0.484937
1.000000 0.000000 0.599110
1.000000 0.000000 0.705678
1.000000 0.000000 0.804640
1.000000 0.038390 0.000000
1.000000 0.038390 0.000000
1.000000 0.038390 0.096790
1.000000 0.038390 0.233777
1.000000 0.038390 0.363160
1.000000 0.038390 0.484937
1.000000 0.038390 0.599110
1.000000 0.038390 0.705678
1.000000 0.038390 0.804640
1.000000 0.230360 0.000000
1.000000 0.230360 0.000000
1.000000 0.230360 0.096790
1.000000 0.230360 0.233777
1.000000 0.230360 0.363160
1.000000 0.230360 0.484937
1.000000 0.230360 0.599110
1.000000 0.230360 0.705678
1.000000 0.230360 0.804640
1.000000 0.407750 0.000000
1.000000 0.407750 0.000000
1.000000 0.407750 0.096790
1.000000 0.407750 0.233777
1.000000 0.407750 0.363160
1.000000 0.407750 0.484937
1.000000 0.407750 0.599110
1.000000 0.407750 0.705678
1.000000 0.407750 0.804640
1.000000 0.570560 0.000000
1.000000 0.570560 0.000000
1.000000 0.570560 0.096790
1.000000 0.570560 0.233777
1.000000 0.570560 0.363160
1.000000 0.570560 0.484937
1.000000 0.570560 0.599110
1.000000 0.570560 0.705678
1.000000 0.570560 0.804640
1.000000 0.718790 0.000000
1.000000 0.718790 0.000000
1.000000 0.718790 0.096790
1.000000 0.718790 0.233777
1.000000 0.718790 0.363160
1.000000 0.718790 0.484937
1.000000 0.718790 0.599110
1.000000 0.718790 0.705678
1.000000 0.718790 0.804640
1.000000 0.852440 0.000000
1.000000 0.852440 0.000000
1.000000 0.852440 0.096790
1.000000 0.852440 0.233777
1.000000 0.852440 0.363160
1.000000 0.852440 0.484937
1.000000 0.852440 0.599110
1.000000 0.852440 0.705678
1.000000 0.852440 0.804640
1.000000 0.971510 0.000000
1.000000 0.971510 0.000000
1.000000 0.971510 0.096790
1.000000 0.971510 0.233777
1.000000 0.971510 0.363160
1.000000 0.971510 0.484937
1.000000 0.971510 0.599110
1.000000 0.971510 0.705678
1.000000 0.971510 0.804640
1.000000 1.000000 0.000000
1.000000 1.000000 0.000000
1.000000 1.000000 0.096790
1.000000 1.000000 0.233777
1.000000 1.000000 0.363160
1.000000 1.000000 0.484937
1.000000 1.000000 0.599110
1.000000 1.000000 0.705678
1.000000 1.000000 0.804640
1.000000 0.000000 0.000000
1.000000 0.000000 0.000000
1.000000 0.000000 0.096790
1.000000 0.000000 0.233777
1.000000 0.000000 0.363160
1.000000 0.000000 0.484937
1.000000 0.000000 0.599110
1.000000 0.000000 0.705678
1.000000 0.000000 0.804640
1.000000 0.038390 0.000000
1.000000 0.038390 0.000000
1.000000 0.038390 0.096790
1.000000 0.038390 0.233777
1.000000 0.038390 0.363160
1.000000 0.038390 0.484937
1.000000 0.038390 0.599110
1.000000 0.038390 0.705678
1.000000 0.038390 0.804640
1.000000 0.230360 0.000000
1.000000 0.230360 0.000000
1.000000 0.230360 0.096790
1.000000 0.230360 0.233777
1.000000 0.230360 0.363160
1.000000 0.230360 0.484937
1.000000 0.230360 0.599110
1.000000 0.230360 0.705678
1.000000 0.230360 0.804640
1.000000 0.407750 0.000000
1.000000 0.407750 0.000000
1.000000 0.407750 0.096790
1.000000 0.407750 0.233777
1.000000 0.407750 0.363160
1.000000 0.407750 0.484937
1.000000 0.407750 0.599110
1.000000 0.407750 0.705678
1.000000 0.407750 0.804640
1.000000 0.570560 0.000000
1.000000 0.570560 0.000000
1.000000 0.570560 0.096790
1.000000 0.570560 0.233777
1.000000 0.570560 0.363160
1.000000 0.570560 0.484937
1.000000 0.570560 0.599110
1.000000 0.570560 0.705678
1.000000 0.570560 0.804640
1.000000 0.718790 0.000000
1.000000 0.718790 0.000000
1.000000 0.718790 0.096790
1.000000 0.718790 0.233777
1.000000 0.718790 0.363160
1.000000 0.718790 0.484937
1.000000 0.718790 0.599110
1.000000 0.718790 0.705678
1.000000 0.718790 0.804640
1.000000 0.852440 0.000000
1.000000 0.852440 0.000000
1.000000 0.852440 0.096790
1.000000 0.852440 0.233777
1.000000 0.852440 0.363160
1.000000 0.852440 0.484937
1.000000 0.852440 0.599110
1.000000 0.852440 0.705678
1.000000 0.852440 0.804640
1.000000 0.971510 0.000000
1.000000 0.971510 0.000000
1.000000 0.971510 0.096790
1.000000 0.971510 0.233777
1.000000 0.971510 0.363160
1.000000 0.971510 0.484937
1.000000 0.971510 0.599110
1.000000 0.971510 0.705678
1.000000 0.971510 0.804640
1.000000 1.000000 0.000000
1.000000 1.000000 0.000000
1.000000 1.000000 0.096790
1.000000 1.000000 0.233777
1.000000 1.000000 0.363160
1.000000 1.000000 0.484937
1.000000 1.000000 0.599110
1.000000 1.000000 0.705678
1.000000 1.000000 0.804640
