app/luts/hk_night.cube
TITLE "港风夜景"
# StyleForge original LUT. Cube format compatible with CubeLUT.cn / Premiere.
LUT_3D_SIZE 5
DOMAIN_MIN 0.0 0.0 0.0
DOMAIN_MAX 1.0 1.0 1.0
0.000000 0.000000 0.000000
0.000000 0.000000 0.117815
0.000000 0.000000 0.507464
0.000000 0.000000 0.797754
0.000000 0.000000 0.988686
0.000000 0.027808 0.000000
0.000000 0.027808 0.117815
0.000000 0.027808 0.507464
0.000000 0.027808 0.797754
0.000000 0.027808 0.988686
0.000000 0.410432 0.000000
0.000000 0.410432 0.117815
0.000000 0.410432 0.507464
0.000000 0.410432 0.797754
0.000000 0.410432 0.988686
0.000000 0.707872 0.000000
0.000000 0.707872 0.117815
0.000000 0.707872 0.507464
0.000000 0.707872 0.797754
0.000000 0.707872 0.988686
0.000000 0.920128 0.000000
0.000000 0.920128 0.117815
0.000000 0.920128 0.507464
0.000000 0.920128 0.797754
0.000000 0.920128 0.988686
0.107433 0.000000 0.000000
0.107433 0.000000 0.117815
0.107433 0.000000 0.507464
0.107433 0.000000 0.797754
0.107433 0.000000 0.988686
0.107433 0.027808 0.000000
0.107433 0.027808 0.117815
0.107433 0.027808 0.507464
0.107433 0.027808 0.797754
0.107433 0.027808 0.988686
0.107433 0.410432 0.000000
0.107433 0.410432 0.117815
0.107433 0.410432 0.507464
0.107433 0.410432 0.797754
0.107433 0.410432 0.988686
0.107433 0.707872 0.000000
0.107433 0.707872 0.117815
0.107433 0.707872 0.507464
0.107433 0.707872 0.797754
0.107433 0.707872 0.988686
0.107433 0.920128 0.000000
0.107433 0.920128 0.117815
0.107433 0.920128 0.507464
0.107433 0.920128 0.797754
0.107433 0.920128 0.988686
0.505746 0.000000 0.000000
0.505746 0.000000 0.117815
0.505746 0.000000 0.507464
0.505746 0.000000 0.797754
0.505746 0.000000 0.988686
0.505746 0.027808 0.000000
0.505746 0.027808 0.117815
0.505746 0.027808 0.507464
0.505746 0.027808 0.797754
0.505746 0.027808 0.988686
0.505746 0.410432 0.000000
0.505746 0.410432 0.117815
0.505746 0.410432 0.507464
0.505746 0.410432 0.797754
0.505746 0.410432 0.988686
0.505746 0.707872 0.000000
0.505746 0.707872 0.117815
0.505746 0.707872 0.507464
0.505746 0.707872 0.797754
0.505746 0.707872 0.988686
0.505746 0.920128 0.000000
0.505746 0.920128 0.117815
0.505746 0.920128 0.507464
0.505746 0.920128 0.797754
0.505746 0.920128 0.988686
0.800986 0.000000 0.000000
0.800986 0.000000 0.117815
0.800986 0.000000 0.507464
0.800986 0.000000 0.797754
0.800986 0.000000 0.988686
0.800986 0.027808 0.000000
0.800986 0.027808 0.117815
0.800986 0.027808 0.507464
0.800986 0.027808 0.797754
0.800986 0.027808 0.988686
0.800986 0.410432 0.000000
0.800986 0.410432 0.117815
0.800986 0.410432 0.507464
0.800986 0.410432 0.797754
0.800986 0.410432 0.988686
0.800986 0.707872 0.000000
0.800986 0.707872 0.117815
0.800986 0.707872 0.507464
0.800986 0.707872 0.797754
0.800986 0.707872 0.988686
0.800986 0.920128 0.000000
0.800986 0.920128 0.117815
0.800986 0.920128 0.507464
0.800986 0.920128 0.797754
0.800986 0.920128 0.988686
0.993153 0.000000 0.000000
0.993153 0.000000 0.117815
0.993153 0.000000 0.507464
0.993153 0.000000 0.797754
0.993153 0.000000 0.988686
0.993153 0.027808 0.000000
0.993153 0.027808 0.117815
0.993153 0.027808 0.507464
0.993153 0.027808 0.797754
0.993153 0.027808 0.988686
0.993153 0.410432 0.000000
0.993153 0.410432 0.117815
0.993153 0.410432 0.507464
0.993153 0.410432 0.797754
0.993153 0.410432 0.988686
0.993153 0.707872 0.000000
0.993153 0.707872 0.117815
0.993153 0.707872 0.507464
0.993153 0.707872 0.797754
0.993153 0.707872 0.988686
0.993153 0.920128 0.000000
0.993153 0.920128 0.117815
0.993153 0.920128 0.507464
0.993153 0.920128 0.797754
0.993153 0.920128 0.988686
