app/luts/hk_night.cube
TITLE "港风夜景"
# StyleForge original LUT. Cube format compatible with CubeLUT.cn / Premiere.
LUT_3D_SIZE 17
DOMAIN_MIN 0.0 0.0 0.0
DOMAIN_MAX 1.0 1.0 1.0
0.000000 0.000000 0.000000
0.000000 0.000000 0.000000
0.000000 0.000000 0.000000
0.000000 0.000000 0.004878
0.000000 0.000000 0.117815
0.000000 0.000000 0.224543
0.000000 0.000000 0.325060
0.000000 0.000000 0.419367
0.000000 0.000000 0.507464
0.000000 0.000000 0.589352
0.000000 0.000000 0.665029
0.000000 0.000000 0.734497
0.000000 0.000000 0.797754
0.000000 0.000000 0.854802
0.000000 0.000000 0.905640
0.000000 0.000000 0.950268
0.000000 0.000000 0.988686
0.000000 0.000000 0.000000
0.000000 0.000000 0.000000
0.000000 0.000000 0.000000
0.000000 0.000000 0.004878
0.000000 0.000000 0.117815
0.000000 0.000000 0.224543
0.000000 0.000000 0.325060
0.000000 0.000000 0.419367
0.000000 0.000000 0.507464
0.000000 0.000000 0.589352
0.000000 0.000000 0.665029
0.000000 0.000000 0.734497
0.000000 0.000000 0.797754
0.000000 0.000000 0.854802
0.000000 0.000000 0.905640
0.000000 0.000000 0.950268
0.000000 0.000000 0.988686
0.000000 0.000000 0.000000
0.000000 0.000000 0.000000
0.000000 0.000000 0.000000
0.000000 0.000000 0.004878
0.000000 0.000000 0.117815
0.000000 0.000000 0.224543
0.000000 0.000000 0.325060
0.000000 0.000000 0.419367
0.000000 0.000000 0.507464
0.000000 0.000000 0.589352
0.000000 0.000000 0.665029
0.000000 0.000000 0.734497
0.000000 0.000000 0.797754
0.000000 0.000000 0.854802
0.000000 0.000000 0.905640
0.000000 0.000000 0.950268
0.000000 0.000000 0.988686
0.000000 0.000000 0.000000
0.000000 0.000000 0.000000
0.000000 0.000000 0.000000
0.000000 0.000000 0.004878
0.000000 0.000000 0.117815
0.000000 0.000000 0.224543
0.000000 0.000000 0.325060
0.000000 0.000000 0.419367
0.000000 0.000000 0.507464
0.000000 0.000000 0.589352
0.000000 0.000000 0.665029
0.000000 0.000000 0.734497
0.000000 0.000000 0.797754
0.000000 0.000000 0.854802
0.000000 0.000000 0.905640
0.000000 0.000000 0.950268
0.000000 0.000000 0.988686
0.000000 0.027808 0.000000
0.000000 0.027808 0.000000
0.000000 0.027808 0.000000
0.000000 0.027808 0.004878
0.000000 0.027808 0.117815
0.000000 0.027808 0.224543
0.000000 0.027808 0.325060
0.000000 0.027808 0.419367
0.000000 0.027808 0.507464
0.000000 0.027808 0.589352
0.000000 0.027808 0.665029
0.000000 0.027808 0.734497
0.000000 0.027808 0.797754
0.000000 0.027808 0.854802
0.000000 0.027808 0.905640
0.000000 0.027808 0.950268
0.000000 0.027808 0.988686
0.000000 0.131450 0.000000
0.000000 0.131450 0.000000
0.000000 0.131450 0.000000
0.000000 0.131450 0.004878
0.000000 0.131450 0.117815
0.000000 0.131450 0.224543
0.000000 0.131450 0.325060
0.000000 0.131450 0.419367
0.000000 0.131450 0.507464
0.000000 0.131450 0.589352
0.000000 0.131450 0.665029
0.000000 0.131450 0.734497
0.000000 0.131450 0.797754
0.000000 0.131450 0.854802
0.000000 0.131450 0.905640
0.000000 0.131450 0.950268
0.000000 0.131450 0.988686
0.000000 0.229768 0.000000
0.000000 0.229768 0.000000
0.000000 0.229768 0.000000
0.000000 0.229768 0.004878
0.000000 0.229768 0.117815
0.000000 0.229768 0.224543
0.000000 0.229768 0.325060
0.000000 0.229768 0.419367
0.000000 0.229768 0.507464
0.000000 0.229768 0.589352
0.000000 0.229768 0.665029
0.000000 0.229768 0.734497
0.000000 0.229768 0.797754
0.000000 0.229768 0.854802
0.000000 0.229768 0.905640
0.000000 0.229768 0.950268
0.000000 0.229768 0.988686
0.000000 0.322762 0.000000
0.000000 0.322762 0.000000
0.000000 0.322762 0.000000
0.000000 0.322762 0.004878
0.000000 0.322762 0.117815
0.000000 0.322762 0.224543
0.000000 0.322762 0.325060
0.000000 0.322762 0.419367
0.000000 0.322762 0.507464
0.000000 0.322762 0.589352
0.000000 0.322762 0.665029
0.000000 0.322762 0.734497
0.000000 0.322762 0.797754
0.000000 0.322762 0.854802
0.000000 0.322762 0.905640
0.000000 0.322762 0.950268
0.000000 0.322762 0.988686
0.000000 0.410432 0.000000
0.000000 0.410432 0.000000
0.000000 0.410432 0.000000
0.000000 0.410432 0.004878
0.000000 0.410432 0.117815
0.000000 0.410432 0.224543
0.000000 0.410432 0.325060
0.000000 0.410432 0.419367
0.000000 0.410432 0.507464
0.000000 0.410432 0.589352
0.000000 0.410432 0.665029
0.000000 0.410432 0.734497
0.000000 0.410432 0.797754
0.000000 0.410432 0.854802
0.000000 0.410432 0.905640
0.000000 0.410432 0.950268
0.000000 0.410432 0.988686
0.000000 0.492778 0.000000
0.000000 0.492778 0.000000
0.000000 0.492778 0.000000
0.000000 0.492778 0.004878
0.000000 0.492778 0.117815
0.000000 0.492778 0.224543
0.000000 0.492778 0.325060
0.000000 0.492778 0.419367
0.000000 0.492778 0.507464
0.000000 0.492778 0.589352
0.000000 0.492778 0.665029
0.000000 0.492778 0.734497
0.000000 0.492778 0.797754
0.000000 0.492778 0.854802
0.000000 0.492778 0.905640
0.000000 0.492778 0.950268
0.000000 0.492778 0.988686
0.000000 0.569800 0.000000
0.000000 0.569800 0.000000
0.000000 0.569800 0.000000
0.000000 0.569800 0.004878
0.000000 0.569800 0.117815
0.000000 0.569800 0.224543
0.000000 0.569800 0.325060
0.000000 0.569800 0.419367
0.000000 0.569800 0.507464
0.000000 0.569800 0.589352
0.000000 0.569800 0.665029
0.000000 0.569800 0.734497
0.000000 0.569800 0.797754
0.000000 0.569800 0.854802
0.000000 0.569800 0.905640
0.000000 0.569800 0.950268
0.000000 0.569800 0.988686
0.000000 0.641498 0.000000
0.000000 0.641498 0.000000
0.000000 0.641498 0.000000
0.000000 0.641498 0.004878
0.000000 0.641498 0.117815
0.000000 0.641498 0.224543
0.000000 0.641498 0.325060
0.000000 0.641498 0.419367
0.000000 0.641498 0.507464
0.000000 0.641498 0.589352
0.000000 0.641498 0.665029
0.000000 0.641498 0.734497
0.000000 0.641498 0.797754
0.000000 0.641498 0.854802
0.000000 0.641498 0.905640
0.000000 0.641498 0.950268
0.000000 0.641498 0.988686
0.000000 0.707872 0.000000
0.000000 0.707872 0.000000
0.000000 0.707872 0.000000
0.000000 0.707872 0.004878
0.000000 0.707872 0.117815
0.000000 0.707872 0.224543
0.000000 0.707872 0.325060
0.000000 0.707872 0.419367
0.000000 0.707872 0.507464
0.000000 0.707872 0.589352
0.000000 0.707872 0.665029
0.000000 0.707872 0.734497
0.000000 0.707872 0.797754
0.000000 0.707872 0.854802
0.000000 0.707872 0.905640
0.000000 0.707872 0.950268
0.000000 0.707872 0.988686
0.000000 0.768922 0.000000
0.000000 0.768922 0.000000
0.000000 0.768922 0.000000
0.000000 0.768922 0.004878
0.000000 0.768922 0.117815
0.000000 0.768922 0.224543
0.000000 0.768922 0.325060
0.000000 0.768922 0.419367
0.000000 0.768922 0.507464
0.000000 0.768922 0.589352
0.000000 0.768922 0.665029
0.000000 0.768922 0.734497
0.000000 0.768922 0.797754
0.000000 0.768922 0.854802
0.000000 0.768922 0.905640
0.000000 0.768922 0.950268
0.000000 0.768922 0.988686
0.000000 0.824648 0.000000
0.000000 0.824648 0.000000
0.000000 0.824648 0.000000
0.000000 0.824648 0.004878
0.000000 0.824648 0.117815
0.000000 0.824648 0.224543
0.000000 0.824648 0.325060
0.000000 0.824648 0.419367
0.000000 0.824648 0.507464
0.000000 0.824648 0.589352
0.000000 0.824648 0.665029
0.000000 0.824648 0.734497
0.000000 0.824648 0.797754
0.000000 0.824648 0.854802
0.000000 0.824648 0.905640
0.000000 0.824648 0.950268
0.000000 0.824648 0.988686
0.000000 0.875050 0.000000
0.000000 0.875050 0.000000
0.000000 0.875050 0.000000
0.000000 0.875050 0.004878
0.000000 0.875050 0.117815
0.000000 0.875050 0.224543
0.000000 0.875050 0.325060
0.000000 0.875050 0.419367
0.000000 0.875050 0.507464
0.000000 0.875050 0.589352
0.000000 0.875050 0.665029
0.000000 0.875050 0.734497
0.000000 0.875050 0.797754
0.000000 0.875050 0.854802
0.000000 0.875050 0.905640
0.000000 0.875050 0.950268
0.000000 0.875050 0.988686
0.000000 0.920128 0.000000
0.000000 0.920128 0.000000
0.000000 0.920128 0.000000
0.000000 0.920128 0.004878
0.000000 0.920128 0.117815
0.000000 0.920128 0.224543
0.000000 0.920128 0.325060
0.000000 0.920128 0.419367
0.000000 0.920128 0.507464
0.000000 0.920128 0.589352
0.000000 0.920128 0.665029
0.000000 0.920128 0.734497
0.000000 0.920128 0.797754
0.000000 0.920128 0.854802
0.000000 0.920128 0.905640
0.000000 0.920128 0.950268
0.000000 0.920128 0.988686
0.000000 0.000000 0.000000
0.000000 0.000000 0.000000
0.000000 0.000000 0.000000
0.000000 0.000000 0.004878
0.000000 0.000000 0.117815
0.000000 0.000000 0.224543
0.000000 0.000000 0.325060
0.000000 0.000000 0.419367
0.000000 0.000000 0.507464
0.000000 0.000000 0.589352
0.000000 0.000000 0.665029
0.000000 0.000000 0.734497
0.000000 0.000000 0.797754
0.000000 0.000000 0.854802
0.000000 0.000000 0.905640
0.000000 0.000000 0.950268
0.000000 0.000000 0.988686
0.000000 0.000000 0.000000
0.000000 0.000000 0.000000
0.000000 0.000000 0.000000
0.000000 0.000000 0.004878
0.000000 0.000000 0.117815
0.000000 0.000000 0.224543
0.000000 0.000000 0.325060
0.000000 0.000000 0.419367
0.000000 0.000000 0.507464
0.000000 0.000000 0.589352
0.000000 0.000000 0.665029
0.000000 0.000000 0.734497
0.000000 0.000000 0.797754
0.000000 0.000000 0.854802
0.000000 0.000000 0.905640
0.000000 0.000000 0.950268
0.000000 0.000000 0.988686
0.000000 0.000000 0.000000
0.000000 0.000000 0.000000
0.000000 0.000000 0.000000
0.000000 0.000000 0.004878
0.000000 0.000000 0.117815
0.000000 0.000000 0.224543
0.000000 0.000000 0.325060
0.000000 0.000000 0.419367
0.000000 0.000000 0.507464
0.000000 0.000000 0.589352
0.000000 0.000000 0.665029
0.000000 0.000000 0.734497
0.000000 0.000000 0.797754
0.000000 0.000000 0.854802
0.000000 0.000000 0.905640
0.000000 0.000000 0.950268
0.000000 0.000000 0.988686
0.000000 0.000000 0.000000
0.000000 0.000000 0.000000
0.000000 0.000000 0.000000
0.000000 0.000000 0.004878
0.000000 0.000000 0.117815
0.000000 0.000000 0.224543
0.000000 0.000000 0.325060
0.000000 0.000000 0.419367
0.000000 0.000000 0.507464
0.000000 0.000000 0.589352
0.000000 0.000000 0.665029
0.000000 0.000000 0.734497
0.000000 0.000000 0.797754
0.000000 0.000000 0.854802
0.000000 0.000000 0.905640
0.000000 0.000000 0.950268
0.000000 0.000000 0.988686
0.000000 0.027808 0.000000
0.000000 0.027808 0.000000
0.000000 0.027808 0.000000
0.000000 0.027808 0.004878
0.000000 0.027808 0.117815
0.000000 0.027808 0.224543
0.000000 0.027808 0.325060
0.000000 0.027808 0.419367
0.000000 0.027808 0.507464
0.000000 0.027808 0.589352
0.000000 0.027808 0.665029
0.000000 0.027808 0.734497
0.000000 0.027808 0.797754
0.000000 0.027808 0.854802
0.000000 0.027808 0.905640
0.000000 0.027808 0.950268
0.000000 0.027808 0.988686
0.000000 0.131450 0.000000
0.000000 0.131450 0.000000
0.000000 0.131450 0.000000
0.000000 0.131450 0.004878
0.000000 0.131450 0.117815
0.000000 0.131450 0.224543
0.000000 0.131450 0.325060
0.000000 0.131450 0.419367
0.000000 0.131450 0.507464
0.000000 0.131450 0.589352
0.000000 0.131450 0.665029
0.000000 0.131450 0.734497
0.000000 0.131450 0.797754
0.000000 0.131450 0.854802
0.000000 0.131450 0.905640
0.000000 0.131450 0.950268
0.000000 0.131450 0.988686
0.000000 0.229768 0.000000
0.000000 0.229768 0.000000
0.000000 0.229768 0.000000
0.000000 0.229768 0.004878
0.000000 0.229768 0.117815
0.000000 0.229768 0.224543
0.000000 0.229768 0.325060
0.000000 0.229768 0.419367
0.000000 0.229768 0.507464
0.000000 0.229768 0.589352
0.000000 0.229768 0.665029
0.000000 0.229768 0.734497
0.000000 0.229768 0.797754
0.000000 0.229768 0.854802
0.000000 0.229768 0.905640
0.000000 0.229768 0.950268
0.000000 0.229768 0.988686
0.000000 0.322762 0.000000
0.000000 0.322762 0.000000
0.000000 0.322762 0.000000
0.000000 0.322762 0.004878
0.000000 0.322762 0.117815
0.000000 0.322762 0.224543
0.000000 0.322762 0.325060
0.000000 0.322762 0.419367
0.000000 0.322762 0.507464
0.000000 0.322762 0.589352
0.000000 0.322762 0.665029
0.000000 0.322762 0.734497
0.000000 0.322762 0.797754
0.000000 0.322762 0.854802
0.000000 0.322762 0.905640
0.000000 0.322762 0.950268
0.000000 0.322762 0.988686
0.000000 0.410432 0.000000
0.000000 0.410432 0.000000
0.000000 0.410432 0.000000
0.000000 0.410432 0.004878
0.000000 0.410432 0.117815
0.000000 0.410432 0.224543
0.000000 0.410432 0.325060
0.000000 0.410432 0.419367
0.000000 0.410432 0.507464
0.000000 0.410432 0.589352
0.000000 0.410432 0.665029
0.000000 0.410432 0.734497
0.000000 0.410432 0.797754
0.000000 0.410432 0.854802
0.000000 0.410432 0.905640
0.000000 0.410432 0.950268
0.000000 0.410432 0.988686
0.000000 0.492778 0.000000
0.000000 0.492778 0.000000
0.000000 0.492778 0.000000
0.000000 0.492778 0.004878
0.000000 0.492778 0.117815
0.000000 0.492778 0.224543
0.000000 0.492778 0.325060
0.000000 0.492778 0.419367
0.000000 0.492778 0.507464
0.000000 0.492778 0.589352
0.000000 0.492778 0.665029
0.000000 0.492778 0.734497
0.000000 0.492778 0.797754
0.000000 0.492778 0.854802
0.000000 0.492778 0.905640
0.000000 0.492778 0.950268
0.000000 0.492778 0.988686
0.000000 0.569800 0.000000
0.000000 0.569800 0.000000
0.000000 0.569800 0.000000
0.000000 0.569800 0.004878
0.000000 0.569800 0.117815
0.000000 0.569800 0.224543
0.000000 0.569800 0.325060
0.000000 0.569800 0.419367
0.000000 0.569800 0.507464
0.000000 0.569800 0.589352
0.000000 0.569800 0.665029
0.000000 0.569800 0.734497
0.000000 0.569800 0.797754
0.000000 0.569800 0.854802
0.000000 0.569800 0.905640
0.000000 0.569800 0.950268
0.000000 0.569800 0.988686
0.000000 0.641498 0.000000
0.000000 0.641498 0.000000
0.000000 0.641498 0.000000
0.000000 0.641498 0.004878
0.000000 0.641498 0.117815
0.000000 0.641498 0.224543
0.000000 0.641498 0.325060
0.000000 0.641498 0.419367
0.000000 0.641498 0.507464
0.000000 0.641498 0.589352
0.000000 0.641498 0.665029
0.000000 0.641498 0.734497
0.000000 0.641498 0.797754
0.000000 0.641498 0.854802
0.000000 0.641498 0.905640
0.000000 0.641498 0.950268
0.000000 0.641498 0.988686
0.000000 0.707872 0.000000
0.000000 0.707872 0.000000
0.000000 0.707872 0.000000
0.000000 0.707872 0.004878
0.000000 0.707872 0.117815
0.000000 0.707872 0.224543
0.000000 0.707872 0.325060
0.000000 0.707872 0.419367
0.000000 0.707872 0.507464
0.000000 0.707872 0.589352
0.000000 0.707872 0.665029
0.000000 0.707872 0.734497
0.000000 0.707872 0.797754
0.000000 0.707872 0.854802
0.000000 0.707872 0.905640
0.000000 0.707872 0.950268
0.000000 0.707872 0.988686
0.000000 0.768922 0.000000
0.000000 0.768922 0.000000
0.000000 0.768922 0.000000
0.000000 0.768922 0.004878
0.000000 0.768922 0.117815
0.000000 0.768922 0.224543
0.000000 0.768922 0.325060
0.000000 0.768922 0.419367
0.000000 0.768922 0.507464
0.000000 0.768922 0.589352
0.000000 0.768922 0.665029
0.000000 0.768922 0.734497
0.000000 0.768922 0.797754
0.000000 0.768922 0.854802
0.000000 0.768922 0.905640
0.000000 0.768922 0.950268
0.000000 0.768922 0.988686
0.000000 0.824648 0.000000
0.000000 0.824648 0.000000
0.000000 0.824648 0.000000
0.000000 0.824648 0.004878
0.000000 0.824648 0.117815
0.000000 0.824648 0.224543
0.000000 0.824648 0.325060
0.000000 0.824648 0.419367
0.000000 0.824648 0.507464
0.000000 0.824648 0.589352
0.000000 0.824648 0.665029
0.000000 0.824648 0.734497
0.000000 0.824648 0.797754
0.000000 0.824648 0.854802
0.000000 0.824648 0.905640
0.000000 0.824648 0.950268
0.000000 0.824648 0.988686
0.000000 0.875050 0.000000
0.000000 0.875050 0.000000
0.000000 0.875050 0.000000
0.000000 0.875050 0.004878
0.000000 0.875050 0.117815
0.000000 0.875050 0.224543
0.000000 0.875050 0.325060
0.000000 0.875050 0.419367
0.000000 0.875050 0.507464
0.000000 0.875050 0.589352
0.000000 0.875050 0.665029
0.000000 0.875050 0.734497
0.000000 0.875050 0.797754
0.000000 0.875050 0.854802
0.000000 0.875050 0.905640
0.000000 0.875050 0.950268
0.000000 0.875050 0.988686
0.000000 0.920128 0.000000
0.000000 0.920128 0.000000
0.000000 0.920128 0.000000
0.000000 0.920128 0.004878
0.000000 0.920128 0.117815
0.000000 0.920128 0.224543
0.000000 0.920128 0.325060
0.000000 0.920128 0.419367
0.000000 0.920128 0.507464
0.000000 0.920128 0.589352
0.000000 0.920128 0.665029
0.000000 0.920128 0.734497
0.000000 0.920128 0.797754
0.000000 0.920128 0.854802
0.000000 0.920128 0.905640
0.000000 0.920128 0.950268
0.000000 0.920128 0.988686
0.000000 0.000000 0.000000
0.000000 0.000000 0.000000
0.000000 0.000000 0.000000
0.000000 0.000000 0.004878
0.000000 0.000000 0.117815
0.000000 0.000000 0.224543
0.000000 0.000000 0.325060
0.000000 0.000000 0.419367
0.000000 0.000000 0.507464
0.000000 0.000000 0.589352
0.000000 0.000000 0.665029
0.000000 0.000000 0.734497
0.000000 0.000000 0.797754
0.000000 0.000000 0.854802
0.000000 0.000000 0.905640
0.000000 0.000000 0.950268
0.000000 0.000000 0.988686
0.000000 0.000000 0.000000
0.000000 0.000000 0.000000
0.000000 0.000000 0.000000
0.000000 0.000000 0.004878
0.000000 0.000000 0.117815
0.000000 0.000000 0.224543
0.000000 0.000000 0.325060
0.000000 0.000000 0.419367
0.000000 0.000000 0.507464
0.000000 0.000000 0.589352
0.000000 0.000000 0.665029
0.000000 0.000000 0.734497
0.000000 0.000000 0.797754
0.000000 0.000000 0.854802
0.000000 0.000000 0.905640
0.000000 0.000000 0.950268
0.000000 0.000000 0.988686
0.000000 0.000000 0.000000
0.000000 0.000000 0.000000
0.000000 0.000000 0.000000
0.000000 0.000000 0.004878
0.000000 0.000000 0.117815
0.000000 0.000000 0.224543
0.000000 0.000000 0.325060
0.000000 0.000000 0.419367
0.000000 0.000000 0.507464
0.000000 0.000000 0.589352
0.000000 0.000000 0.665029
0.000000 0.000000 0.734497
0.000000 0.000000 0.797754
0.000000 0.000000 0.854802
0.000000 0.000000 0.905640
0.000000 0.000000 0.950268
0.000000 0.000000 0.988686
0.000000 0.000000 0.000000
0.000000 0.000000 0.000000
0.000000 0.000000 0.000000
0.000000 0.000000 0.004878
0.000000 0.000000 0.117815
0.000000 0.000000 0.224543
0.000000 0.000000 0.325060
0.000000 0.000000 0.419367
0.000000 0.000000 0.507464
0.000000 0.000000 0.589352
0.000000 0.000000 0.665029
0.000000 0.000000 0.734497
0.000000 0.000000 0.797754
0.000000 0.000000 0.854802
0.000000 0.000000 0.905640
0.000000 0.000000 0.950268
0.000000 0.000000 0.988686
0.000000 0.027808 0.000000
0.000000 0.027808 0.000000
0.000000 0.027808 0.000000
0.000000 0.027808 0.004878
0.000000 0.027808 0.117815
0.000000 0.027808 0.224543
0.000000 0.027808 0.325060
0.000000 0.027808 0.419367
0.000000 0.027808 0.507464
0.000000 0.027808 0.589352
0.000000 0.027808 0.665029
0.000000 0.027808 0.734497
0.000000 0.027808 0.797754
0.000000 0.027808 0.854802
0.000000 0.027808 0.905640
0.000000 0.027808 0.950268
0.000000 0.027808 0.988686
0.000000 0.131450 0.000000
0.000000 0.131450 0.000000
0.000000 0.131450 0.000000
0.000000 0.131450 0.004878
0.000000 0.131450 0.117815
0.000000 0.131450 0.224543
0.000000 0.131450 0.325060
0.000000 0.131450 0.419367
0.000000 0.131450 0.507464
0.000000 0.131450 0.589352
0.000000 0.131450 0.665029
0.000000 0.131450 0.734497
0.000000 0.131450 0.797754
0.000000 0.131450 0.854802
0.000000 0.131450 0.905640
0.000000 0.131450 0.950268
0.000000 0.131450 0.988686
0.000000 0.229768 0.000000
0.000000 0.229768 0.000000
0.000000 0.229768 0.000000
0.000000 0.229768 0.004878
0.000000 0.229768 0.117815
0.000000 0.229768 0.224543
0.000000 0.229768 0.325060
0.000000 0.229768 0.419367
0.000000 0.229768 0.507464
0.000000 0.229768 0.589352
0.000000 0.229768 0.665029
0.000000 0.229768 0.734497
0.000000 0.229768 0.797754
0.000000 0.229768 0.854802
0.000000 0.229768 0.905640
0.000000 0.229768 0.950268
0.000000 0.229768 0.988686
0.000000 0.322762 0.000000
0.000000 0.322762 0.000000
0.000000 0.322762 0.000000
0.000000 0.322762 0.004878
0.000000 0.322762 0.117815
0.000000 0.322762 0.224543
0.000000 0.322762 0.325060
0.000000 0.322762 0.419367
0.000000 0.322762 0.507464
0.000000 0.322762 0.589352
0.000000 0.322762 0.665029
0.000000 0.322762 0.734497
0.000000 0.322762 0.797754
0.000000 0.322762 0.854802
0.000000 0.322762 0.905640
0.000000 0.322762 0.950268
0.000000 0.322762 0.988686
0.000000 0.410432 0.000000
0.000000 0.410432 0.000000
0.000000 0.410432 0.000000
0.000000 0.410432 0.004878
0.000000 0.410432 0.117815
0.000000 0.410432 0.224543
0.000000 0.410432 0.325060
0.000000 0.410432 0.419367
0.000000 0.410432 0.507464
0.000000 0.410432 0.589352
0.000000 0.410432 0.665029
0.000000 0.410432 0.734497
0.000000 0.410432 0.797754
0.000000 0.410432 0.854802
0.000000 0.410432 0.905640
0.000000 0.410432 0.950268
0.000000 0.410432 0.988686
0.000000 0.492778 0.000000
0.000000 0.492778 0.000000
0.000000 0.492778 0.000000
0.000000 0.492778 0.004878
0.000000 0.492778 0.117815
0.000000 0.492778 0.224543
0.000000 0.492778 0.325060
0.000000 0.492778 0.419367
0.000000 0.492778 0.507464
0.000000 0.492778 0.589352
0.000000 0.492778 0.665029
0.000000 0.492778 0.734497
0.000000 0.492778 0.797754
0.000000 0.492778 0.854802
0.000000 0.492778 0.905640
0.000000 0.492778 0.950268
0.000000 0.492778 0.988686
0.000000 0.569800 0.000000
0.000000 0.569800 0.000000
0.000000 0.569800 0.000000
0.000000 0.569800 0.004878
0.000000 0.569800 0.117815
0.000000 0.569800 0.224543
0.000000 0.569800 0.325060
0.000000 0.569800 0.419367
0.000000 0.569800 0.507464
0.000000 0.569800 0.589352
0.000000 0.569800 0.665029
0.000000 0.569800 0.734497
0.000000 0.569800 0.797754
0.000000 0.569800 0.854802
0.000000 0.569800 0.905640
0.000000 0.569800 0.950268
0.000000 0.569800 0.988686
0.000000 0.641498 0.000000
0.000000 0.641498 0.000000
0.000000 0.641498 0.000000
0.000000 0.641498 0.004878
0.000000 0.641498 0.117815
0.000000 0.641498 0.224543
0.000000 0.641498 0.325060
0.000000 0.641498 0.419367
0.000000 0.641498 0.507464
0.000000 0.641498 0.589352
0.000000 0.641498 0.665029
0.000000 0.641498 0.734497
0.000000 0.641498 0.797754
0.000000 0.641498 0.854802
0.000000 0.641498 0.905640
0.000000 0.641498 0.950268
0.000000 0.641498 0.988686
0.000000 0.707872 0.000000
0.000000 0.707872 0.000000
0.000000 0.707872 0.000000
0.000000 0.707872 0.004878
0.000000 0.707872 0.117815
0.000000 0.707872 0.224543
0.000000 0.707872 0.325060
0.000000 0.707872 0.419367
0.000000 0.707872 0.507464
0.000000 0.707872 0.589352
0.000000 0.707872 0.665029
0.000000 0.707872 0.734497
0.000000 0.707872 0.797754
0.000000 0.707872 0.854802
0.000000 0.707872 0.905640
0.000000 0.707872 0.950268
0.000000 0.707872 0.988686
0.000000 0.768922 0.000000
0.000000 0.768922 0.000000
0.000000 0.768922 0.000000
0.000000 0.768922 0.004878
0.000000 0.768922 0.117815
0.000000 0.768922 0.224543
0.000000 0.768922 0.325060
0.000000 0.768922 0.419367
0.000000 0.768922 0.507464
0.000000 0.768922 0.589352
0.000000 0.768922 0.665029
0.000000 0.768922 0.734497
0.000000 0.768922 0.797754
0.000000 0.768922 0.854802
0.000000 0.768922 0.905640
0.000000 0.768922 0.950268
0.000000 0.768922 0.988686
0.000000 0.824648 0.000000
0.000000 0.824648 0.000000
0.000000 0.824648 0.000000
0.000000 0.824648 0.004878
0.000000 0.824648 0.117815
0.000000 0.824648 0.224543
0.000000 0.824648 0.325060
0.000000 0.824648 0.419367
0.000000 0.824648 0.507464
0.000000 0.824648 0.589352
0.000000 0.824648 0.665029
0.000000 0.824648 0.734497
0.000000 0.824648 0.797754
0.000000 0.824648 0.854802
0.000000 0.824648 0.905640
0.000000 0.824648 0.950268
0.000000 0.824648 0.988686
0.000000 0.875050 0.000000
0.000000 0.875050 0.000000
0.000000 0.875050 0.000000
0.000000 0.875050 0.004878
0.000000 0.875050 0.117815
0.000000 0.875050 0.224543
0.000000 0.875050 0.325060
0.000000 0.875050 0.419367
0.000000 0.875050 0.507464
0.000000 0.875050 0.589352
0.000000 0.875050 0.665029
0.000000 0.875050 0.734497
0.000000 0.875050 0.797754
0.000000 0.875050 0.854802
0.000000 0.875050 0.905640
0.000000 0.875050 0.950268
0.000000 0.875050 0.988686
0.000000 0.920128 0.000000
0.000000 0.920128 0.000000
0.000000 0.920128 0.000000
0.000000 0.920128 0.004878
0.000000 0.920128 0.117815
0.000000 0.920128 0.224543
0.000000 0.920128 0.325060
0.000000 0.920128 0.419367
0.000000 0.920128 0.507464
0.000000 0.920128 0.589352
0.000000 0.920128 0.665029
0.000000 0.920128 0.734497
0.000000 0.920128 0.797754
0.000000 0.920128 0.854802
0.000000 0.920128 0.905640
0.000000 0.920128 0.950268
0.000000 0.920128 0.988686
0.000000 0.000000 0.000000
0.000000 0.000000 0.000000
0.000000 0.000000 0.000000
0.000000 0.000000 0.004878
0.000000 0.000000 0.117815
0.000000 0.000000 0.224543
0.000000 0.000000 0.325060
0.000000 0.000000 0.419367
0.000000 0.000000 0.507464
0.000000 0.000000 0.589352
0.000000 0.000000 0.665029
0.000000 0.000000 0.734497
0.000000 0.000000 0.797754
0.000000 0.000000 0.854802
0.000000 0.000000 0.905640
0.000000 0.000000 0.950268
