app/luts/hk_night.cube
TITLE "港风夜景"
# StyleForge original LUT. Cube format compatible with CubeLUT.cn / Premiere.
LUT_3D_SIZE 9
DOMAIN_MIN 0.0 0.0 0.0
DOMAIN_MAX 1.0 1.0 1.0
0.000000 0.000000 0.000000
0.000000 0.000000 0.000000
0.000000 0.000000 0.117815
0.000000 0.000000 0.325060
0.000000 0.000000 0.507464
0.000000 0.000000 0.665029
0.000000 0.000000 0.797754
0.000000 0.000000 0.905640
0.000000 0.000000 0.988686
0.000000 0.000000 0.000000
0.000000 0.000000 0.000000
0.000000 0.000000 0.117815
0.000000 0.000000 0.325060
0.000000 0.000000 0.507464
0.000000 0.000000 0.665029
0.000000 0.000000 0.797754
0.000000 0.000000 0.905640
0.000000 0.000000 0.988686
0.000000 0.027808 0.000000
0.000000 0.027808 0.000000
0.000000 0.027808 0.117815
0.000000 0.027808 0.325060
0.000000 0.027808 0.507464
0.000000 0.027808 0.665029
0.000000 0.027808 0.797754
0.000000 0.027808 0.905640
0.000000 0.027808 0.988686
0.000000 0.229768 0.000000
0.000000 0.229768 0.000000
0.000000 0.229768 0.117815
0.000000 0.229768 0.325060
0.000000 0.229768 0.507464
0.000000 0.229768 0.665029
0.000000 0.229768 0.797754
0.000000 0.229768 0.905640
0.000000 0.229768 0.988686
0.000000 0.410432 0.000000
0.000000 0.410432 0.000000
0.000000 0.410432 0.117815
0.000000 0.410432 0.325060
0.000000 0.410432 0.507464
0.000000 0.410432 0.665029
0.000000 0.410432 0.797754
0.000000 0.410432 0.905640
0.000000 0.410432 0.988686
0.000000 0.569800 0.000000
0.000000 0.569800 0.000000
0.000000 0.569800 0.117815
0.000000 0.569800 0.325060
0.000000 0.569800 0.507464
0.000000 0.569800 0.665029
0.000000 0.569800 0.797754
0.000000 0.569800 0.905640
0.000000 0.569800 0.988686
0.000000 0.707872 0.000000
0.000000 0.707872 0.000000
0.000000 0.707872 0.117815
0.000000 0.707872 0.325060
0.000000 0.707872 0.507464
0.000000 0.707872 0.665029
0.000000 0.707872 0.797754
0.000000 0.707872 0.905640
0.000000 0.707872 0.988686
0.000000 0.824648 0.000000
0.000000 0.824648 0.000000
0.000000 0.824648 0.117815
0.000000 0.824648 0.325060
0.000000 0.824648 0.507464
0.000000 0.824648 0.665029
0.000000 0.824648 0.797754
0.000000 0.824648 0.905640
0.000000 0.824648 0.988686
0.000000 0.920128 0.000000
0.000000 0.920128 0.000000
0.000000 0.920128 0.117815
0.000000 0.920128 0.325060
0.000000 0.920128 0.507464
0.000000 0.920128 0.665029
0.000000 0.920128 0.797754
0.000000 0.920128 0.905640
0.000000 0.920128 0.988686
0.000000 0.000000 0.000000
0.000000 0.000000 0.000000
0.000000 0.000000 0.117815
0.000000 0.000000 0.325060
0.000000 0.000000 0.507464
0.000000 0.000000 0.665029
0.000000 0.000000 0.797754
0.000000 0.000000 0.905640
0.000000 0.000000 0.988686
0.000000 0.000000 0.000000
0.000000 0.000000 0.000000
0.000000 0.000000 0.117815
0.000000 0.000000 0.325060
0.000000 0.000000 0.507464
0.000000 0.000000 0.665029
0.000000 0.000000 0.797754
0.000000 0.000000 0.905640
0.000000 0.000000 0.988686
0.000000 0.027808 0.000000
0.000000 0.027808 0.000000
0.000000 0.027808 0.117815
0.000000 0.027808 0.325060
0.000000 0.027808 0.507464
0.000000 0.027808 0.665029
0.000000 0.027808 0.797754
0.000000 0.027808 0.905640
0.000000 0.027808 0.988686
0.000000 0.229768 0.000000
0.000000 0.229768 0.000000
0.000000 0.229768 0.117815
0.000000 0.229768 0.325060
0.000000 0.229768 0.507464
0.000000 0.229768 0.665029
0.000000 0.229768 0.797754
0.000000 0.229768 0.905640
0.000000 0.229768 0.988686
0.000000 0.410432 0.000000
0.000000 0.410432 0.000000
0.000000 0.410432 0.117815
0.000000 0.410432 0.325060
0.000000 0.410432 0.507464
0.000000 0.410432 0.665029
0.000000 0.410432 0.797754
0.000000 0.410432 0.905640
0.000000 0.410432 0.988686
0.000000 0.569800 0.000000
0.000000 0.569800 0.000000
0.000000 0.569800 0.117815
0.000000 0.569800 0.325060
0.000000 0.569800 0.507464
0.000000 0.569800 0.665029
0.000000 0.569800 0.797754
0.000000 0.569800 0.905640
0.000000 0.569800 0.988686
0.000000 0.707872 0.000000
0.000000 0.707872 0.000000
0.000000 0.707872 0.117815
0.000000 0.707872 0.325060
0.000000 0.707872 0.507464
0.000000 0.707872 0.665029
0.000000 0.707872 0.797754
0.000000 0.707872 0.905640
0.000000 0.707872 0.988686
0.000000 0.824648 0.000000
0.000000 0.824648 0.000000
0.000000 0.824648 0.117815
0.000000 0.824648 0.325060
0.000000 0.824648 0.507464
0.000000 0.824648 0.665029
0.000000 0.824648 0.797754
0.000000 0.824648 0.905640
0.000000 0.824648 0.988686
0.000000 0.920128 0.000000
0.000000 0.920128 0.000000
0.000000 0.920128 0.117815
0.000000 0.920128 0.325060
0.000000 0.920128 0.507464
0.000000 0.920128 0.665029
0.000000 0.920128 0.797754
0.000000 0.920128 0.905640
0.000000 0.920128 0.988686
0.107433 0.000000 0.000000
0.107433 0.000000 0.000000
0.107433 0.000000 0.117815
0.107433 0.000000 0.325060
0.107433 0.000000 0.507464
0.107433 0.000000 0.665029
0.107433 0.000000 0.797754
0.107433 0.000000 0.905640
0.107433 0.000000 0.988686
0.107433 0.000000 0.000000
0.107433 0.000000 0.000000
0.107433 0.000000 0.117815
0.107433 0.000000 0.325060
0.107433 0.000000 0.507464
0.107433 0.000000 0.665029
0.107433 0.000000 0.797754
0.107433 0.000000 0.905640
0.107433 0.000000 0.988686
0.107433 0.027808 0.000000
0.107433 0.027808 0.000000
0.107433 0.027808 0.117815
0.107433 0.027808 0.325060
0.107433 0.027808 0.507464
0.107433 0.027808 0.665029
0.107433 0.027808 0.797754
0.107433 0.027808 0.905640
0.107433 0.027808 0.988686
0.107433 0.229768 0.000000
0.107433 0.229768 0.000000
0.107433 0.229768 0.117815
0.107433 0.229768 0.325060
0.107433 0.229768 0.507464
0.107433 0.229768 0.665029
0.107433 0.229768 0.797754
0.107433 0.229768 0.905640
0.107433 0.229768 0.988686
0.107433 0.410432 0.000000
0.107433 0.410432 0.000000
0.107433 0.410432 0.117815
0.107433 0.410432 0.325060
0.107433 0.410432 0.507464
0.107433 0.410432 0.665029
0.107433 0.410432 0.797754
0.107433 0.410432 0.905640
0.107433 0.410432 0.988686
0.107433 0.569800 0.000000
0.107433 0.569800 0.000000
0.107433 0.569800 0.117815
0.107433 0.569800 0.325060
0.107433 0.569800 0.507464
0.107433 0.569800 0.665029
0.107433 0.569800 0.797754
0.107433 0.569800 0.905640
0.107433 0.569800 0.988686
0.107433 0.707872 0.000000
0.107433 0.707872 0.000000
0.107433 0.707872 0.117815
0.107433 0.707872 0.325060
0.107433 0.707872 0.507464
0.107433 0.707872 0.665029
0.107433 0.707872 0.797754
0.107433 0.707872 0.905640
0.107433 0.707872 0.988686
0.107433 0.824648 0.000000
0.107433 0.824648 0.000000
0.107433 0.824648 0.117815
0.107433 0.824648 0.325060
0.107433 0.824648 0.507464
0.107433 0.824648 0.665029
0.107433 0.824648 0.797754
0.107433 0.824648 0.905640
0.107433 0.824648 0.988686
0.107433 0.920128 0.000000
0.107433 0.920128 0.000000
0.107433 0.920128 0.117815
0.107433 0.920128 0.325060
0.107433 0.920128 0.507464
0.107433 0.920128 0.665029
0.107433 0.920128 0.797754
0.107433 0.920128 0.905640
0.107433 0.920128 0.988686
0.319474 0.000000 0.000000
0.319474 0.000000 0.000000
0.319474 0.000000 0.117815
0.319474 0.000000 0.325060
0.319474 0.000000 0.507464
0.319474 0.000000 0.665029
0.319474 0.000000 0.797754
0.319474 0.000000 0.905640
0.319474 0.000000 0.988686
0.319474 0.000000 0.000000
0.319474 0.000000 0.000000
0.319474 0.000000 0.117815
0.319474 0.000000 0.325060
0.319474 0.000000 0.507464
0.319474 0.000000 0.665029
0.319474 0.000000 0.797754
0.319474 0.000000 0.905640
0.319474 0.000000 0.988686
0.319474 0.027808 0.000000
0.319474 0.027808 0.000000
0.319474 0.027808 0.117815
0.319474 0.027808 0.325060
0.319474 0.027808 0.507464
0.319474 0.027808 0.665029
0.319474 0.027808 0.797754
0.319474 0.027808 0.905640
0.319474 0.027808 0.988686
0.319474 0.229768 0.000000
0.319474 0.229768 0.000000
0.319474 0.229768 0.117815
0.319474 0.229768 0.325060
0.319474 0.229768 0.507464
0.319474 0.229768 0.665029
0.319474 0.229768 0.797754
0.319474 0.229768 0.905640
0.319474 0.229768 0.988686
0.319474 0.410432 0.000000
0.319474 0.410432 0.000000
0.319474 0.410432 0.117815
0.319474 0.410432 0.325060
0.319474 0.410432 0.507464
0.319474 0.410432 0.665029
0.319474 0.410432 0.797754
0.319474 0.410432 0.905640
0.319474 0.410432 0.988686
0.319474 0.569800 0.000000
0.319474 0.569800 0.000000
0.319474 0.569800 0.117815
0.319474 0.569800 0.325060
0.319474 0.569800 0.507464
0.319474 0.569800 0.665029
0.319474 0.569800 0.797754
0.319474 0.569800 0.905640
0.319474 0.569800 0.988686
0.319474 0.707872 0.000000
0.319474 0.707872 0.000000
0.319474 0.707872 0.117815
0.319474 0.707872 0.325060
0.319474 0.707872 0.507464
0.319474 0.707872 0.665029
0.319474 0.707872 0.797754
0.319474 0.707872 0.905640
0.319474 0.707872 0.988686
0.319474 0.824648 0.000000
0.319474 0.824648 0.000000
0.319474 0.824648 0.117815
0.319474 0.824648 0.325060
0.319474 0.824648 0.507464
0.319474 0.824648 0.665029
0.319474 0.824648 0.797754
0.319474 0.824648 0.905640
0.319474 0.824648 0.988686
0.319474 0.920128 0.000000
0.319474 0.920128 0.000000
0.319474 0.920128 0.117815
0.319474 0.920128 0.325060
0.319474 0.920128 0.507464
0.319474 0.920128 0.665029
0.319474 0.920128 0.797754
0.319474 0.920128 0.905640
0.319474 0.920128 0.988686
0.505746 0.000000 0.000000
0.505746 0.000000 0.000000
0.505746 0.000000 0.117815
0.505746 0.000000 0.325060
0.505746 0.000000 0.507464
0.505746 0.000000 0.665029
0.505746 0.000000 0.797754
0.505746 0.000000 0.905640
0.505746 0.000000 0.988686
0.505746 0.000000 0.000000
0.505746 0.000000 0.000000
0.505746 0.000000 0.117815
0.505746 0.000000 0.325060
0.505746 0.000000 0.507464
0.505746 0.000000 0.665029
0.505746 0.000000 0.797754
0.505746 0.000000 0.905640
0.505746 0.000000 0.988686
0.505746 0.027808 0.000000
0.505746 0.027808 0.000000
0.505746 0.027808 0.117815
0.505746 0.027808 0.325060
0.505746 0.027808 0.507464
0.505746 0.027808 0.665029
0.505746 0.027808 0.797754
0.505746 0.027808 0.905640
0.505746 0.027808 0.988686
0.505746 0.229768 0.000000
0.505746 0.229768 0.000000
0.505746 0.229768 0.117815
0.505746 0.229768 0.325060
0.505746 0.229768 0.507464
0.505746 0.229768 0.665029
0.505746 0.229768 0.797754
0.505746 0.229768 0.905640
0.505746 0.229768 0.988686
0.505746 0.410432 0.000000
0.505746 0.410432 0.000000
0.505746 0.410432 0.117815
0.505746 0.410432 0.325060
0.505746 0.410432 0.507464
0.505746 0.410432 0.665029
0.505746 0.410432 0.797754
0.505746 0.410432 0.905640
0.505746 0.410432 0.988686
0.505746 0.569800 0.000000
0.505746 0.569800 0.000000
0.505746 0.569800 0.117815
0.505746 0.569800 0.325060
0.505746 0.569800 0.507464
0.505746 0.569800 0.665029
0.505746 0.569800 0.797754
0.505746 0.569800 0.905640
0.505746 0.569800 0.988686
0.505746 0.707872 0.000000
0.505746 0.707872 0.000000
0.505746 0.707872 0.117815
0.505746 0.707872 0.325060
0.505746 0.707872 0.507464
0.505746 0.707872 0.665029
0.505746 0.707872 0.797754
0.505746 0.707872 0.905640
0.505746 0.707872 0.988686
0.505746 0.824648 0.000000
0.505746 0.824648 0.000000
0.505746 0.824648 0.117815
0.505746 0.824648 0.325060
0.505746 0.824648 0.507464
0.505746 0.824648 0.665029
0.505746 0.824648 0.797754
0.505746 0.824648 0.905640
0.505746 0.824648 0.988686
0.505746 0.920128 0.000000
0.505746 0.920128 0.000000
0.505746 0.920128 0.117815
0.505746 0.920128 0.325060
0.505746 0.920128 0.507464
0.505746 0.920128 0.665029
0.505746 0.920128 0.797754
0.505746 0.920128 0.905640
0.505746 0.920128 0.988686
0.666250 0.000000 0.000000
0.666250 0.000000 0.000000
0.666250 0.000000 0.117815
0.666250 0.000000 0.325060
0.666250 0.000000 0.507464
0.666250 0.000000 0.665029
0.666250 0.000000 0.797754
0.666250 0.000000 0.905640
0.666250 0.000000 0.988686
0.666250 0.000000 0.000000
0.666250 0.000000 0.000000
0.666250 0.000000 0.117815
0.666250 0.000000 0.325060
0.666250 0.000000 0.507464
0.666250 0.000000 0.665029
0.666250 0.000000 0.797754
0.666250 0.000000 0.905640
0.666250 0.000000 0.988686
0.666250 0.027808 0.000000
0.666250 0.027808 0.000000
0.666250 0.027808 0.117815
0.666250 0.027808 0.325060
0.666250 0.027808 0.507464
0.666250 0.027808 0.665029
0.666250 0.027808 0.797754
0.666250 0.027808 0.905640
0.666250 0.027808 0.988686
0.666250 0.229768 0.000000
0.666250 0.229768 0.000000
0.666250 0.229768 0.117815
0.666250 0.229768 0.325060
0.666250 0.229768 0.507464
0.666250 0.229768 0.665029
0.666250 0.229768 0.797754
0.666250 0.229768 0.905640
0.666250 0.229768 0.988686
0.666250 0.410432 0.000000
0.666250 0.410432 0.000000
0.666250 0.410432 0.117815
0.666250 0.410432 0.325060
0.666250 0.410432 0.507464
0.666250 0.410432 0.665029
0.666250 0.410432 0.797754
0.666250 0.410432 0.905640
0.666250 0.410432 0.988686
0.666250 0.569800 0.000000
0.666250 0.569800 0.000000
0.666250 0.569800 0.117815
0.666250 0.569800 0.325060
0.666250 0.569800 0.507464
0.666250 0.569800 0.665029
0.666250 0.569800 0.797754
0.666250 0.569800 0.905640
0.666250 0.569800 0.988686
0.666250 0.707872 0.000000
0.666250 0.707872 0.000000
0.666250 0.707872 0.117815
0.666250 0.707872 0.325060
0.666250 0.707872 0.507464
0.666250 0.707872 0.665029
0.666250 0.707872 0.797754
0.666250 0.707872 0.905640
0.666250 0.707872 0.988686
0.666250 0.824648 0.000000
0.666250 0.824648 0.000000
0.666250 0.824648 0.117815
0.666250 0.824648 0.325060
0.666250 0.824648 0.507464
0.666250 0.824648 0.665029
0.666250 0.824648 0.797754
0.666250 0.824648 0.905640
0.666250 0.824648 0.988686
0.666250 0.920128 0.000000
0.666250 0.920128 0.000000
0.666250 0.920128 0.117815
0.666250 0.920128 0.325060
0.666250 0.920128 0.507464
0.666250 0.920128 0.665029
0.666250 0.920128 0.797754
0.666250 0.920128 0.905640
0.666250 0.920128 0.988686
0.800986 0.000000 0.000000
0.800986 0.000000 0.000000
0.800986 0.000000 0.117815
0.800986 0.000000 0.325060
0.800986 0.000000 0.507464
0.800986 0.000000 0.665029
0.800986 0.000000 0.797754
0.800986 0.000000 0.905640
0.800986 0.000000 0.988686
0.800986 0.000000 0.000000
0.800986 0.000000 0.000000
0.800986 0.000000 0.117815
0.800986 0.000000 0.325060
0.800986 0.000000 0.507464
0.800986 0.000000 0.665029
0.800986 0.000000 0.797754
0.800986 0.000000 0.905640
0.800986 0.000000 0.988686
0.800986 0.027808 0.000000
0.800986 0.027808 0.000000
0.800986 0.027808 0.117815
0.800986 0.027808 0.325060
0.800986 0.027808 0.507464
0.800986 0.027808 0.665029
0.800986 0.027808 0.797754
0.800986 0.027808 0.905640
0.800986 0.027808 0.988686
0.800986 0.229768 0.000000
0.800986 0.229768 0.000000
0.800986 0.229768 0.117815
0.800986 0.229768 0.325060
0.800986 0.229768 0.507464
0.800986 0.229768 0.665029
0.800986 0.229768 0.797754
0.800986 0.229768 0.905640
0.800986 0.229768 0.988686
0.800986 0.410432 0.000000
0.800986 0.410432 0.000000
0.800986 0.410432 0.117815
0.800986 0.410432 0.325060
0.800986 0.410432 0.507464
0.800986 0.410432 0.665029
0.800986 0.410432 0.797754
0.800986 0.410432 0.905640
0.800986 0.410432 0.988686
0.800986 0.569800 0.000000
0.800986 0.569800 0.000000
0.800986 0.569800 0.117815
0.800986 0.569800 0.325060
0.800986 0.569800 0.507464
0.800986 0.569800 0.665029
0.800986 0.569800 0.797754
0.800986 0.569800 0.905640
0.800986 0.569800 0.988686
0.800986 0.707872 0.000000
0.800986 0.707872 0.000000
0.800986 0.707872 0.117815
0.800986 0.707872 0.325060
0.800986 0.707872 0.507464
0.800986 0.707872 0.665029
0.800986 0.707872 0.797754
0.800986 0.707872 0.905640
0.800986 0.707872 0.988686
0.800986 0.824648 0.000000
0.800986 0.824648 0.000000
0.800986 0.824648 0.117815
0.800986 0.824648 0.325060
0.800986 0.824648 0.507464
0.800986 0.824648 0.665029
0.800986 0.824648 0.797754
0.800986 0.824648 0.905640
0.800986 0.824648 0.988686
0.800986 0.920128 0.000000
0.800986 0.920128 0.000000
0.800986 0.920128 0.117815
0.800986 0.920128 0.325060
0.800986 0.920128 0.507464
0.800986 0.920128 0.665029
0.800986 0.920128 0.797754
0.800986 0.920128 0.905640
0.800986 0.920128 0.988686
0.909954 0.000000 0.000000
0.909954 0.000000 0.000000
0.909954 0.000000 0.117815
0.909954 0.000000 0.325060
0.909954 0.000000 0.507464
0.909954 0.000000 0.665029
0.909954 0.000000 0.797754
0.909954 0.000000 0.905640
0.909954 0.000000 0.988686
0.909954 0.000000 0.000000
0.909954 0.000000 0.000000
0.909954 0.000000 0.117815
0.909954 0.000000 0.325060
0.909954 0.000000 0.507464
0.909954 0.000000 0.665029
0.909954 0.000000 0.797754
0.909954 0.000000 0.905640
0.909954 0.000000 0.988686
0.909954 0.027808 0.000000
0.909954 0.027808 0.000000
0.909954 0.027808 0.117815
0.909954 0.027808 0.325060
0.909954 0.027808 0.507464
0.909954 0.027808 0.665029
0.909954 0.027808 0.797754
0.909954 0.027808 0.905640
0.909954 0.027808 0.988686
0.909954 0.229768 0.000000
0.909954 0.229768 0.000000
0.909954 0.229768 0.117815
0.909954 0.229768 0.325060
0.909954 0.229768 0.507464
0.909954 0.229768 0.665029
0.909954 0.229768 0.797754
0.909954 0.229768 0.905640
0.909954 0.229768 0.988686
0.909954 0.410432 0.000000
0.909954 0.410432 0.000000
0.909954 0.410432 0.117815
0.909954 0.410432 0.325060
0.909954 0.410432 0.507464
0.909954 0.410432 0.665029
0.909954 0.410432 0.797754
0.909954 0.410432 0.905640
0.909954 0.410432 0.988686
0.909954 0.569800 0.000000
0.909954 0.569800 0.000000
0.909954 0.569800 0.117815
0.909954 0.569800 0.325060
0.909954 0.569800 0.507464
0.909954 0.569800 0.665029
0.909954 0.569800 0.797754
0.909954 0.569800 0.905640
0.909954 0.569800 0.988686
0.909954 0.707872 0.000000
0.909954 0.707872 0.000000
0.909954 0.707872 0.117815
0.909954 0.707872 0.325060
0.909954 0.707872 0.507464
0.909954 0.707872 0.665029
0.909954 0.707872 0.797754
0.909954 0.707872 0.905640
0.909954 0.707872 0.988686
0.909954 0.824648 0.000000
0.909954 0.824648 0.000000
0.909954 0.824648 0.117815
0.909954 0.824648 0.325060
0.909954 0.824648 0.507464
0.909954 0.824648 0.665029
0.909954 0.824648 0.797754
0.909954 0.824648 0.905640
0.909954 0.824648 0.988686
0.909954 0.920128 0.000000
0.909954 0.920128 0.000000
0.909954 0.920128 0.117815
0.909954 0.920128 0.325060
0.909954 0.920128 0.507464
0.909954 0.920128 0.665029
0.909954 0.920128 0.797754
0.909954 0.920128 0.905640
0.909954 0.920128 0.988686
0.993153 0.000000 0.000000
0.993153 0.000000 0.000000
0.993153 0.000000 0.117815
0.993153 0.000000 0.325060
0.993153 0.000000 0.507464
0.993153 0.000000 0.665029
0.993153 0.000000 0.797754
0.993153 0.000000 0.905640
0.993153 0.000000 0.988686
0.993153 0.000000 0.000000
0.993153 0.000000 0.000000
0.993153 0.000000 0.117815
0.993153 0.000000 0.325060
0.993153 0.000000 0.507464
0.993153 0.000000 0.665029
0.993153 0.000000 0.797754
0.993153 0.000000 0.905640
0.993153 0.000000 0.988686
0.993153 0.027808 0.000000
0.993153 0.027808 0.000000
0.993153 0.027808 0.117815
0.993153 0.027808 0.325060
0.993153 0.027808 0.507464
0.993153 0.027808 0.665029
0.993153 0.027808 0.797754
0.993153 0.027808 0.905640
0.993153 0.027808 0.988686
0.993153 0.229768 0.000000
0.993153 0.229768 0.000000
0.993153 0.229768 0.117815
0.993153 0.229768 0.325060
0.993153 0.229768 0.507464
0.993153 0.229768 0.665029
0.993153 0.229768 0.797754
0.993153 0.229768 0.905640
0.993153 0.229768 0.988686
0.993153 0.410432 0.000000
0.993153 0.410432 0.000000
0.993153 0.410432 0.117815
0.993153 0.410432 0.325060
0.993153 0.410432 0.507464
0.993153 0.410432 0.665029
0.993153 0.410432 0.797754
0.993153 0.410432 0.905640
0.993153 0.410432 0.988686
0.993153 0.569800 0.000000
0.993153 0.569800 0.000000
0.993153 0.569800 0.117815
0.993153 0.569800 0.325060
0.993153 0.569800 0.507464
0.993153 0.569800 0.665029
0.993153 0.569800 0.797754
0.993153 0.569800 0.905640
0.993153 0.569800 0.988686
0.993153 0.707872 0.000000
0.993153 0.707872 0.000000
0.993153 0.707872 0.117815
0.993153 0.707872 0.325060
0.993153 0.707872 0.507464
0.993153 0.707872 0.665029
0.993153 0.707872 0.797754
0.993153 0.707872 0.905640
0.993153 0.707872 0.988686
0.993153 0.824648 0.000000
0.993153 0.824648 0.000000
0.993153 0.824648 0.117815
0.993153 0.824648 0.325060
0.993153 0.824648 0.507464
0.993153 0.824648 0.665029
0.993153 0.824648 0.797754
0.993153 0.824648 0.905640
0.993153 0.824648 0.988686
0.993153 0.920128 0.000000
0.993153 0.920128 0.000000
0.993153 0.920128 0.117815
0.993153 0.920128 0.325060
0.993153 0.920128 0.507464
0.993153 0.920128 0.665029
0.993153 0.920128 0.797754
0.993153 0.920128 0.905640
0.993153 0.920128 0.988686
