app/luts/matte_film.cube
TITLE "电影哑光"
# StyleForge original LUT. Cube format compatible with CubeLUT.cn / Premiere.
LUT_3D_SIZE 17
DOMAIN_MIN 0.0 0.0 0.0
DOMAIN_MAX 1.0 1.0 1.0
0.278002 0.278002 0.278002
0.278002 0.278002 0.299421
0.278002 0.278002 0.323412
0.278002 0.278002 0.349973
0.278002 0.278002 0.379104
0.278002 0.278002 0.410807
0.278002 0.278002 0.445081
0.278002 0.278002 0.481926
0.278002 0.278002 0.521342
0.278002 0.278002 0.563328
0.278002 0.278002 0.607886
0.278002 0.278002 0.655014
0.278002 0.278002 0.704714
0.278002 0.278002 0.756984
0.278002 0.278002 0.811826
0.278002 0.278002 0.869238
0.278002 0.278002 0.929221
0.278002 0.299421 0.278002
0.278002 0.299421 0.299421
0.278002 0.299421 0.323412
0.278002 0.299421 0.349973
0.278002 0.299421 0.379104
0.278002 0.299421 0.410807
0.278002 0.299421 0.445081
0.278002 0.299421 0.481926
0.278002 0.299421 0.521342
0.278002 0.299421 0.563328
0.278002 0.299421 0.607886
0.278002 0.299421 0.655014
0.278002 0.299421 0.704714
0.278002 0.299421 0.756984
0.278002 0.299421 0.811826
0.278002 0.299421 0.869238
0.278002 0.299421 0.929221
0.278002 0.323412 0.278002
0.278002 0.323412 0.299421
0.278002 0.323412 0.323412
0.278002 0.323412 0.349973
0.278002 0.323412 0.379104
0.278002 0.323412 0.410807
0.278002 0.323412 0.445081
0.278002 0.323412 0.481926
0.278002 0.323412 0.521342
0.278002 0.323412 0.563328
0.278002 0.323412 0.607886
0.278002 0.323412 0.655014
0.278002 0.323412 0.704714
0.278002 0.323412 0.756984
0.278002 0.323412 0.811826
0.278002 0.323412 0.869238
0.278002 0.323412 0.929221
0.278002 0.349973 0.278002
0.278002 0.349973 0.299421
0.278002 0.349973 0.323412
0.278002 0.349973 0.349973
0.278002 0.349973 0.379104
0.278002 0.349973 0.410807
0.278002 0.349973 0.445081
0.278002 0.349973 0.481926
0.278002 0.349973 0.521342
0.278002 0.349973 0.563328
0.278002 0.349973 0.607886
0.278002 0.349973 0.655014
0.278002 0.349973 0.704714
0.278002 0.349973 0.756984
0.278002 0.349973 0.811826
0.278002 0.349973 0.869238
0.278002 0.349973 0.929221
0.278002 0.379104 0.278002
0.278002 0.379104 0.299421
0.278002 0.379104 0.323412
0.278002 0.379104 0.349973
0.278002 0.379104 0.379104
0.278002 0.379104 0.410807
0.278002 0.379104 0.445081
0.278002 0.379104 0.481926
0.278002 0.379104 0.521342
0.278002 0.379104 0.563328
0.278002 0.379104 0.607886
0.278002 0.379104 0.655014
0.278002 0.379104 0.704714
0.278002 0.379104 0.756984
0.278002 0.379104 0.811826
0.278002 0.379104 0.869238
0.278002 0.379104 0.929221
0.278002 0.410807 0.278002
0.278002 0.410807 0.299421
0.278002 0.410807 0.323412
0.278002 0.410807 0.349973
0.278002 0.410807 0.379104
0.278002 0.410807 0.410807
0.278002 0.410807 0.445081
0.278002 0.410807 0.481926
0.278002 0.410807 0.521342
0.278002 0.410807 0.563328
0.278002 0.410807 0.607886
0.278002 0.410807 0.655014
0.278002 0.410807 0.704714
0.278002 0.410807 0.756984
0.278002 0.410807 0.811826
0.278002 0.410807 0.869238
0.278002 0.410807 0.929221
0.278002 0.445081 0.278002
0.278002 0.445081 0.299421
0.278002 0.445081 0.323412
0.278002 0.445081 0.349973
0.278002 0.445081 0.379104
0.278002 0.445081 0.410807
0.278002 0.445081 0.445081
0.278002 0.445081 0.481926
0.278002 0.445081 0.521342
0.278002 0.445081 0.563328
0.278002 0.445081 0.607886
0.278002 0.445081 0.655014
0.278002 0.445081 0.704714
0.278002 0.445081 0.756984
0.278002 0.445081 0.811826
0.278002 0.445081 0.869238
0.278002 0.445081 0.929221
0.278002 0.481926 0.278002
0.278002 0.481926 0.299421
0.278002 0.481926 0.323412
0.278002 0.481926 0.349973
0.278002 0.481926 0.379104
0.278002 0.481926 0.410807
0.278002 0.481926 0.445081
0.278002 0.481926 0.481926
0.278002 0.481926 0.521342
0.278002 0.481926 0.563328
0.278002 0.481926 0.607886
0.278002 0.481926 0.655014
0.278002 0.481926 0.704714
0.278002 0.481926 0.756984
0.278002 0.481926 0.811826
0.278002 0.481926 0.869238
0.278002 0.481926 0.929221
0.278002 0.521342 0.278002
0.278002 0.521342 0.299421
0.278002 0.521342 0.323412
0.278002 0.521342 0.349973
0.278002 0.521342 0.379104
0.278002 0.521342 0.410807
0.278002 0.521342 0.445081
0.278002 0.521342 0.481926
0.278002 0.521342 0.521342
0.278002 0.521342 0.563328
0.278002 0.521342 0.607886
0.278002 0.521342 0.655014
0.278002 0.521342 0.704714
0.278002 0.521342 0.756984
0.278002 0.521342 0.811826
0.278002 0.521342 0.869238
0.278002 0.521342 0.929221
0.278002 0.563328 0.278002
0.278002 0.563328 0.299421
0.278002 0.563328 0.323412
0.278002 0.563328 0.349973
0.278002 0.563328 0.379104
0.278002 0.563328 0.410807
0.278002 0.563328 0.445081
0.278002 0.563328 0.481926
0.278002 0.563328 0.521342
0.278002 0.563328 0.563328
0.278002 0.563328 0.607886
0.278002 0.563328 0.655014
0.278002 0.563328 0.704714
0.278002 0.563328 0.756984
0.278002 0.563328 0.811826
0.278002 0.563328 0.869238
0.278002 0.563328 0.929221
0.278002 0.607886 0.278002
0.278002 0.607886 0.299421
0.278002 0.607886 0.323412
0.278002 0.607886 0.349973
0.278002 0.607886 0.379104
0.278002 0.607886 0.410807
0.278002 0.607886 0.445081
0.278002 0.607886 0.481926
0.278002 0.607886 0.521342
0.278002 0.607886 0.563328
0.278002 0.607886 0.607886
0.278002 0.607886 0.655014
0.278002 0.607886 0.704714
0.278002 0.607886 0.756984
0.278002 0.607886 0.811826
0.278002 0.607886 0.869238
0.278002 0.607886 0.929221
0.278002 0.655014 0.278002
0.278002 0.655014 0.299421
0.278002 0.655014 0.323412
0.278002 0.655014 0.349973
0.278002 0.655014 0.379104
0.278002 0.655014 0.410807
0.278002 0.655014 0.445081
0.278002 0.655014 0.481926
0.278002 0.655014 0.521342
0.278002 0.655014 0.563328
0.278002 0.655014 0.607886
0.278002 0.655014 0.655014
0.278002 0.655014 0.704714
0.278002 0.655014 0.756984
0.278002 0.655014 0.811826
0.278002 0.655014 0.869238
0.278002 0.655014 0.929221
0.278002 0.704714 0.278002
0.278002 0.704714 0.299421
0.278002 0.704714 0.323412
0.278002 0.704714 0.349973
0.278002 0.704714 0.379104
0.278002 0.704714 0.410807
0.278002 0.704714 0.445081
0.278002 0.704714 0.481926
0.278002 0.704714 0.521342
0.278002 0.704714 0.563328
0.278002 0.704714 0.607886
0.278002 0.704714 0.655014
0.278002 0.704714 0.704714
0.278002 0.704714 0.756984
0.278002 0.704714 0.811826
0.278002 0.704714 0.869238
0.278002 0.704714 0.929221
0.278002 0.756984 0.278002
0.278002 0.756984 0.299421
0.278002 0.756984 0.323412
0.278002 0.756984 0.349973
0.278002 0.756984 0.379104
0.278002 0.756984 0.410807
0.278002 0.756984 0.445081
0.278002 0.756984 0.481926
0.278002 0.756984 0.521342
0.278002 0.756984 0.563328
0.278002 0.756984 0.607886
0.278002 0.756984 0.655014
0.278002 0.756984 0.704714
0.278002 0.756984 0.756984
0.278002 0.756984 0.811826
0.278002 0.756984 0.869238
0.278002 0.756984 0.929221
0.278002 0.811826 0.278002
0.278002 0.811826 0.299421
0.278002 0.811826 0.323412
0.278002 0.811826 0.349973
0.278002 0.811826 0.379104
0.278002 0.811826 0.410807
0.278002 0.811826 0.445081
0.278002 0.811826 0.481926
0.278002 0.811826 0.521342
0.278002 0.811826 0.563328
0.278002 0.811826 0.607886
0.278002 0.811826 0.655014
0.278002 0.811826 0.704714
0.278002 0.811826 0.756984
0.278002 0.811826 0.811826
0.278002 0.811826 0.869238
0.278002 0.811826 0.929221
0.278002 0.869238 0.278002
0.278002 0.869238 0.299421
0.278002 0.869238 0.323412
0.278002 0.869238 0.349973
0.278002 0.869238 0.379104
0.278002 0.869238 0.410807
0.278002 0.869238 0.445081
0.278002 0.869238 0.481926
0.278002 0.869238 0.521342
0.278002 0.869238 0.563328
0.278002 0.869238 0.607886
0.278002 0.869238 0.655014
0.278002 0.869238 0.704714
0.278002 0.869238 0.756984
0.278002 0.869238 0.811826
0.278002 0.869238 0.869238
0.278002 0.869238 0.929221
0.278002 0.929221 0.278002
0.278002 0.929221 0.299421
0.278002 0.929221 0.323412
0.278002 0.929221 0.349973
0.278002 0.929221 0.379104
0.278002 0.929221 0.410807
0.278002 0.929221 0.445081
0.278002 0.929221 0.481926
0.278002 0.929221 0.521342
0.278002 0.929221 0.563328
0.278002 0.929221 0.607886
0.278002 0.929221 0.655014
0.278002 0.929221 0.704714
0.278002 0.929221 0.756984
0.278002 0.929221 0.811826
0.278002 0.929221 0.869238
0.278002 0.929221 0.929221
0.299421 0.278002 0.278002
0.299421 0.278002 0.299421
0.299421 0.278002 0.323412
0.299421 0.278002 0.349973
0.299421 0.278002 0.379104
0.299421 0.278002 0.410807
0.299421 0.278002 0.445081
0.299421 0.278002 0.481926
0.299421 0.278002 0.521342
0.299421 0.278002 0.563328
0.299421 0.278002 0.607886
0.299421 0.278002 0.655014
0.299421 0.278002 0.704714
0.299421 0.278002 0.756984
0.299421 0.278002 0.811826
0.299421 0.278002 0.869238
0.299421 0.278002 0.929221
0.299421 0.299421 0.278002
0.299421 0.299421 0.299421
0.299421 0.299421 0.323412
0.299421 0.299421 0.349973
0.299421 0.299421 0.379104
0.299421 0.299421 0.410807
0.299421 0.299421 0.445081
0.299421 0.299421 0.481926
0.299421 0.299421 0.521342
0.299421 0.299421 0.563328
0.299421 0.299421 0.607886
0.299421 0.299421 0.655014
0.299421 0.299421 0.704714
0.299421 0.299421 0.756984
0.299421 0.299421 0.811826
0.299421 0.299421 0.869238
0.299421 0.299421 0.929221
0.299421 0.323412 0.278002
0.299421 0.323412 0.299421
0.299421 0.323412 0.323412
0.299421 0.323412 0.349973
0.299421 0.323412 0.379104
0.299421 0.323412 0.410807
0.299421 0.323412 0.445081
0.299421 0.323412 0.481926
0.299421 0.323412 0.521342
0.299421 0.323412 0.563328
0.299421 0.323412 0.607886
0.299421 0.323412 0.655014
0.299421 0.323412 0.704714
0.299421 0.323412 0.756984
0.299421 0.323412 0.811826
0.299421 0.323412 0.869238
0.299421 0.323412 0.929221
0.299421 0.349973 0.278002
0.299421 0.349973 0.299421
0.299421 0.349973 0.323412
0.299421 0.349973 0.349973
0.299421 0.349973 0.379104
0.299421 0.349973 0.410807
0.299421 0.349973 0.445081
0.299421 0.349973 0.481926
0.299421 0.349973 0.521342
0.299421 0.349973 0.563328
0.299421 0.349973 0.607886
0.299421 0.349973 0.655014
0.299421 0.349973 0.704714
0.299421 0.349973 0.756984
0.299421 0.349973 0.811826
0.299421 0.349973 0.869238
0.299421 0.349973 0.929221
0.299421 0.379104 0.278002
0.299421 0.379104 0.299421
0.299421 0.379104 0.323412
0.299421 0.379104 0.349973
0.299421 0.379104 0.379104
0.299421 0.379104 0.410807
0.299421 0.379104 0.445081
0.299421 0.379104 0.481926
0.299421 0.379104 0.521342
0.299421 0.379104 0.563328
0.299421 0.379104 0.607886
0.299421 0.379104 0.655014
0.299421 0.379104 0.704714
0.299421 0.379104 0.756984
0.299421 0.379104 0.811826
0.299421 0.379104 0.869238
0.299421 0.379104 0.929221
0.299421 0.410807 0.278002
0.299421 0.410807 0.299421
0.299421 0.410807 0.323412
0.299421 0.410807 0.349973
0.299421 0.410807 0.379104
0.299421 0.410807 0.410807
0.299421 0.410807 0.445081
0.299421 0.410807 0.481926
0.299421 0.410807 0.521342
0.299421 0.410807 0.563328
0.299421 0.410807 0.607886
0.299421 0.410807 0.655014
0.299421 0.410807 0.704714
0.299421 0.410807 0.756984
0.299421 0.410807 0.811826
0.299421 0.410807 0.869238
0.299421 0.410807 0.929221
0.299421 0.445081 0.278002
0.299421 0.445081 0.299421
0.299421 0.445081 0.323412
0.299421 0.445081 0.349973
0.299421 0.445081 0.379104
0.299421 0.445081 0.410807
0.299421 0.445081 0.445081
0.299421 0.445081 0.481926
0.299421 0.445081 0.521342
0.299421 0.445081 0.563328
0.299421 0.445081 0.607886
0.299421 0.445081 0.655014
0.299421 0.445081 0.704714
0.299421 0.445081 0.756984
0.299421 0.445081 0.811826
0.299421 0.445081 0.869238
0.299421 0.445081 0.929221
0.299421 0.481926 0.278002
0.299421 0.481926 0.299421
0.299421 0.481926 0.323412
0.299421 0.481926 0.349973
0.299421 0.481926 0.379104
0.299421 0.481926 0.410807
0.299421 0.481926 0.445081
0.299421 0.481926 0.481926
0.299421 0.481926 0.521342
0.299421 0.481926 0.563328
0.299421 0.481926 0.607886
0.299421 0.481926 0.655014
0.299421 0.481926 0.704714
0.299421 0.481926 0.756984
0.299421 0.481926 0.811826
0.299421 0.481926 0.869238
0.299421 0.481926 0.929221
0.299421 0.521342 0.278002
0.299421 0.521342 0.299421
0.299421 0.521342 0.323412
0.299421 0.521342 0.349973
0.299421 0.521342 0.379104
0.299421 0.521342 0.410807
0.299421 0.521342 0.445081
0.299421 0.521342 0.481926
0.299421 0.521342 0.521342
0.299421 0.521342 0.563328
0.299421 0.521342 0.607886
0.299421 0.521342 0.655014
0.299421 0.521342 0.704714
0.299421 0.521342 0.756984
0.299421 0.521342 0.811826
0.299421 0.521342 0.869238
0.299421 0.521342 0.929221
0.299421 0.563328 0.278002
0.299421 0.563328 0.299421
0.299421 0.563328 0.323412
0.299421 0.563328 0.349973
0.299421 0.563328 0.379104
0.299421 0.563328 0.410807
0.299421 0.563328 0.445081
0.299421 0.563328 0.481926
0.299421 0.563328 0.521342
0.299421 0.563328 0.563328
0.299421 0.563328 0.607886
0.299421 0.563328 0.655014
0.299421 0.563328 0.704714
0.299421 0.563328 0.756984
0.299421 0.563328 0.811826
0.299421 0.563328 0.869238
0.299421 0.563328 0.929221
0.299421 0.607886 0.278002
0.299421 0.607886 0.299421
0.299421 0.607886 0.323412
0.299421 0.607886 0.349973
0.299421 0.607886 0.379104
0.299421 0.607886 0.410807
0.299421 0.607886 0.445081
0.299421 0.607886 0.481926
0.299421 0.607886 0.521342
0.299421 0.607886 0.563328
0.299421 0.607886 0.607886
0.299421 0.607886 0.655014
0.299421 0.607886 0.704714
0.299421 0.607886 0.756984
0.299421 0.607886 0.811826
0.299421 0.607886 0.869238
0.299421 0.607886 0.929221
0.299421 0.655014 0.278002
0.299421 0.655014 0.299421
0.299421 0.655014 0.323412
0.299421 0.655014 0.349973
0.299421 0.655014 0.379104
0.299421 0.655014 0.410807
0.299421 0.655014 0.445081
0.299421 0.655014 0.481926
0.299421 0.655014 0.521342
0.299421 0.655014 0.563328
0.299421 0.655014 0.607886
0.299421 0.655014 0.655014
0.299421 0.655014 0.704714
0.299421 0.655014 0.756984
0.299421 0.655014 0.811826
0.299421 0.655014 0.869238
0.299421 0.655014 0.929221
0.299421 0.704714 0.278002
0.299421 0.704714 0.299421
0.299421 0.704714 0.323412
0.299421 0.704714 0.349973
0.299421 0.704714 0.379104
0.299421 0.704714 0.410807
0.299421 0.704714 0.445081
0.299421 0.704714 0.481926
0.299421 0.704714 0.521342
0.299421 0.704714 0.563328
0.299421 0.704714 0.607886
0.299421 0.704714 0.655014
0.299421 0.704714 0.704714
0.299421 0.704714 0.756984
0.299421 0.704714 0.811826
0.299421 0.704714 0.869238
0.299421 0.704714 0.929221
0.299421 0.756984 0.278002
0.299421 0.756984 0.299421
0.299421 0.756984 0.323412
0.299421 0.756984 0.349973
0.299421 0.756984 0.379104
0.299421 0.756984 0.410807
0.299421 0.756984 0.445081
0.299421 0.756984 0.481926
0.299421 0.756984 0.521342
0.299421 0.756984 0.563328
0.299421 0.756984 0.607886
0.299421 0.756984 0.655014
0.299421 0.756984 0.704714
0.299421 0.756984 0.756984
0.299421 0.756984 0.811826
0.299421 0.756984 0.869238
0.299421 0.756984 0.929221
0.299421 0.811826 0.278002
0.299421 0.811826 0.299421
0.299421 0.811826 0.323412
0.299421 0.811826 0.349973
0.299421 0.811826 0.379104
0.299421 0.811826 0.410807
0.299421 0.811826 0.445081
0.299421 0.811826 0.481926
0.299421 0.811826 0.521342
0.299421 0.811826 0.563328
0.299421 0.811826 0.607886
0.299421 0.811826 0.655014
0.299421 0.811826 0.704714
0.299421 0.811826 0.756984
0.299421 0.811826 0.811826
0.299421 0.811826 0.869238
0.299421 0.811826 0.929221
0.299421 0.869238 0.278002
0.299421 0.869238 0.299421
0.299421 0.869238 0.323412
0.299421 0.869238 0.349973
0.299421 0.869238 0.379104
0.299421 0.869238 0.410807
0.299421 0.869238 0.445081
0.299421 0.869238 0.481926
0.299421 0.869238 0.521342
0.299421 0.869238 0.563328
0.299421 0.869238 0.607886
0.299421 0.869238 0.655014
0.299421 0.869238 0.704714
0.299421 0.869238 0.756984
0.299421 0.869238 0.811826
0.299421 0.869238 0.869238
0.299421 0.869238 0.929221
0.299421 0.929221 0.278002
0.299421 0.929221 0.299421
0.299421 0.929221 0.323412
0.299421 0.929221 0.349973
0.299421 0.929221 0.379104
0.299421 0.929221 0.410807
0.299421 0.929221 0.445081
0.299421 0.929221 0.481926
0.299421 0.929221 0.521342
0.299421 0.929221 0.563328
0.299421 0.929221 0.607886
0.299421 0.929221 0.655014
0.299421 0.929221 0.704714
0.299421 0.929221 0.756984
0.299421 0.929221 0.811826
0.299421 0.929221 0.869238
0.299421 0.929221 0.929221
0.323412 0.278002 0.278002
0.323412 0.278002 0.299421
0.323412 0.278002 0.323412
0.323412 0.278002 0.349973
0.323412 0.278002 0.379104
0.323412 0.278002 0.410807
0.323412 0.278002 0.445081
0.323412 0.278002 0.481926
0.323412 0.278002 0.521342
0.323412 0.278002 0.563328
0.323412 0.278002 0.607886
0.323412 0.278002 0.655014
0.323412 0.278002 0.704714
0.323412 0.278002 0.756984
0.323412 0.278002 0.811826
0.323412 0.278002 0.869238
0.323412 0.278002 0.929221
0.323412 0.299421 0.278002
0.323412 0.299421 0.299421
0.323412 0.299421 0.323412
0.323412 0.299421 0.349973
0.323412 0.299421 0.379104
0.323412 0.299421 0.410807
0.323412 0.299421 0.445081
0.323412 0.299421 0.481926
0.323412 0.299421 0.521342
0.323412 0.299421 0.563328
0.323412 0.299421 0.607886
0.323412 0.299421 0.655014
0.323412 0.299421 0.704714
0.323412 0.299421 0.756984
0.323412 0.299421 0.811826
0.323412 0.299421 0.869238
0.323412 0.299421 0.929221
0.323412 0.323412 0.278002
0.323412 0.323412 0.299421
0.323412 0.323412 0.323412
0.323412 0.323412 0.349973
0.323412 0.323412 0.379104
0.323412 0.323412 0.410807
0.323412 0.323412 0.445081
0.323412 0.323412 0.481926
0.323412 0.323412 0.521342
0.323412 0.323412 0.563328
0.323412 0.323412 0.607886
0.323412 0.323412 0.655014
0.323412 0.323412 0.704714
0.323412 0.323412 0.756984
0.323412 0.323412 0.811826
0.323412 0.323412 0.869238
0.323412 0.323412 0.929221
0.323412 0.349973 0.278002
0.323412 0.349973 0.299421
0.323412 0.349973 0.323412
0.323412 0.349973 0.349973
0.323412 0.349973 0.379104
0.323412 0.349973 0.410807
0.323412 0.349973 0.445081
0.323412 0.349973 0.481926
0.323412 0.349973 0.521342
0.323412 0.349973 0.563328
0.323412 0.349973 0.607886
0.323412 0.349973 0.655014
0.323412 0.349973 0.704714
0.323412 0.349973 0.756984
0.323412 0.349973 0.811826
0.323412 0.349973 0.869238
0.323412 0.349973 0.929221
0.323412 0.379104 0.278002
0.323412 0.379104 0.299421
0.323412 0.379104 0.323412
0.323412 0.379104 0.349973
0.323412 0.379104 0.379104
0.323412 0.379104 0.410807
0.323412 0.379104 0.445081
0.323412 0.379104 0.481926
0.323412 0.379104 0.521342
0.323412 0.379104 0.563328
0.323412 0.379104 0.607886
0.323412 0.379104 0.655014
0.323412 0.379104 0.704714
0.323412 0.379104 0.756984
0.323412 0.379104 0.811826
0.323412 0.379104 0.869238
0.323412 0.379104 0.929221
0.323412 0.410807 0.278002
0.323412 0.410807 0.299421
0.323412 0.410807 0.323412
0.323412 0.410807 0.349973
0.323412 0.410807 0.379104
0.323412 0.410807 0.410807
0.323412 0.410807 0.445081
0.323412 0.410807 0.481926
0.323412 0.410807 0.521342
0.323412 0.410807 0.563328
0.323412 0.410807 0.607886
0.323412 0.410807 0.655014
0.323412 0.410807 0.704714
0.323412 0.410807 0.756984
0.323412 0.410807 0.811826
0.323412 0.410807 0.869238
0.323412 0.410807 0.929221
0.323412 0.445081 0.278002
0.323412 0.445081 0.299421
0.323412 0.445081 0.323412
0.323412 0.445081 0.349973
0.323412 0.445081 0.379104
0.323412 0.445081 0.410807
0.323412 0.445081 0.445081
0.323412 0.445081 0.481926
0.323412 0.445081 0.521342
0.323412 0.445081 0.563328
0.323412 0.445081 0.607886
0.323412 0.445081 0.655014
0.323412 0.445081 0.704714
0.323412 0.445081 0.756984
0.323412 0.445081 0.811826
0.323412 0.445081 0.869238
0.323412 0.445081 0.929221
0.323412 0.481926 0.278002
0.323412 0.481926 0.299421
0.323412 0.481926 0.323412
0.323412 0.481926 0.349973
0.323412 0.481926 0.379104
0.323412 0.481926 0.410807
0.323412 0.481926 0.445081
0.323412 0.481926 0.481926
0.323412 0.481926 0.521342
0.323412 0.481926 0.563328
0.323412 0.481926 0.607886
0.323412 0.481926 0.655014
0.323412 0.481926 0.704714
0.323412 0.481926 0.756984
0.323412 0.481926 0.811826
0.323412 0.481926 0.869238
0.323412 0.481926 0.929221
0.323412 0.521342 0.278002
0.323412 0.521342 0.299421
0.323412 0.521342 0.323412
0.323412 0.521342 0.349973
0.323412 0.521342 0.379104
0.323412 0.521342 0.410807
0.323412 0.521342 0.445081
0.323412 0.521342 0.481926
0.323412 0.521342 0.521342
0.323412 0.521342 0.563328
0.323412 0.521342 0.607886
0.323412 0.521342 0.655014
0.323412 0.521342 0.704714
0.323412 0.521342 0.756984
0.323412 0.521342 0.811826
0.323412 0.521342 0.869238
0.323412 0.521342 0.929221
0.323412 0.563328 0.278002
0.323412 0.563328 0.299421
0.323412 0.563328 0.323412
0.323412 0.563328 0.349973
0.323412 0.563328 0.379104
0.323412 0.563328 0.410807
0.323412 0.563328 0.445081
0.323412 0.563328 0.481926
0.323412 0.563328 0.521342
0.323412 0.563328 0.563328
0.323412 0.563328 0.607886
0.323412 0.563328 0.655014
0.323412 0.563328 0.704714
0.323412 0.563328 0.756984
0.323412 0.563328 0.811826
0.323412 0.563328 0.869238
0.323412 0.563328 0.929221
0.323412 0.607886 0.278002
0.323412 0.607886 0.299421
0.323412 0.607886 0.323412
0.323412 0.607886 0.349973
0.323412 0.607886 0.379104
0.323412 0.607886 0.410807
0.323412 0.607886 0.445081
0.323412 0.607886 0.481926
0.323412 0.607886 0.521342
0.323412 0.607886 0.563328
0.323412 0.607886 0.607886
0.323412 0.607886 0.655014
0.323412 0.607886 0.704714
0.323412 0.607886 0.756984
0.323412 0.607886 0.811826
0.323412 0.607886 0.869238
0.323412 0.607886 0.929221
0.323412 0.655014 0.278002
0.323412 0.655014 0.299421
0.323412 0.655014 0.323412
0.323412 0.655014 0.349973
0.323412 0.655014 0.379104
0.323412 0.655014 0.410807
0.323412 0.655014 0.445081
0.323412 0.655014 0.481926
0.323412 0.655014 0.521342
0.323412 0.655014 0.563328
0.323412 0.655014 0.607886
0.323412 0.655014 0.655014
0.323412 0.655014 0.704714
0.323412 0.655014 0.756984
0.323412 0.655014 0.811826
0.323412 0.655014 0.869238
0.323412 0.655014 0.929221
0.323412 0.704714 0.278002
0.323412 0.704714 0.299421
0.323412 0.704714 0.323412
0.323412 0.704714 0.349973
0.323412 0.704714 0.379104
0.323412 0.704714 0.410807
0.323412 0.704714 0.445081
0.323412 0.704714 0.481926
0.323412 0.704714 0.521342
0.323412 0.704714 0.563328
0.323412 0.704714 0.607886
0.323412 0.704714 0.655014
0.323412 0.704714 0.704714
0.323412 0.704714 0.756984
0.323412 0.704714 0.811826
0.323412 0.704714 0.869238
0.323412 0.704714 0.929221
0.323412 0.756984 0.278002
0.323412 0.756984 0.299421
0.323412 0.756984 0.323412
0.323412 0.756984 0.349973
0.323412 0.756984 0.379104
0.323412 0.756984 0.410807
0.323412 0.756984 0.445081
0.323412 0.756984 0.481926
0.323412 0.756984 0.521342
0.323412 0.756984 0.563328
0.323412 0.756984 0.607886
0.323412 0.756984 0.655014
0.323412 0.756984 0.704714
0.323412 0.756984 0.756984
0.323412 0.756984 0.811826
0.323412 0.756984 0.869238
0.323412 0.756984 0.929221
0.323412 0.811826 0.278002
0.323412 0.811826 0.299421
0.323412 0.811826 0.323412
0.323412 0.811826 0.349973
0.323412 0.811826 0.379104
0.323412 0.811826 0.410807
0.323412 0.811826 0.445081
0.323412 0.811826 0.481926
0.323412 0.811826 0.521342
0.323412 0.811826 0.563328
0.323412 0.811826 0.607886
0.323412 0.811826 0.655014
0.323412 0.811826 0.704714
0.323412 0.811826 0.756984
0.323412 0.811826 0.811826
0.323412 0.811826 0.869238
0.323412 0.811826 0.929221
0.323412 0.869238 0.278002
0.323412 0.869238 0.299421
0.323412 0.869238 0.323412
0.323412 0.869238 0.349973
0.323412 0.869238 0.379104
0.323412 0.869238 0.410807
0.323412 0.869238 0.445081
0.323412 0.869238 0.481926
0.323412 0.869238 0.521342
0.323412 0.869238 0.563328
0.323412 0.869238 0.607886
0.323412 0.869238 0.655014
0.323412 0.869238 0.704714
0.323412 0.869238 0.756984
0.323412 0.869238 0.811826
0.323412 0.869238 0.869238
0.323412 0.869238 0.929221
0.323412 0.929221 0.278002
0.323412 0.929221 0.299421
0.323412 0.929221 0.323412
0.323412 0.929221 0.349973
0.323412 0.929221 0.379104
0.323412 0.929221 0.410807
0.323412 0.929221 0.445081
0.323412 0.929221 0.481926
0.323412 0.929221 0.521342
0.323412 0.929221 0.563328
0.323412 0.929221 0.607886
0.323412 0.929221 0.655014
0.323412 0.929221 0.704714
0.323412 0.929221 0.756984
0.323412 0.929221 0.811826
0.323412 0.929221 0.869238
0.323412 0.929221 0.929221
0.349973 0.278002 0.278002
0.349973 0.278002 0.299421
0.349973 0.278002 0.323412
0.349973 0.278002 0.349973
0.349973 0.278002 0.379104
0.349973 0.278002 0.410807
0.349973 0.278002 0.445081
0.349973 0.278002 0.481926
0.349973 0.278002 0.521342
0.349973 0.278002 0.563328
0.349973 0.278002 0.607886
0.349973 0.278002 0.655014
0.349973 0.278002 0.704714
0.349973 0.278002 0.756984
0.349973 0.278002 0.811826
0.349973 0.278002 0.869238
