app/luts/matte_film.cube
TITLE "电影哑光"
# StyleForge original LUT. Cube format compatible with CubeLUT.cn / Premiere.
LUT_3D_SIZE 9
DOMAIN_MIN 0.0 0.0 0.0
DOMAIN_MAX 1.0 1.0 1.0
0.278002 0.278002 0.278002
0.278002 0.278002 0.323412
0.278002 0.278002 0.379104
0.278002 0.278002 0.445081
0.278002 0.278002 0.521342
0.278002 0.278002 0.607886
0.278002 0.278002 0.704714
0.278002 0.278002 0.811826
0.278002 0.278002 0.929221
0.278002 0.323412 0.278002
0.278002 0.323412 0.323412
0.278002 0.323412 0.379104
0.278002 0.323412 0.445081
0.278002 0.323412 0.521342
0.278002 0.323412 0.607886
0.278002 0.323412 0.704714
0.278002 0.323412 0.811826
0.278002 0.323412 0.929221
0.278002 0.379104 0.278002
0.278002 0.379104 0.323412
0.278002 0.379104 0.379104
0.278002 0.379104 0.445081
0.278002 0.379104 0.521342
0.278002 0.379104 0.607886
0.278002 0.379104 0.704714
0.278002 0.379104 0.811826
0.278002 0.379104 0.929221
0.278002 0.445081 0.278002
0.278002 0.445081 0.323412
0.278002 0.445081 0.379104
0.278002 0.445081 0.445081
0.278002 0.445081 0.521342
0.278002 0.445081 0.607886
0.278002 0.445081 0.704714
0.278002 0.445081 0.811826
0.278002 0.445081 0.929221
0.278002 0.521342 0.278002
0.278002 0.521342 0.323412
0.278002 0.521342 0.379104
0.278002 0.521342 0.445081
0.278002 0.521342 0.521342
0.278002 0.521342 0.607886
0.278002 0.521342 0.704714
0.278002 0.521342 0.811826
0.278002 0.521342 0.929221
0.278002 0.607886 0.278002
0.278002 0.607886 0.323412
0.278002 0.607886 0.379104
0.278002 0.607886 0.445081
0.278002 0.607886 0.521342
0.278002 0.607886 0.607886
0.278002 0.607886 0.704714
0.278002 0.607886 0.811826
0.278002 0.607886 0.929221
0.278002 0.704714 0.278002
0.278002 0.704714 0.323412
0.278002 0.704714 0.379104
0.278002 0.704714 0.445081
0.278002 0.704714 0.521342
0.278002 0.704714 0.607886
0.278002 0.704714 0.704714
0.278002 0.704714 0.811826
0.278002 0.704714 0.929221
0.278002 0.811826 0.278002
0.278002 0.811826 0.323412
0.278002 0.811826 0.379104
0.278002 0.811826 0.445081
0.278002 0.811826 0.521342
0.278002 0.811826 0.607886
0.278002 0.811826 0.704714
0.278002 0.811826 0.811826
0.278002 0.811826 0.929221
0.278002 0.929221 0.278002
0.278002 0.929221 0.323412
0.278002 0.929221 0.379104
0.278002 0.929221 0.445081
0.278002 0.929221 0.521342
0.278002 0.929221 0.607886
0.278002 0.929221 0.704714
0.278002 0.929221 0.811826
0.278002 0.929221 0.929221
0.323412 0.278002 0.278002
0.323412 0.278002 0.323412
0.323412 0.278002 0.379104
0.323412 0.278002 0.445081
0.323412 0.278002 0.521342
0.323412 0.278002 0.607886
0.323412 0.278002 0.704714
0.323412 0.278002 0.811826
0.323412 0.278002 0.929221
0.323412 0.323412 0.278002
0.323412 0.323412 0.323412
0.323412 0.323412 0.379104
0.323412 0.323412 0.445081
0.323412 0.323412 0.521342
0.323412 0.323412 0.607886
0.323412 0.323412 0.704714
0.323412 0.323412 0.811826
0.323412 0.323412 0.929221
0.323412 0.379104 0.278002
0.323412 0.379104 0.323412
0.323412 0.379104 0.379104
0.323412 0.379104 0.445081
0.323412 0.379104 0.521342
0.323412 0.379104 0.607886
0.323412 0.379104 0.704714
0.323412 0.379104 0.811826
0.323412 0.379104 0.929221
0.323412 0.445081 0.278002
0.323412 0.445081 0.323412
0.323412 0.445081 0.379104
0.323412 0.445081 0.445081
0.323412 0.445081 0.521342
0.323412 0.445081 0.607886
0.323412 0.445081 0.704714
0.323412 0.445081 0.811826
0.323412 0.445081 0.929221
0.323412 0.521342 0.278002
0.323412 0.521342 0.323412
0.323412 0.521342 0.379104
0.323412 0.521342 0.445081
0.323412 0.521342 0.521342
0.323412 0.521342 0.607886
0.323412 0.521342 0.704714
0.323412 0.521342 0.811826
0.323412 0.521342 0.929221
0.323412 0.607886 0.278002
0.323412 0.607886 0.323412
0.323412 0.607886 0.379104
0.323412 0.607886 0.445081
0.323412 0.607886 0.521342
0.323412 0.607886 0.607886
0.323412 0.607886 0.704714
0.323412 0.607886 0.811826
0.323412 0.607886 0.929221
0.323412 0.704714 0.278002
0.323412 0.704714 0.323412
0.323412 0.704714 0.379104
0.323412 0.704714 0.445081
0.323412 0.704714 0.521342
0.323412 0.704714 0.607886
0.323412 0.704714 0.704714
0.323412 0.704714 0.811826
0.323412 0.704714 0.929221
0.323412 0.811826 0.278002
0.323412 0.811826 0.323412
0.323412 0.811826 0.379104
0.323412 0.811826 0.445081
0.323412 0.811826 0.521342
0.323412 0.811826 0.607886
0.323412 0.811826 0.704714
0.323412 0.811826 0.811826
0.323412 0.811826 0.929221
0.323412 0.929221 0.278002
0.323412 0.929221 0.323412
0.323412 0.929221 0.379104
0.323412 0.929221 0.445081
0.323412 0.929221 0.521342
0.323412 0.929221 0.607886
0.323412 0.929221 0.704714
0.323412 0.929221 0.811826
0.323412 0.929221 0.929221
0.379104 0.278002 0.278002
0.379104 0.278002 0.323412
0.379104 0.278002 0.379104
0.379104 0.278002 0.445081
0.379104 0.278002 0.521342
0.379104 0.278002 0.607886
0.379104 0.278002 0.704714
0.379104 0.278002 0.811826
0.379104 0.278002 0.929221
0.379104 0.323412 0.278002
0.379104 0.323412 0.323412
0.379104 0.323412 0.379104
0.379104 0.323412 0.445081
0.379104 0.323412 0.521342
0.379104 0.323412 0.607886
0.379104 0.323412 0.704714
0.379104 0.323412 0.811826
0.379104 0.323412 0.929221
0.379104 0.379104 0.278002
0.379104 0.379104 0.323412
0.379104 0.379104 0.379104
0.379104 0.379104 0.445081
0.379104 0.379104 0.521342
0.379104 0.379104 0.607886
0.379104 0.379104 0.704714
0.379104 0.379104 0.811826
0.379104 0.379104 0.929221
0.379104 0.445081 0.278002
0.379104 0.445081 0.323412
0.379104 0.445081 0.379104
0.379104 0.445081 0.445081
0.379104 0.445081 0.521342
0.379104 0.445081 0.607886
0.379104 0.445081 0.704714
0.379104 0.445081 0.811826
0.379104 0.445081 0.929221
0.379104 0.521342 0.278002
0.379104 0.521342 0.323412
0.379104 0.521342 0.379104
0.379104 0.521342 0.445081
0.379104 0.521342 0.521342
0.379104 0.521342 0.607886
0.379104 0.521342 0.704714
0.379104 0.521342 0.811826
0.379104 0.521342 0.929221
0.379104 0.607886 0.278002
0.379104 0.607886 0.323412
0.379104 0.607886 0.379104
0.379104 0.607886 0.445081
0.379104 0.607886 0.521342
0.379104 0.607886 0.607886
0.379104 0.607886 0.704714
0.379104 0.607886 0.811826
0.379104 0.607886 0.929221
0.379104 0.704714 0.278002
0.379104 0.704714 0.323412
0.379104 0.704714 0.379104
0.379104 0.704714 0.445081
0.379104 0.704714 0.521342
0.379104 0.704714 0.607886
0.379104 0.704714 0.704714
0.379104 0.704714 0.811826
0.379104 0.704714 0.929221
0.379104 0.811826 0.278002
0.379104 0.811826 0.323412
0.379104 0.811826 0.379104
0.379104 0.811826 0.445081
0.379104 0.811826 0.521342
0.379104 0.811826 0.607886
0.379104 0.811826 0.704714
0.379104 0.811826 0.811826
0.379104 0.811826 0.929221
0.379104 0.929221 0.278002
0.379104 0.929221 0.323412
0.379104 0.929221 0.379104
0.379104 0.929221 0.445081
0.379104 0.929221 0.521342
0.379104 0.929221 0.607886
0.379104 0.929221 0.704714
0.379104 0.929221 0.811826
0.379104 0.929221 0.929221
0.445081 0.278002 0.278002
0.445081 0.278002 0.323412
0.445081 0.278002 0.379104
0.445081 0.278002 0.445081
0.445081 0.278002 0.521342
0.445081 0.278002 0.607886
0.445081 0.278002 0.704714
0.445081 0.278002 0.811826
0.445081 0.278002 0.929221
0.445081 0.323412 0.278002
0.445081 0.323412 0.323412
0.445081 0.323412 0.379104
0.445081 0.323412 0.445081
0.445081 0.323412 0.521342
0.445081 0.323412 0.607886
0.445081 0.323412 0.704714
0.445081 0.323412 0.811826
0.445081 0.323412 0.929221
0.445081 0.379104 0.278002
0.445081 0.379104 0.323412
0.445081 0.379104 0.379104
0.445081 0.379104 0.445081
0.445081 0.379104 0.521342
0.445081 0.379104 0.607886
0.445081 0.379104 0.704714
0.445081 0.379104 0.811826
0.445081 0.379104 0.929221
0.445081 0.445081 0.278002
0.445081 0.445081 0.323412
0.445081 0.445081 0.379104
0.445081 0.445081 0.445081
0.445081 0.445081 0.521342
0.445081 0.445081 0.607886
0.445081 0.445081 0.704714
0.445081 0.445081 0.811826
0.445081 0.445081 0.929221
0.445081 0.521342 0.278002
0.445081 0.521342 0.323412
0.445081 0.521342 0.379104
0.445081 0.521342 0.445081
0.445081 0.521342 0.521342
0.445081 0.521342 0.607886
0.445081 0.521342 0.704714
0.445081 0.521342 0.811826
0.445081 0.521342 0.929221
0.445081 0.607886 0.278002
0.445081 0.607886 0.323412
0.445081 0.607886 0.379104
0.445081 0.607886 0.445081
0.445081 0.607886 0.521342
0.445081 0.607886 0.607886
0.445081 0.607886 0.704714
0.445081 0.607886 0.811826
0.445081 0.607886 0.929221
0.445081 0.704714 0.278002
0.445081 0.704714 0.323412
0.445081 0.704714 0.379104
0.445081 0.704714 0.445081
0.445081 0.704714 0.521342
0.445081 0.704714 0.607886
0.445081 0.704714 0.704714
0.445081 0.704714 0.811826
0.445081 0.704714 0.929221
0.445081 0.811826 0.278002
0.445081 0.811826 0.323412
0.445081 0.811826 0.379104
0.445081 0.811826 0.445081
0.445081 0.811826 0.521342
0.445081 0.811826 0.607886
0.445081 0.811826 0.704714
0.445081 0.811826 0.811826
0.445081 0.811826 0.929221
0.445081 0.929221 0.278002
0.445081 0.929221 0.323412
0.445081 0.929221 0.379104
0.445081 0.929221 0.445081
0.445081 0.929221 0.521342
0.445081 0.929221 0.607886
0.445081 0.929221 0.704714
0.445081 0.929221 0.811826
0.445081 0.929221 0.929221
0.521342 0.278002 0.278002
0.521342 0.278002 0.323412
0.521342 0.278002 0.379104
0.521342 0.278002 0.445081
0.521342 0.278002 0.521342
0.521342 0.278002 0.607886
0.521342 0.278002 0.704714
0.521342 0.278002 0.811826
0.521342 0.278002 0.929221
0.521342 0.323412 0.278002
0.521342 0.323412 0.323412
0.521342 0.323412 0.379104
0.521342 0.323412 0.445081
0.521342 0.323412 0.521342
0.521342 0.323412 0.607886
0.521342 0.323412 0.704714
0.521342 0.323412 0.811826
0.521342 0.323412 0.929221
0.521342 0.379104 0.278002
0.521342 0.379104 0.323412
0.521342 0.379104 0.379104
0.521342 0.379104 0.445081
0.521342 0.379104 0.521342
0.521342 0.379104 0.607886
0.521342 0.379104 0.704714
0.521342 0.379104 0.811826
0.521342 0.379104 0.929221
0.521342 0.445081 0.278002
0.521342 0.445081 0.323412
0.521342 0.445081 0.379104
0.521342 0.445081 0.445081
0.521342 0.445081 0.521342
0.521342 0.445081 0.607886
0.521342 0.445081 0.704714
0.521342 0.445081 0.811826
0.521342 0.445081 0.929221
0.521342 0.521342 0.278002
0.521342 0.521342 0.323412
0.521342 0.521342 0.379104
0.521342 0.521342 0.445081
0.521342 0.521342 0.521342
0.521342 0.521342 0.607886
0.521342 0.521342 0.704714
0.521342 0.521342 0.811826
0.521342 0.521342 0.929221
0.521342 0.607886 0.278002
0.521342 0.607886 0.323412
0.521342 0.607886 0.379104
0.521342 0.607886 0.445081
0.521342 0.607886 0.521342
0.521342 0.607886 0.607886
0.521342 0.607886 0.704714
0.521342 0.607886 0.811826
0.521342 0.607886 0.929221
0.521342 0.704714 0.278002
0.521342 0.704714 0.323412
0.521342 0.704714 0.379104
0.521342 0.704714 0.445081
0.521342 0.704714 0.521342
0.521342 0.704714 0.607886
0.521342 0.704714 0.704714
0.521342 0.704714 0.811826
0.521342 0.704714 0.929221
0.521342 0.811826 0.278002
0.521342 0.811826 0.323412
0.521342 0.811826 0.379104
0.521342 0.811826 0.445081
0.521342 0.811826 0.521342
0.521342 0.811826 0.607886
0.521342 0.811826 0.704714
0.521342 0.811826 0.811826
0.521342 0.811826 0.929221
0.521342 0.929221 0.278002
0.521342 0.929221 0.323412
0.521342 0.929221 0.379104
0.521342 0.929221 0.445081
0.521342 0.929221 0.521342
0.521342 0.929221 0.607886
0.521342 0.929221 0.704714
0.521342 0.929221 0.811826
0.521342 0.929221 0.929221
0.607886 0.278002 0.278002
0.607886 0.278002 0.323412
0.607886 0.278002 0.379104
0.607886 0.278002 0.445081
0.607886 0.278002 0.521342
0.607886 0.278002 0.607886
0.607886 0.278002 0.704714
0.607886 0.278002 0.811826
0.607886 0.278002 0.929221
0.607886 0.323412 0.278002
0.607886 0.323412 0.323412
0.607886 0.323412 0.379104
0.607886 0.323412 0.445081
0.607886 0.323412 0.521342
0.607886 0.323412 0.607886
0.607886 0.323412 0.704714
0.607886 0.323412 0.811826
0.607886 0.323412 0.929221
0.607886 0.379104 0.278002
0.607886 0.379104 0.323412
0.607886 0.379104 0.379104
0.607886 0.379104 0.445081
0.607886 0.379104 0.521342
0.607886 0.379104 0.607886
0.607886 0.379104 0.704714
0.607886 0.379104 0.811826
0.607886 0.379104 0.929221
0.607886 0.445081 0.278002
0.607886 0.445081 0.323412
0.607886 0.445081 0.379104
0.607886 0.445081 0.445081
0.607886 0.445081 0.521342
0.607886 0.445081 0.607886
0.607886 0.445081 0.704714
0.607886 0.445081 0.811826
0.607886 0.445081 0.929221
0.607886 0.521342 0.278002
0.607886 0.521342 0.323412
0.607886 0.521342 0.379104
0.607886 0.521342 0.445081
0.607886 0.521342 0.521342
0.607886 0.521342 0.607886
0.607886 0.521342 0.704714
0.607886 0.521342 0.811826
0.607886 0.521342 0.929221
0.607886 0.607886 0.278002
0.607886 0.607886 0.323412
0.607886 0.607886 0.379104
0.607886 0.607886 0.445081
0.607886 0.607886 0.521342
0.607886 0.607886 0.607886
0.607886 0.607886 0.704714
0.607886 0.607886 0.811826
0.607886 0.607886 0.929221
0.607886 0.704714 0.278002
0.607886 0.704714 0.323412
0.607886 0.704714 0.379104
0.607886 0.704714 0.445081
0.607886 0.704714 0.521342
0.607886 0.704714 0.607886
0.607886 0.704714 0.704714
0.607886 0.704714 0.811826
0.607886 0.704714 0.929221
0.607886 0.811826 0.278002
0.607886 0.811826 0.323412
0.607886 0.811826 0.379104
0.607886 0.811826 0.445081
0.607886 0.811826 0.521342
0.607886 0.811826 0.607886
0.607886 0.811826 0.704714
0.607886 0.811826 0.811826
0.607886 0.811826 0.929221
0.607886 0.929221 0.278002
0.607886 0.929221 0.323412
0.607886 0.929221 0.379104
0.607886 0.929221 0.445081
0.607886 0.929221 0.521342
0.607886 0.929221 0.607886
0.607886 0.929221 0.704714
0.607886 0.929221 0.811826
0.607886 0.929221 0.929221
0.704714 0.278002 0.278002
0.704714 0.278002 0.323412
0.704714 0.278002 0.379104
0.704714 0.278002 0.445081
0.704714 0.278002 0.521342
0.704714 0.278002 0.607886
0.704714 0.278002 0.704714
0.704714 0.278002 0.811826
0.704714 0.278002 0.929221
0.704714 0.323412 0.278002
0.704714 0.323412 0.323412
0.704714 0.323412 0.379104
0.704714 0.323412 0.445081
0.704714 0.323412 0.521342
0.704714 0.323412 0.607886
0.704714 0.323412 0.704714
0.704714 0.323412 0.811826
0.704714 0.323412 0.929221
0.704714 0.379104 0.278002
0.704714 0.379104 0.323412
0.704714 0.379104 0.379104
0.704714 0.379104 0.445081
0.704714 0.379104 0.521342
0.704714 0.379104 0.607886
0.704714 0.379104 0.704714
0.704714 0.379104 0.811826
0.704714 0.379104 0.929221
0.704714 0.445081 0.278002
0.704714 0.445081 0.323412
0.704714 0.445081 0.379104
0.704714 0.445081 0.445081
0.704714 0.445081 0.521342
0.704714 0.445081 0.607886
0.704714 0.445081 0.704714
0.704714 0.445081 0.811826
0.704714 0.445081 0.929221
0.704714 0.521342 0.278002
0.704714 0.521342 0.323412
0.704714 0.521342 0.379104
0.704714 0.521342 0.445081
0.704714 0.521342 0.521342
0.704714 0.521342 0.607886
0.704714 0.521342 0.704714
0.704714 0.521342 0.811826
0.704714 0.521342 0.929221
0.704714 0.607886 0.278002
0.704714 0.607886 0.323412
0.704714 0.607886 0.379104
0.704714 0.607886 0.445081
0.704714 0.607886 0.521342
0.704714 0.607886 0.607886
0.704714 0.607886 0.704714
0.704714 0.607886 0.811826
0.704714 0.607886 0.929221
0.704714 0.704714 0.278002
0.704714 0.704714 0.323412
0.704714 0.704714 0.379104
0.704714 0.704714 0.445081
0.704714 0.704714 0.521342
0.704714 0.704714 0.607886
0.704714 0.704714 0.704714
0.704714 0.704714 0.811826
0.704714 0.704714 0.929221
0.704714 0.811826 0.278002
0.704714 0.811826 0.323412
0.704714 0.811826 0.379104
0.704714 0.811826 0.445081
0.704714 0.811826 0.521342
0.704714 0.811826 0.607886
0.704714 0.811826 0.704714
0.704714 0.811826 0.811826
0.704714 0.811826 0.929221
0.704714 0.929221 0.278002
0.704714 0.929221 0.323412
0.704714 0.929221 0.379104
0.704714 0.929221 0.445081
0.704714 0.929221 0.521342
0.704714 0.929221 0.607886
0.704714 0.929221 0.704714
0.704714 0.929221 0.811826
0.704714 0.929221 0.929221
0.811826 0.278002 0.278002
0.811826 0.278002 0.323412
0.811826 0.278002 0.379104
0.811826 0.278002 0.445081
0.811826 0.278002 0.521342
0.811826 0.278002 0.607886
0.811826 0.278002 0.704714
0.811826 0.278002 0.811826
0.811826 0.278002 0.929221
0.811826 0.323412 0.278002
0.811826 0.323412 0.323412
0.811826 0.323412 0.379104
0.811826 0.323412 0.445081
0.811826 0.323412 0.521342
0.811826 0.323412 0.607886
0.811826 0.323412 0.704714
0.811826 0.323412 0.811826
0.811826 0.323412 0.929221
0.811826 0.379104 0.278002
0.811826 0.379104 0.323412
0.811826 0.379104 0.379104
0.811826 0.379104 0.445081
0.811826 0.379104 0.521342
0.811826 0.379104 0.607886
0.811826 0.379104 0.704714
0.811826 0.379104 0.811826
0.811826 0.379104 0.929221
0.811826 0.445081 0.278002
0.811826 0.445081 0.323412
0.811826 0.445081 0.379104
0.811826 0.445081 0.445081
0.811826 0.445081 0.521342
0.811826 0.445081 0.607886
0.811826 0.445081 0.704714
0.811826 0.445081 0.811826
0.811826 0.445081 0.929221
0.811826 0.521342 0.278002
0.811826 0.521342 0.323412
0.811826 0.521342 0.379104
0.811826 0.521342 0.445081
0.811826 0.521342 0.521342
0.811826 0.521342 0.607886
0.811826 0.521342 0.704714
0.811826 0.521342 0.811826
0.811826 0.521342 0.929221
0.811826 0.607886 0.278002
0.811826 0.607886 0.323412
0.811826 0.607886 0.379104
0.811826 0.607886 0.445081
0.811826 0.607886 0.521342
0.811826 0.607886 0.607886
0.811826 0.607886 0.704714
0.811826 0.607886 0.811826
0.811826 0.607886 0.929221
0.811826 0.704714 0.278002
0.811826 0.704714 0.323412
0.811826 0.704714 0.379104
0.811826 0.704714 0.445081
0.811826 0.704714 0.521342
0.811826 0.704714 0.607886
0.811826 0.704714 0.704714
0.811826 0.704714 0.811826
0.811826 0.704714 0.929221
0.811826 0.811826 0.278002
0.811826 0.811826 0.323412
0.811826 0.811826 0.379104
0.811826 0.811826 0.445081
0.811826 0.811826 0.521342
0.811826 0.811826 0.607886
0.811826 0.811826 0.704714
0.811826 0.811826 0.811826
0.811826 0.811826 0.929221
0.811826 0.929221 0.278002
0.811826 0.929221 0.323412
0.811826 0.929221 0.379104
0.811826 0.929221 0.445081
0.811826 0.929221 0.521342
0.811826 0.929221 0.607886
0.811826 0.929221 0.704714
0.811826 0.929221 0.811826
0.811826 0.929221 0.929221
0.929221 0.278002 0.278002
0.929221 0.278002 0.323412
0.929221 0.278002 0.379104
0.929221 0.278002 0.445081
0.929221 0.278002 0.521342
0.929221 0.278002 0.607886
0.929221 0.278002 0.704714
0.929221 0.278002 0.811826
0.929221 0.278002 0.929221
0.929221 0.323412 0.278002
0.929221 0.323412 0.323412
0.929221 0.323412 0.379104
0.929221 0.323412 0.445081
0.929221 0.323412 0.521342
0.929221 0.323412 0.607886
0.929221 0.323412 0.704714
0.929221 0.323412 0.811826
0.929221 0.323412 0.929221
0.929221 0.379104 0.278002
0.929221 0.379104 0.323412
0.929221 0.379104 0.379104
0.929221 0.379104 0.445081
0.929221 0.379104 0.521342
0.929221 0.379104 0.607886
0.929221 0.379104 0.704714
0.929221 0.379104 0.811826
0.929221 0.379104 0.929221
0.929221 0.445081 0.278002
0.929221 0.445081 0.323412
0.929221 0.445081 0.379104
0.929221 0.445081 0.445081
0.929221 0.445081 0.521342
0.929221 0.445081 0.607886
0.929221 0.445081 0.704714
0.929221 0.445081 0.811826
0.929221 0.445081 0.929221
0.929221 0.521342 0.278002
0.929221 0.521342 0.323412
0.929221 0.521342 0.379104
0.929221 0.521342 0.445081
0.929221 0.521342 0.521342
0.929221 0.521342 0.607886
0.929221 0.521342 0.704714
0.929221 0.521342 0.811826
0.929221 0.521342 0.929221
0.929221 0.607886 0.278002
0.929221 0.607886 0.323412
0.929221 0.607886 0.379104
0.929221 0.607886 0.445081
0.929221 0.607886 0.521342
0.929221 0.607886 0.607886
0.929221 0.607886 0.704714
0.929221 0.607886 0.811826
0.929221 0.607886 0.929221
0.929221 0.704714 0.278002
0.929221 0.704714 0.323412
0.929221 0.704714 0.379104
0.929221 0.704714 0.445081
0.929221 0.704714 0.521342
0.929221 0.704714 0.607886
0.929221 0.704714 0.704714
0.929221 0.704714 0.811826
0.929221 0.704714 0.929221
0.929221 0.811826 0.278002
0.929221 0.811826 0.323412
0.929221 0.811826 0.379104
0.929221 0.811826 0.445081
0.929221 0.811826 0.521342
0.929221 0.811826 0.607886
0.929221 0.811826 0.704714
0.929221 0.811826 0.811826
0.929221 0.811826 0.929221
0.929221 0.929221 0.278002
0.929221 0.929221 0.323412
0.929221 0.929221 0.379104
0.929221 0.929221 0.445081
0.929221 0.929221 0.521342
0.929221 0.929221 0.607886
0.929221 0.929221 0.704714
0.929221 0.929221 0.811826
0.929221 0.929221 0.929221
