app/luts/matte_film.cube
TITLE "电影哑光"
# StyleForge original LUT. Cube format compatible with CubeLUT.cn / Premiere.
LUT_3D_SIZE 5
DOMAIN_MIN 0.0 0.0 0.0
DOMAIN_MAX 1.0 1.0 1.0
0.278002 0.278002 0.278002
0.278002 0.278002 0.379104
0.278002 0.278002 0.521342
0.278002 0.278002 0.704714
0.278002 0.278002 0.929221
0.278002 0.379104 0.278002
0.278002 0.379104 0.379104
0.278002 0.379104 0.521342
0.278002 0.379104 0.704714
0.278002 0.379104 0.929221
0.278002 0.521342 0.278002
0.278002 0.521342 0.379104
0.278002 0.521342 0.521342
0.278002 0.521342 0.704714
0.278002 0.521342 0.929221
0.278002 0.704714 0.278002
0.278002 0.704714 0.379104
0.278002 0.704714 0.521342
0.278002 0.704714 0.704714
0.278002 0.704714 0.929221
0.278002 0.929221 0.278002
0.278002 0.929221 0.379104
0.278002 0.929221 0.521342
0.278002 0.929221 0.704714
0.278002 0.929221 0.929221
0.379104 0.278002 0.278002
0.379104 0.278002 0.379104
0.379104 0.278002 0.521342
0.379104 0.278002 0.704714
0.379104 0.278002 0.929221
0.379104 0.379104 0.278002
0.379104 0.379104 0.379104
0.379104 0.379104 0.521342
0.379104 0.379104 0.704714
0.379104 0.379104 0.929221
0.379104 0.521342 0.278002
0.379104 0.521342 0.379104
0.379104 0.521342 0.521342
0.379104 0.521342 0.704714
0.379104 0.521342 0.929221
0.379104 0.704714 0.278002
0.379104 0.704714 0.379104
0.379104 0.704714 0.521342
0.379104 0.704714 0.704714
0.379104 0.704714 0.929221
0.379104 0.929221 0.278002
0.379104 0.929221 0.379104
0.379104 0.929221 0.521342
0.379104 0.929221 0.704714
0.379104 0.929221 0.929221
0.521342 0.278002 0.278002
0.521342 0.278002 0.379104
0.521342 0.278002 0.521342
0.521342 0.278002 0.704714
0.521342 0.278002 0.929221
0.521342 0.379104 0.278002
0.521342 0.379104 0.379104
0.521342 0.379104 0.521342
0.521342 0.379104 0.704714
0.521342 0.379104 0.929221
0.521342 0.521342 0.278002
0.521342 0.521342 0.379104
0.521342 0.521342 0.521342
0.521342 0.521342 0.704714
0.521342 0.521342 0.929221
0.521342 0.704714 0.278002
0.521342 0.704714 0.379104
0.521342 0.704714 0.521342
0.521342 0.704714 0.704714
0.521342 0.704714 0.929221
0.521342 0.929221 0.278002
0.521342 0.929221 0.379104
0.521342 0.929221 0.521342
0.521342 0.929221 0.704714
0.521342 0.929221 0.929221
0.704714 0.278002 0.278002
0.704714 0.278002 0.379104
0.704714 0.278002 0.521342
0.704714 0.278002 0.704714
0.704714 0.278002 0.929221
0.704714 0.379104 0.278002
0.704714 0.379104 0.379104
0.704714 0.379104 0.521342
0.704714 0.379104 0.704714
0.704714 0.379104 0.929221
0.704714 0.521342 0.278002
0.704714 0.521342 0.379104
0.704714 0.521342 0.521342
0.704714 0.521342 0.704714
0.704714 0.521342 0.929221
0.704714 0.704714 0.278002
0.704714 0.704714 0.379104
0.704714 0.704714 0.521342
0.704714 0.704714 0.704714
0.704714 0.704714 0.929221
0.704714 0.929221 0.278002
0.704714 0.929221 0.379104
0.704714 0.929221 0.521342
0.704714 0.929221 0.704714
0.704714 0.929221 0.929221
0.929221 0.278002 0.278002
0.929221 0.278002 0.379104
0.929221 0.278002 0.521342
0.929221 0.278002 0.704714
0.929221 0.278002 0.929221
0.929221 0.379104 0.278002
0.929221 0.379104 0.379104
0.929221 0.379104 0.521342
0.929221 0.379104 0.704714
0.929221 0.379104 0.929221
0.929221 0.521342 0.278002
0.929221 0.521342 0.379104
0.929221 0.521342 0.521342
0.929221 0.521342 0.704714
0.929221 0.521342 0.929221
0.929221 0.704714 0.278002
0.929221 0.704714 0.379104
0.929221 0.704714 0.521342
0.929221 0.704714 0.704714
0.929221 0.704714 0.929221
0.929221 0.929221 0.278002
0.929221 0.929221 0.379104
0.929221 0.929221 0.521342
0.929221 0.929221 0.704714
0.929221 0.929221 0.929221
