app/luts/mono_bw.cube
TITLE "黑白胶片"
# StyleForge original LUT. Cube format compatible with CubeLUT.cn / Premiere.
LUT_3D_SIZE 5
DOMAIN_MIN 0.0 0.0 0.0
DOMAIN_MAX 1.0 1.0 1.0
0.000000 0.000000 0.000000
0.000000 0.000000 0.000000
0.000000 0.000000 0.000000
0.000000 0.000000 0.000000
0.000000 0.000000 0.000000
0.000000 0.000000 0.000000
0.000000 0.000000 0.000000
0.034047 0.015039 0.000000
0.088922 0.067798 0.050743
0.142365 0.119258 0.100576
0.202008 0.176786 0.156361
0.252371 0.225453 0.203620
0.301301 0.272820 0.249681
0.348799 0.318887 0.294544
0.394863 0.363655 0.338210
0.446028 0.413494 0.386908
0.489014 0.455469 0.428000
0.530566 0.496144 0.467894
0.570686 0.535520 0.506590
0.609373 0.573596 0.544089
0.652060 0.615745 0.585700
0.687668 0.651028 0.620625
0.721843 0.685011 0.654351
0.754585 0.717695 0.686881
0.785894 0.749079 0.718212
0.000000 0.000000 0.000000
0.000000 0.000000 0.000000
0.000000 0.000000 0.000000
0.000000 0.000000 0.000000
0.004590 0.000000 0.000000
0.068392 0.048050 0.031635
0.122375 0.100000 0.081920
0.174925 0.150650 0.131007
0.226042 0.200001 0.178896
0.275727 0.248052 0.225588
0.331051 0.301664 0.277763
0.377656 0.346922 0.321880
0.422829 0.390880 0.364800
0.466568 0.433539 0.406522
0.508875 0.474898 0.447046
0.555722 0.520820 0.492135
0.594949 0.559386 0.530085
0.632744 0.596653 0.566838
0.669106 0.632620 0.602393
0.704035 0.667287 0.636750
0.742403 0.705520 0.674751
0.774253 0.737394 0.706535
0.804670 0.767969 0.737120
0.833654 0.797244 0.766508
0.861205 0.825220 0.794698
0.000000 0.000000 0.000000
0.000000 0.000000 0.000000
0.039405 0.020186 0.004689
0.094142 0.072820 0.055604
0.147446 0.124154 0.105321
0.206930 0.181539 0.160973
0.257154 0.230080 0.208117
0.305947 0.277322 0.254062
0.353306 0.323264 0.298810
0.399232 0.367906 0.342360
0.450238 0.417601 0.390926
0.493086 0.459450 0.431902
0.534500 0.500000 0.471680
0.574482 0.539250 0.510261
0.613030 0.577201 0.547644
0.655558 0.619206 0.589122
0.691028 0.654364 0.623931
0.725065 0.688222 0.657542
0.757668 0.720780 0.689956
0.788840 0.752039 0.721172
0.822890 0.786354 0.755564
0.850982 0.814820 0.784205
0.877640 0.841986 0.811649
0.902867 0.867853 0.837896
0.926660 0.892420 0.862944
0.073663 0.053120 0.036540
0.127508 0.104944 0.086709
0.179920 0.155469 0.135680
0.230899 0.204694 0.183454
0.280445 0.252620 0.230029
0.335611 0.306087 0.282072
0.382078 0.351220 0.326074
0.427112 0.395053 0.368878
0.470713 0.437586 0.410485
0.512882 0.478820 0.450893
0.559569 0.524598 0.495849
0.598658 0.563039 0.533684
0.636315 0.600180 0.570321
0.672538 0.636022 0.605760
0.707329 0.670564 0.640002
0.745539 0.708652 0.677870
0.777250 0.740401 0.709538
0.807529 0.770850 0.740008
0.836375 0.800000 0.769280
0.863788 0.827850 0.797354
0.893520 0.858249 0.828136
0.917854 0.883306 0.853637
0.940755 0.907063 0.877939
0.962223 0.929522 0.901044
0.982258 0.950680 0.922952
0.211838 0.186279 0.165574
0.261925 0.234695 0.212602
0.310579 0.281811 0.258432
0.357800 0.327628 0.303064
0.403588 0.372145 0.346499
0.454435 0.421696 0.394932
0.497144 0.463420 0.435792
0.538420 0.503844 0.475455
0.578264 0.542969 0.513920
0.616674 0.580794 0.551187
0.659043 0.622655 0.592533
0.694375 0.657687 0.627227
0.728273 0.691420 0.660722
0.760739 0.723853 0.693020
0.791772 0.754986 0.724120
0.825663 0.789158 0.758379
0.853616 0.817498 0.786906
0.880137 0.844539 0.814234
0.905225 0.870280 0.840365
0.928880 0.894722 0.865298
0.954294 0.921203 0.892470
0.974869 0.942852 0.914829
0.994012 0.963201 0.935991
1.000000 0.982250 0.955954
1.000000 1.000000 0.974720
