app/luts/mono_bw.cube
TITLE "黑白胶片"
# StyleForge original LUT. Cube format compatible with CubeLUT.cn / Premiere.
LUT_3D_SIZE 17
DOMAIN_MIN 0.0 0.0 0.0
DOMAIN_MAX 1.0 1.0 1.0
0.000000 0.000000 0.000000
0.000000 0.000000 0.000000
0.000000 0.000000 0.000000
0.000000 0.000000 0.000000
0.000000 0.000000 0.000000
0.000000 0.000000 0.000000
0.000000 0.000000 0.000000
0.000000 0.000000 0.000000
0.000000 0.000000 0.000000
0.000000 0.000000 0.000000
0.000000 0.000000 0.000000
0.000000 0.000000 0.000000
0.000000 0.000000 0.000000
0.000000 0.000000 0.000000
0.000000 0.000000 0.000000
0.000000 0.000000 0.000000
0.000000 0.000000 0.000000
0.000000 0.000000 0.000000
0.000000 0.000000 0.000000
0.000000 0.000000 0.000000
0.000000 0.000000 0.000000
0.000000 0.000000 0.000000
0.000000 0.000000 0.000000
0.000000 0.000000 0.000000
0.000000 0.000000 0.000000
0.000000 0.000000 0.000000
0.000000 0.000000 0.000000
0.000000 0.000000 0.000000
0.000000 0.000000 0.000000
0.000000 0.000000 0.000000
0.000000 0.000000 0.000000
0.000000 0.000000 0.000000
0.000000 0.000000 0.000000
0.000000 0.000000 0.000000
0.000000 0.000000 0.000000
0.000000 0.000000 0.000000
0.000000 0.000000 0.000000
0.000000 0.000000 0.000000
0.000000 0.000000 0.000000
0.000000 0.000000 0.000000
0.000000 0.000000 0.000000
0.000000 0.000000 0.000000
0.000000 0.000000 0.000000
0.000000 0.000000 0.000000
0.000000 0.000000 0.000000
0.000000 0.000000 0.000000
0.000000 0.000000 0.000000
0.000000 0.000000 0.000000
0.000000 0.000000 0.000000
0.000000 0.000000 0.000000
0.001870 0.000000 0.000000
0.000000 0.000000 0.000000
0.000000 0.000000 0.000000
0.000000 0.000000 0.000000
0.000000 0.000000 0.000000
0.000000 0.000000 0.000000
0.000000 0.000000 0.000000
0.000000 0.000000 0.000000
0.000000 0.000000 0.000000
0.000000 0.000000 0.000000
0.000000 0.000000 0.000000
0.000000 0.000000 0.000000
0.003972 0.000000 0.000000
0.018018 0.000000 0.000000
0.031974 0.013047 0.000000
0.045840 0.026370 0.010668
0.059617 0.039613 0.023474
0.073304 0.052774 0.036206
0.000000 0.000000 0.000000
0.000000 0.000000 0.000000
0.000000 0.000000 0.000000
0.000000 0.000000 0.000000
0.000000 0.000000 0.000000
0.000000 0.000000 0.000000
0.006072 0.000000 0.000000
0.020104 0.001646 0.000000
0.034047 0.015039 0.000000
0.047900 0.028350 0.012582
0.061664 0.041581 0.025377
0.075338 0.054730 0.038098
0.088922 0.067798 0.050743
0.102417 0.080785 0.063314
0.115823 0.093690 0.075809
0.129139 0.106514 0.088230
0.142365 0.119258 0.100576
0.000000 0.000000 0.000000
0.008170 0.000000 0.000000
0.022189 0.003648 0.000000
0.036119 0.017029 0.001636
0.049958 0.030328 0.014495
0.063709 0.043547 0.027279
0.077369 0.056684 0.039988
0.090940 0.069740 0.052622
0.104422 0.082714 0.065182
0.117814 0.095608 0.077666
0.131116 0.108420 0.090076
0.144329 0.121151 0.102411
0.157453 0.133801 0.114670
0.170487 0.146369 0.126855
0.183431 0.158856 0.138966
0.196286 0.171262 0.151001
0.209051 0.183587 0.162961
0.065751 0.045511 0.029179
0.079399 0.058636 0.041877
0.092957 0.071680 0.054500
0.106425 0.084642 0.067048
0.119803 0.097524 0.079521
0.133093 0.110324 0.091920
0.146292 0.123042 0.104244
0.159402 0.135680 0.116492
0.172423 0.148236 0.128666
0.185354 0.160712 0.140765
0.198195 0.173106 0.152789
0.210947 0.185418 0.164739
0.223609 0.197650 0.176613
0.236182 0.209800 0.188413
0.248665 0.221869 0.200137
0.261059 0.233857 0.211787
0.273363 0.245763 0.223362
0.135067 0.112225 0.093762
0.148253 0.124932 0.106075
0.161350 0.137558 0.118312
0.174357 0.150102 0.130475
0.187274 0.162565 0.142563
0.200102 0.174947 0.154576
0.212841 0.187247 0.166514
0.225490 0.199467 0.178377
0.238049 0.211605 0.190166
0.250519 0.223662 0.201880
0.262899 0.235638 0.213518
0.275190 0.247532 0.225082
0.287391 0.259345 0.236571
0.299503 0.271077 0.247985
0.311525 0.282728 0.259325
0.323457 0.294298 0.270589
0.335300 0.305786 0.281779
0.202008 0.176786 0.156361
0.214733 0.189075 0.168288
0.227368 0.201282 0.180140
0.239914 0.213408 0.191917
0.252371 0.225453 0.203620
0.264738 0.237416 0.215247
0.277015 0.249299 0.226800
0.289203 0.261100 0.238278
0.301301 0.272820 0.249681
0.313310 0.284458 0.261009
0.325229 0.296016 0.272262
0.337059 0.307492 0.283441
0.348799 0.318887 0.294544
0.360449 0.330201 0.305573
0.372010 0.341434 0.316527
0.383482 0.352585 0.327406
0.394863 0.363655 0.338210
0.266574 0.239193 0.216975
0.278838 0.251064 0.228516
0.291013 0.262853 0.239983
0.303097 0.274561 0.251375
0.315093 0.286187 0.262692
0.326999 0.297733 0.273934
0.338815 0.309197 0.285101
0.350542 0.320579 0.296194
0.362179 0.331881 0.307211
0.373726 0.343102 0.318154
0.385184 0.354241 0.329022
0.396553 0.365299 0.339815
0.407832 0.376276 0.350533
0.419021 0.387171 0.361176
0.430121 0.397985 0.371745
0.441132 0.408719 0.382238
0.452052 0.419370 0.392657
0.328766 0.299447 0.275604
0.340569 0.310899 0.286760
0.352283 0.322270 0.297841
0.363907 0.333560 0.308848
0.375441 0.344768 0.319779
0.386885 0.355895 0.330636
0.398241 0.366941 0.341418
0.409506 0.377906 0.352125
0.420682 0.388789 0.362757
0.431769 0.399591 0.373314
0.442766 0.410312 0.383796
0.453673 0.420952 0.394204
0.464491 0.431510 0.404537
0.475219 0.441988 0.414794
0.485858 0.452384 0.424977
0.496407 0.462699 0.435086
0.506867 0.472932 0.445119
0.388584 0.357547 0.332249
0.399926 0.368581 0.343019
0.411179 0.379534 0.353715
0.422341 0.390405 0.364336
0.433414 0.401195 0.374882
0.444398 0.411904 0.385353
0.455292 0.422532 0.395750
0.466096 0.433078 0.406071
0.476811 0.443543 0.416318
0.487437 0.453927 0.426490
0.497973 0.464230 0.436586
0.508419 0.474452 0.446609
0.518776 0.484592 0.456556
0.529043 0.494651 0.466428
0.539221 0.504629 0.476226
0.549309 0.514525 0.485948
0.559307 0.524341 0.495596
0.446028 0.413494 0.386908
0.456909 0.424109 0.397294
0.467700 0.434644 0.407604
0.478402 0.445097 0.417839
0.489014 0.455469 0.428000
0.499536 0.465759 0.438086
0.509969 0.475969 0.448097
0.520312 0.486097 0.458033
0.530566 0.496144 0.467894
0.540731 0.506110 0.477680
0.550805 0.515994 0.487392
0.560791 0.525797 0.497028
0.570686 0.535520 0.506590
0.580492 0.545160 0.516077
0.590209 0.554720 0.525489
0.599836 0.564198 0.534826
0.609373 0.573596 0.544089
0.501098 0.467287 0.439583
0.511517 0.477484 0.449583
0.521847 0.487600 0.459508
0.532088 0.497635 0.469358
0.542239 0.507589 0.479133
0.552300 0.517461 0.488834
0.562272 0.527252 0.498459
0.572154 0.536962 0.508010
0.581947 0.546591 0.517485
0.591650 0.556139 0.526886
0.601264 0.565605 0.536212
0.610788 0.574990 0.545464
0.620222 0.584294 0.554640
0.629567 0.593516 0.563741
0.638823 0.602658 0.572768
0.647989 0.611718 0.581720
0.657065 0.620697 0.590596
0.553793 0.518927 0.490274
0.563751 0.528706 0.499888
0.573620 0.538403 0.509427
0.583400 0.548020 0.518892
0.593089 0.557555 0.528282
0.602690 0.567010 0.537597
0.612200 0.576383 0.546837
0.621622 0.585674 0.556002
0.630953 0.594885 0.565092
0.640195 0.604014 0.574108
0.649348 0.613062 0.583048
0.658411 0.622029 0.591914
0.667384 0.630914 0.600705
0.676268 0.639719 0.609421
0.685062 0.648442 0.618062
0.693767 0.657084 0.626628
0.702382 0.665645 0.635120
0.604114 0.568412 0.538979
0.613611 0.577773 0.548208
0.623019 0.587053 0.557362
0.632337 0.596251 0.566441
0.641566 0.605368 0.575446
0.650705 0.614404 0.584375
0.659755 0.623359 0.593230
0.668715 0.632233 0.602009
0.677585 0.641025 0.610714
0.686366 0.649736 0.619344
0.695058 0.658366 0.627899
0.703659 0.666914 0.636380
0.712172 0.675381 0.644785
0.720595 0.683768 0.653116
0.728928 0.692073 0.661371
0.737171 0.700296 0.669552
0.745326 0.708439 0.677658
0.652060 0.615745 0.585700
0.661096 0.624687 0.594544
0.670043 0.633549 0.603312
0.678900 0.642329 0.612006
0.687668 0.651028 0.620625
0.696346 0.659645 0.629169
0.704934 0.668182 0.637638
0.713433 0.676637 0.646032
0.721843 0.685011 0.654351
0.730163 0.693304 0.662596
0.738393 0.701516 0.670766
0.746534 0.709646 0.678860
0.754585 0.717695 0.686881
0.762547 0.725663 0.694826
0.770419 0.733550 0.702696
0.778201 0.741355 0.710491
0.785894 0.749079 0.718212
0.000000 0.000000 0.000000
0.000000 0.000000 0.000000
0.000000 0.000000 0.000000
0.000000 0.000000 0.000000
0.000000 0.000000 0.000000
0.000000 0.000000 0.000000
0.000000 0.000000 0.000000
0.000000 0.000000 0.000000
0.000000 0.000000 0.000000
0.000000 0.000000 0.000000
0.000000 0.000000 0.000000
0.000000 0.000000 0.000000
0.000000 0.000000 0.000000
0.000000 0.000000 0.000000
0.000000 0.000000 0.000000
0.000000 0.000000 0.000000
0.000000 0.000000 0.000000
0.000000 0.000000 0.000000
0.000000 0.000000 0.000000
0.000000 0.000000 0.000000
0.000000 0.000000 0.000000
0.000000 0.000000 0.000000
0.000000 0.000000 0.000000
0.000000 0.000000 0.000000
0.000000 0.000000 0.000000
0.000000 0.000000 0.000000
0.000000 0.000000 0.000000
0.000000 0.000000 0.000000
0.000000 0.000000 0.000000
0.000000 0.000000 0.000000
0.000000 0.000000 0.000000
0.000000 0.000000 0.000000
0.000000 0.000000 0.000000
0.000000 0.000000 0.000000
0.000000 0.000000 0.000000
0.000000 0.000000 0.000000
0.000000 0.000000 0.000000
0.000000 0.000000 0.000000
0.000000 0.000000 0.000000
0.000000 0.000000 0.000000
0.000000 0.000000 0.000000
0.000000 0.000000 0.000000
0.000000 0.000000 0.000000
0.000000 0.000000 0.000000
0.000000 0.000000 0.000000
0.000000 0.000000 0.000000
0.000000 0.000000 0.000000
0.000000 0.000000 0.000000
0.010636 0.000000 0.000000
0.024639 0.006002 0.000000
0.038553 0.019368 0.003898
0.000000 0.000000 0.000000
0.000000 0.000000 0.000000
0.000000 0.000000 0.000000
0.000000 0.000000 0.000000
0.000000 0.000000 0.000000
0.000000 0.000000 0.000000
0.000000 0.000000 0.000000
0.000000 0.000000 0.000000
0.000000 0.000000 0.000000
0.012730 0.000000 0.000000
0.026720 0.008000 0.000000
0.040620 0.021354 0.005818
0.054431 0.034628 0.018653
0.068152 0.047819 0.031412
0.081784 0.060930 0.044097
0.095326 0.073960 0.056707
0.108778 0.086908 0.069242
0.000000 0.000000 0.000000
0.000000 0.000000 0.000000
0.000000 0.000000 0.000000
0.000756 0.000000 0.000000
0.014822 0.000000 0.000000
0.028798 0.009997 0.000000
0.042685 0.023339 0.007737
0.056483 0.036600 0.020560
0.070191 0.049780 0.033309
0.083809 0.062878 0.045982
0.097338 0.075896 0.058581
0.110777 0.088832 0.071105
0.124126 0.101687 0.083554
0.137387 0.114461 0.095928
0.150557 0.127153 0.108227
0.163638 0.139764 0.120452
0.176629 0.152294 0.132601
0.030875 0.011991 0.000000
0.044749 0.025322 0.009654
0.058533 0.038570 0.022466
0.072227 0.051738 0.035203
0.085832 0.064825 0.047866
0.099347 0.077830 0.060453
0.112773 0.090754 0.072966
0.126109 0.103597 0.085404
0.139356 0.116358 0.097767
0.152513 0.129039 0.110055
0.165581 0.141638 0.122268
0.178559 0.154156 0.134407
0.191448 0.166593 0.146470
0.204246 0.178948 0.158459
0.216956 0.191222 0.170373
0.229576 0.203415 0.182212
0.242106 0.215527 0.193976
0.101355 0.079762 0.062324
0.114768 0.092674 0.074825
0.128091 0.105505 0.087252
0.141324 0.118254 0.099604
0.154468 0.130923 0.111881
0.167522 0.143510 0.124083
0.180487 0.156016 0.136210
0.193362 0.168440 0.148263
0.206147 0.180783 0.160240
0.218843 0.193046 0.172143
0.231450 0.205226 0.183971
0.243967 0.217326 0.195724
0.256394 0.229345 0.207402
0.268732 0.241282 0.219005
0.280980 0.253138 0.230534
0.293139 0.264913 0.241987
0.305208 0.276606 0.253366
0.169461 0.145380 0.125896
0.182412 0.157873 0.138012
0.195274 0.170286 0.150054
0.208046 0.182617 0.162020
0.220729 0.194867 0.173911
0.233322 0.207036 0.185728
0.245826 0.219124 0.197470
0.258240 0.231130 0.209137
0.270564 0.243055 0.220729
0.282799 0.254899 0.232246
0.294945 0.266662 0.243689
0.307001 0.278343 0.255056
0.318967 0.289943 0.266349
0.330844 0.301462 0.277567
0.342631 0.312900 0.288710
0.354328 0.324256 0.299778
0.365937 0.335532 0.310771
0.235192 0.208844 0.187484
0.247683 0.220919 0.199215
0.260083 0.232913 0.210870
0.272395 0.244826 0.222451
0.284616 0.256658 0.233957
0.296748 0.268409 0.245389
0.308791 0.280078 0.256745
0.320744 0.291666 0.268026
0.332607 0.303173 0.279233
0.344381 0.314599 0.290365
0.356065 0.325943 0.301422
0.367660 0.337206 0.312404
0.379165 0.348388 0.323311
0.390581 0.359489 0.334144
0.401907 0.370508 0.344901
0.413143 0.381447 0.355584
0.424290 0.392304 0.366192
0.298550 0.270154 0.247087
0.310579 0.281811 0.258432
0.322518 0.293387 0.269702
0.334368 0.304882 0.280898
0.346129 0.316295 0.292019
0.357800 0.327628 0.303064
0.369381 0.338879 0.314035
0.380873 0.350049 0.324931
0.392275 0.361137 0.335753
0.403588 0.372145 0.346499
0.414811 0.383071 0.357170
0.425945 0.393916 0.367767
0.436989 0.404680 0.378289
0.447944 0.415362 0.388736
0.458808 0.425963 0.399108
0.469584 0.436484 0.409405
0.480270 0.446922 0.419627
0.359533 0.329311 0.304705
0.371101 0.340550 0.315665
0.382579 0.351707 0.326550
0.393968 0.362784 0.337360
0.405267 0.373779 0.348095
0.416477 0.384693 0.358755
0.427597 0.395526 0.369341
0.438628 0.406278 0.379851
0.449569 0.416948 0.390287
0.460421 0.427537 0.400648
0.471183 0.438045 0.410934
0.481856 0.448472 0.421145
0.492439 0.458818 0.431282
0.502932 0.469082 0.441343
0.513336 0.479265 0.451330
0.523650 0.489367 0.461241
0.533875 0.499387 0.471078
0.418141 0.386314 0.360339
0.429248 0.397135 0.370913
0.440266 0.407874 0.381412
0.451193 0.418532 0.391837
0.462032 0.429110 0.402187
0.472780 0.439605 0.412462
0.483440 0.450020 0.422662
0.494009 0.460353 0.432787
0.504489 0.470606 0.442837
0.514880 0.480776 0.452813
0.525181 0.490866 0.462713
0.535392 0.500875 0.472539
0.545514 0.510802 0.482290
0.555546 0.520648 0.491966
0.565489 0.530413 0.501567
0.575342 0.540096 0.511093
0.585106 0.549699 0.520545
0.474376 0.441164 0.413987
0.485021 0.451566 0.424176
0.495578 0.461887 0.434290
0.506044 0.472127 0.444329
0.516421 0.482286 0.454294
0.526709 0.492364 0.464183
0.536907 0.502360 0.473998
0.547016 0.512275 0.483737
0.557035 0.522109 0.493402
0.566964 0.531862 0.502992
0.576804 0.541533 0.512507
0.586554 0.551124 0.521948
0.596215 0.560633 0.531313
0.605786 0.570061 0.540604
0.615268 0.579407 0.549820
0.624660 0.588672 0.558960
0.633963 0.597857 0.568026
0.528236 0.493860 0.465651
0.538420 0.503844 0.475455
0.548515 0.513747 0.485183
0.558521 0.523569 0.494837
0.568437 0.533309 0.504416
0.578264 0.542969 0.513920
0.588001 0.552547 0.523349
0.597648 0.562044 0.532703
0.607206 0.571459 0.541983
0.616674 0.580794 0.551187
0.626053 0.590047 0.560317
0.635342 0.599219 0.569372
0.644542 0.608310 0.578352
0.653652 0.617320 0.587257
0.662672 0.626248 0.596087
0.671603 0.635095 0.604843
0.680445 0.643861 0.613523
0.579721 0.544402 0.515331
0.589445 0.553968 0.524749
0.599079 0.563453 0.534092
0.608624 0.572857 0.543360
0.618078 0.582179 0.552554
0.627444 0.591420 0.561672
0.636720 0.600580 0.570716
0.645906 0.609659 0.579685
0.655003 0.618656 0.588579
0.664010 0.627572 0.597398
0.672928 0.636407 0.606142
0.681756 0.645161 0.614811
0.690494 0.653834 0.623406
0.699143 0.662425 0.631926
0.707703 0.670935 0.640370
0.716173 0.679364 0.648740
0.724553 0.687712 0.657036
0.628833 0.592791 0.563025
0.638095 0.601939 0.572058
0.647268 0.611006 0.581016
0.656352 0.619991 0.589898
0.665345 0.628895 0.598706
0.674250 0.637718 0.607440
0.683065 0.646460 0.616098
0.691790 0.655120 0.624681
0.700425 0.663699 0.633190
0.708971 0.672197 0.641623
0.717428 0.680614 0.649982
0.725795 0.688949 0.658266
0.734072 0.697204 0.666475
0.742260 0.705377 0.674609
0.750359 0.713469 0.682669
0.758367 0.721479 0.690653
0.766287 0.729409 0.698563
0.675570 0.639027 0.608735
0.684371 0.647756 0.617382
0.693083 0.656404 0.625955
0.701705 0.664972 0.634452
0.710238 0.673458 0.642875
0.718681 0.681862 0.651222
0.727035 0.690186 0.659495
0.735299 0.698428 0.667693
0.743474 0.706589 0.675816
0.751559 0.714668 0.683864
0.759554 0.722667 0.691838
0.767460 0.730584 0.699736
0.775276 0.738420 0.707560
0.783003 0.746175 0.715309
0.790640 0.753849 0.722982
0.798188 0.761441 0.730582
0.805646 0.768952 0.738106
0.000000 0.000000 0.000000
0.000000 0.000000 0.000000
0.000000 0.000000 0.000000
0.000000 0.000000 0.000000
0.000000 0.000000 0.000000
0.000000 0.000000 0.000000
0.000000 0.000000 0.000000
0.000000 0.000000 0.000000
0.000000 0.000000 0.000000
0.000000 0.000000 0.000000
0.000000 0.000000 0.000000
0.000000 0.000000 0.000000
0.000000 0.000000 0.000000
0.000000 0.000000 0.000000
0.000000 0.000000 0.000000
0.000000 0.000000 0.000000
0.000000 0.000000 0.000000
0.000000 0.000000 0.000000
0.000000 0.000000 0.000000
0.000000 0.000000 0.000000
0.000000 0.000000 0.000000
0.000000 0.000000 0.000000
0.000000 0.000000 0.000000
0.000000 0.000000 0.000000
0.000000 0.000000 0.000000
0.000000 0.000000 0.000000
0.000000 0.000000 0.000000
0.000000 0.000000 0.000000
0.000000 0.000000 0.000000
0.000000 0.000000 0.000000
0.000000 0.000000 0.000000
0.000000 0.000000 0.000000
0.000000 0.000000 0.000000
0.003230 0.000000 0.000000
0.000000 0.000000 0.000000
0.000000 0.000000 0.000000
0.000000 0.000000 0.000000
0.000000 0.000000 0.000000
0.000000 0.000000 0.000000
0.000000 0.000000 0.000000
0.000000 0.000000 0.000000
0.000000 0.000000 0.000000
0.000000 0.000000 0.000000
0.000000 0.000000 0.000000
0.000000 0.000000 0.000000
0.005331 0.000000 0.000000
0.019368 0.000939 0.000000
0.033316 0.014336 0.000000
0.047173 0.027652 0.011907
0.060942 0.040887 0.024706
0.074620 0.054040 0.037430
0.000000 0.000000 0.000000
0.000000 0.000000 0.000000
0.000000 0.000000 0.000000
0.000000 0.000000 0.000000
0.000000 0.000000 0.000000
0.000000 0.000000 0.000000
0.007430 0.000000 0.000000
0.021454 0.002942 0.000000
0.035388 0.016327 0.000958
0.049232 0.029631 0.013820
0.062987 0.042853 0.026608
0.076653 0.055994 0.039321
0.090228 0.069055 0.051959
0.103715 0.082034 0.064523
0.117111 0.094931 0.077011
0.130419 0.107748 0.089425
0.143636 0.120483 0.101763
0.000000 0.000000 0.000000
0.009527 0.000000 0.000000
0.023537 0.004943 0.000000
0.037458 0.018316 0.002880
0.051289 0.031608 0.015732
0.065031 0.044818 0.028509
0.078683 0.057947 0.041211
0.092245 0.070995 0.053838
0.105718 0.083962 0.066390
0.119102 0.096848 0.078867
0.132395 0.109652 0.091269
0.145600 0.122375 0.103597
0.158714 0.135017 0.115849
0.171740 0.147578 0.128027
0.184675 0.160057 0.140130
0.197521 0.172455 0.152158
0.210278 0.184772 0.164112
0.067072 0.046781 0.030408
0.080711 0.059898 0.043098
0.094260 0.072934 0.055714
0.107720 0.085889 0.068255
0.121090 0.098762 0.080721
0.134370 0.111554 0.093112
0.147561 0.124265 0.105429
0.160662 0.136895 0.117670
0.173674 0.149444 0.129837
0.186597 0.161911 0.141929
0.199429 0.174297 0.153946
0.212172 0.186602 0.165888
0.224826 0.198826 0.177755
0.237390 0.210968 0.189547
0.249865 0.223029 0.201265
0.262250 0.235009 0.212908
0.274545 0.246908 0.224475
0.136343 0.113455 0.094954
0.149520 0.126154 0.107259
0.162608 0.138772 0.119489
0.175607 0.151308 0.131645
0.188516 0.163763 0.143725
0.201335 0.176137 0.155731
0.214065 0.188430 0.167662
0.226705 0.200641 0.179518
0.239256 0.212772 0.191299
0.251717 0.224821 0.203006
0.264089 0.236789 0.214637
0.276371 0.248675 0.226194
0.288564 0.260481 0.237676
0.300667 0.272205 0.249083
0.312680 0.283848 0.260415
0.324604 0.295410 0.271672
0.336438 0.306890 0.282854
0.203239 0.177976 0.157515
0.215956 0.190256 0.169435
0.228583 0.202456 0.181280
0.241120 0.214574 0.193050
0.253568 0.226611 0.204745
0.265926 0.238567 0.216365
0.278195 0.250441 0.227911
0.290374 0.262234 0.239382
0.302464 0.273946 0.250777
0.314464 0.285577 0.262098
0.326374 0.297127 0.273344
0.338195 0.308595 0.284516
0.349927 0.319982 0.295612
0.361569 0.331288 0.306633
0.373121 0.342513 0.317580
0.384584 0.353657 0.328452
0.395957 0.364719 0.339249
0.267761 0.240342 0.218092
0.280017 0.252205 0.229626
0.292183 0.263986 0.241086
0.304259 0.275686 0.252470
0.316246 0.287305 0.263780
0.328143 0.298842 0.275015
0.339950 0.310299 0.286175
0.351668 0.321674 0.297260
0.363297 0.332967 0.308270
0.374836 0.344180 0.319206
0.386285 0.355311 0.330067
0.397645 0.366362 0.340852
0.408916 0.377331 0.351563
0.420096 0.388218 0.362199
0.431188 0.399025 0.372760
0.442189 0.409750 0.383247
0.453101 0.420394 0.393658
0.329909 0.300556 0.276684
0.341703 0.312000 0.287833
0.353408 0.323363 0.298907
0.365023 0.334645 0.309906
0.376549 0.345845 0.320830
0.387985 0.356964 0.331680
0.399332 0.368002 0.342454
0.410588 0.378959 0.353154
0.421756 0.389835 0.363779
0.432834 0.400629 0.374329
0.443822 0.411342 0.384804
0.454721 0.421974 0.395204
0.465530 0.432525 0.405530
0.476250 0.442994 0.415780
0.486880 0.453383 0.425956
0.497420 0.463690 0.436057
0.507871 0.473916 0.446083
0.389683 0.358616 0.333291
0.401016 0.369641 0.344055
0.412260 0.380586 0.354743
0.423414 0.391450 0.365357
0.434478 0.402232 0.375896
0.445453 0.412933 0.386360
0.456338 0.423553 0.396749
0.467134 0.434091 0.407063
0.477841 0.444549 0.417303
0.488457 0.454925 0.427467
0.498985 0.465220 0.437557
0.509422 0.475433 0.447572
0.519770 0.485566 0.457512
0.530029 0.495617 0.467377
0.540198 0.505587 0.477167
0.550277 0.515476 0.486882
0.560267 0.525284 0.496523
0.447082 0.414522 0.387914
0.457954 0.425130 0.398292
0.468737 0.435656 0.408595
0.479430 0.446101 0.418823
0.490033 0.456465 0.428976
0.500547 0.466748 0.439055
0.510971 0.476950 0.449059
0.521306 0.487070 0.458988
0.531551 0.497109 0.468842
0.541707 0.507067 0.478621
0.551773 0.516944 0.488325
0.561749 0.526739 0.497954
0.571636 0.536453 0.507509
0.581434 0.546086 0.516989
0.591142 0.555638 0.526393
0.600760 0.565109 0.535723
0.610289 0.574498 0.544979
0.502107 0.468275 0.440552
0.512518 0.478464 0.450544
0.522839 0.488572 0.460462
0.533071 0.498599 0.470305
0.543213 0.508545 0.480073
0.553266 0.518410 0.489766
0.563229 0.528193 0.499384
0.573103 0.537895 0.508927
0.582887 0.547516 0.518396
0.592582 0.557056 0.527789
0.602187 0.566514 0.537108
0.611702 0.575891 0.546352
0.621128 0.585187 0.555521
0.630464 0.594402 0.564616
0.639711 0.603535 0.573635
0.648868 0.612588 0.582579
0.657936 0.621559 0.591449
0.554758 0.519874 0.491205
0.564707 0.529645 0.500812
0.574568 0.539335 0.510344
0.584338 0.548944 0.519801
0.594020 0.558471 0.529184
0.603611 0.567917 0.538491
0.613113 0.577283 0.547724
0.622526 0.586567 0.556882
0.631849 0.595769 0.565965
0.641082 0.604891 0.574974
0.650226 0.613931 0.583907
0.659280 0.622890 0.592765
0.668245 0.631768 0.601549
0.677121 0.640564 0.610258
0.685906 0.649279 0.618892
0.694602 0.657913 0.627451
0.703209 0.666466 0.635935
0.605034 0.569319 0.539873
0.614523 0.578672 0.549095
0.623922 0.587944 0.558241
0.633231 0.597134 0.567313
0.642452 0.606244 0.576310
0.651582 0.615272 0.585233
0.660623 0.624219 0.594080
0.669574 0.633084 0.602852
0.678436 0.641869 0.611550
0.687209 0.650572 0.620173
0.695891 0.659194 0.628721
0.704485 0.667735 0.637194
0.712988 0.676194 0.645592
0.721402 0.684573 0.653915
0.729727 0.692870 0.662164
0.737962 0.701085 0.670338
0.746108 0.709220 0.678436
0.652936 0.616611 0.586557
0.661964 0.625546 0.595393
0.670902 0.634399 0.604154
0.679750 0.643172 0.612841
0.688509 0.651863 0.621452
0.697179 0.660473 0.629989
0.705758 0.669001 0.638451
0.714249 0.677449 0.646838
0.722650 0.685815 0.655150
0.730961 0.694100 0.663388
0.739182 0.702304 0.671550
0.747314 0.710426 0.679638
0.755357 0.718467 0.687650
0.763310 0.726427 0.695588
0.771174 0.734306 0.703451
0.778947 0.742104 0.711240
0.786632 0.749820 0.718953
0.698464 0.661750 0.631256
0.707030 0.670266 0.639706
0.715507 0.678701 0.648082
0.723895 0.687056 0.656383
0.732192 0.695328 0.664610
0.740401 0.703520 0.672761
0.748519 0.711630 0.680837
0.756549 0.719660 0.688839
0.764488 0.727607 0.696766
0.772339 0.735474 0.704617
0.780099 0.743260 0.712395
0.787770 0.750964 0.720097
0.795352 0.758587 0.727724
0.802844 0.766129 0.735276
0.810246 0.773589 0.742754
0.817559 0.780969 0.750157
0.824782 0.788267 0.757485
0.000000 0.000000 0.000000
0.000000 0.000000 0.000000
0.000000 0.000000 0.000000
0.000000 0.000000 0.000000
0.000000 0.000000 0.000000
0.000000 0.000000 0.000000
0.000000 0.000000 0.000000
0.000000 0.000000 0.000000
0.000000 0.000000 0.000000
0.000000 0.000000 0.000000
0.000000 0.000000 0.000000
0.000000 0.000000 0.000000
0.000000 0.000000 0.000000
0.000000 0.000000 0.000000
0.000000 0.000000 0.000000
0.000000 0.000000 0.000000
