app/luts/mono_bw.cube
TITLE "黑白胶片"
# StyleForge original LUT. Cube format compatible with CubeLUT.cn / Premiere.
LUT_3D_SIZE 9
DOMAIN_MIN 0.0 0.0 0.0
DOMAIN_MAX 1.0 1.0 1.0
0.000000 0.000000 0.000000
0.000000 0.000000 0.000000
0.000000 0.000000 0.000000
0.000000 0.000000 0.000000
0.000000 0.000000 0.000000
0.000000 0.000000 0.000000
0.000000 0.000000 0.000000
0.000000 0.000000 0.000000
0.000000 0.000000 0.000000
0.000000 0.000000 0.000000
0.000000 0.000000 0.000000
0.000000 0.000000 0.000000
0.000000 0.000000 0.000000
0.000000 0.000000 0.000000
0.000000 0.000000 0.000000
0.000000 0.000000 0.000000
0.000000 0.000000 0.000000
0.001870 0.000000 0.000000
0.000000 0.000000 0.000000
0.000000 0.000000 0.000000
0.000000 0.000000 0.000000
0.006072 0.000000 0.000000
0.034047 0.015039 0.000000
0.061664 0.041581 0.025377
0.088922 0.067798 0.050743
0.115823 0.093690 0.075809
0.142365 0.119258 0.100576
0.065751 0.045511 0.029179
0.092957 0.071680 0.054500
0.119803 0.097524 0.079521
0.146292 0.123042 0.104244
0.172423 0.148236 0.128666
0.198195 0.173106 0.152789
0.223609 0.197650 0.176613
0.248665 0.221869 0.200137
0.273363 0.245763 0.223362
0.202008 0.176786 0.156361
0.227368 0.201282 0.180140
0.252371 0.225453 0.203620
0.277015 0.249299 0.226800
0.301301 0.272820 0.249681
0.325229 0.296016 0.272262
0.348799 0.318887 0.294544
0.372010 0.341434 0.316527
0.394863 0.363655 0.338210
0.328766 0.299447 0.275604
0.352283 0.322270 0.297841
0.375441 0.344768 0.319779
0.398241 0.366941 0.341418
0.420682 0.388789 0.362757
0.442766 0.410312 0.383796
0.464491 0.431510 0.404537
0.485858 0.452384 0.424977
0.506867 0.472932 0.445119
0.446028 0.413494 0.386908
0.467700 0.434644 0.407604
0.489014 0.455469 0.428000
0.509969 0.475969 0.448097
0.530566 0.496144 0.467894
0.550805 0.515994 0.487392
0.570686 0.535520 0.506590
0.590209 0.554720 0.525489
0.609373 0.573596 0.544089
0.553793 0.518927 0.490274
0.573620 0.538403 0.509427
0.593089 0.557555 0.528282
0.612200 0.576383 0.546837
0.630953 0.594885 0.565092
0.649348 0.613062 0.583048
0.667384 0.630914 0.600705
0.685062 0.648442 0.618062
0.702382 0.665645 0.635120
0.652060 0.615745 0.585700
0.670043 0.633549 0.603312
0.687668 0.651028 0.620625
0.704934 0.668182 0.637638
0.721843 0.685011 0.654351
0.738393 0.701516 0.670766
0.754585 0.717695 0.686881
0.770419 0.733550 0.702696
0.785894 0.749079 0.718212
0.000000 0.000000 0.000000
0.000000 0.000000 0.000000
0.000000 0.000000 0.000000
0.000000 0.000000 0.000000
0.000000 0.000000 0.000000
0.000000 0.000000 0.000000
0.000000 0.000000 0.000000
0.000000 0.000000 0.000000
0.000000 0.000000 0.000000
0.000000 0.000000 0.000000
0.000000 0.000000 0.000000
0.000000 0.000000 0.000000
0.000000 0.000000 0.000000
0.000000 0.000000 0.000000
0.000000 0.000000 0.000000
0.019368 0.000939 0.000000
0.047173 0.027652 0.011907
0.074620 0.054040 0.037430
0.000000 0.000000 0.000000
0.023537 0.004943 0.000000
0.051289 0.031608 0.015732
0.078683 0.057947 0.041211
0.105718 0.083962 0.066390
0.132395 0.109652 0.091269
0.158714 0.135017 0.115849
0.184675 0.160057 0.140130
0.210278 0.184772 0.164112
0.136343 0.113455 0.094954
0.162608 0.138772 0.119489
0.188516 0.163763 0.143725
0.214065 0.188430 0.167662
0.239256 0.212772 0.191299
0.264089 0.236789 0.214637
0.288564 0.260481 0.237676
0.312680 0.283848 0.260415
0.336438 0.306890 0.282854
0.267761 0.240342 0.218092
0.292183 0.263986 0.241086
0.316246 0.287305 0.263780
0.339950 0.310299 0.286175
0.363297 0.332967 0.308270
0.386285 0.355311 0.330067
0.408916 0.377331 0.351563
0.431188 0.399025 0.372760
0.453101 0.420394 0.393658
0.389683 0.358616 0.333291
0.412260 0.380586 0.354743
0.434478 0.402232 0.375896
0.456338 0.423553 0.396749
0.477841 0.444549 0.417303
0.498985 0.465220 0.437557
0.519770 0.485566 0.457512
0.540198 0.505587 0.477167
0.560267 0.525284 0.496523
0.502107 0.468275 0.440552
0.522839 0.488572 0.460462
0.543213 0.508545 0.480073
0.563229 0.528193 0.499384
0.582887 0.547516 0.518396
0.602187 0.566514 0.537108
0.621128 0.585187 0.555521
0.639711 0.603535 0.573635
0.657936 0.621559 0.591449
0.605034 0.569319 0.539873
0.623922 0.587944 0.558241
0.642452 0.606244 0.576310
0.660623 0.624219 0.594080
0.678436 0.641869 0.611550
0.695891 0.659194 0.628721
0.712988 0.676194 0.645592
0.729727 0.692870 0.662164
0.746108 0.709220 0.678436
0.698464 0.661750 0.631256
0.715507 0.678701 0.648082
0.732192 0.695328 0.664610
0.748519 0.711630 0.680837
0.764488 0.727607 0.696766
0.780099 0.743260 0.712395
0.795352 0.758587 0.727724
0.810246 0.773589 0.742754
0.824782 0.788267 0.757485
0.000000 0.000000 0.000000
0.000000 0.000000 0.000000
0.000000 0.000000 0.000000
0.000000 0.000000 0.000000
0.000000 0.000000 0.000000
0.000000 0.000000 0.000000
0.000000 0.000000 0.000000
0.000000 0.000000 0.000000
0.004590 0.000000 0.000000
0.000000 0.000000 0.000000
0.000000 0.000000 0.000000
0.000000 0.000000 0.000000
0.008787 0.000000 0.000000
0.036727 0.017614 0.002202
0.064310 0.044125 0.027838
0.091534 0.070310 0.053175
0.118399 0.096171 0.078212
0.144907 0.121707 0.102950
0.068392 0.048050 0.031635
0.095563 0.074188 0.056927
0.122375 0.100000 0.081920
0.148829 0.125488 0.106613
0.174925 0.150650 0.131007
0.200663 0.175488 0.155101
0.226042 0.200001 0.178896
0.251064 0.224189 0.202392
0.275727 0.248052 0.225588
0.204470 0.179164 0.158669
0.229796 0.203628 0.182419
0.254764 0.227768 0.205870
0.279374 0.251582 0.229021
0.303626 0.275072 0.251873
0.327519 0.298237 0.274425
0.351054 0.321077 0.296679
0.374231 0.343592 0.318632
0.397050 0.365782 0.340286
0.331051 0.301664 0.277763
0.354533 0.324455 0.299971
0.377656 0.346922 0.321880
0.400422 0.369063 0.343490
0.422829 0.390880 0.364800
0.444878 0.412372 0.385811
0.466568 0.433539 0.406522
0.487901 0.454381 0.426934
0.508875 0.474898 0.447046
0.448135 0.415549 0.388918
0.469772 0.436667 0.409585
0.491051 0.457461 0.429952
0.511972 0.477930 0.450020
0.532535 0.498073 0.469788
0.552739 0.517892 0.489257
0.572586 0.537386 0.508427
0.592074 0.556555 0.527297
0.611203 0.575400 0.545868
0.555722 0.520820 0.492135
0.575514 0.540266 0.511260
0.594949 0.559386 0.530085
0.614025 0.578182 0.548611
0.632744 0.596653 0.566838
0.651104 0.614799 0.584765
0.669106 0.632620 0.602393
0.686749 0.650116 0.619721
0.704035 0.667287 0.636750
0.653811 0.617477 0.587413
0.671759 0.635249 0.604996
0.689350 0.652697 0.622279
0.706582 0.669820 0.639264
0.723455 0.686618 0.655948
0.739971 0.703091 0.672334
0.756128 0.719239 0.688420
0.771928 0.735062 0.704206
0.787369 0.750561 0.719693
0.742403 0.705520 0.674751
0.758507 0.721619 0.690793
0.774253 0.737394 0.706535
0.789641 0.752844 0.721977
0.804670 0.767969 0.737120
0.819341 0.782769 0.751964
0.833654 0.797244 0.766508
0.847609 0.811394 0.780752
0.861205 0.825220 0.794698
0.000000 0.000000 0.000000
0.000000 0.000000 0.000000
0.000000 0.000000 0.000000
0.000000 0.000000 0.000000
0.000000 0.000000 0.000000
0.000000 0.000000 0.000000
0.022067 0.003530 0.000000
0.049837 0.030212 0.014383
0.077250 0.056569 0.039877
0.000000 0.000000 0.000000
0.026231 0.007530 0.000000
0.053948 0.034163 0.018204
0.081307 0.060472 0.043653
0.108308 0.086455 0.068803
0.134951 0.112114 0.093654
0.161235 0.137447 0.118205
0.187161 0.162456 0.142457
0.212729 0.187140 0.166410
0.138893 0.115912 0.097334
0.165124 0.141197 0.121841
0.190997 0.166157 0.146048
0.216511 0.190793 0.169956
0.241668 0.215103 0.193564
0.266466 0.239089 0.216873
0.290906 0.262750 0.239883
0.314988 0.286085 0.262593
0.338712 0.309096 0.285004
0.270133 0.242638 0.220324
0.294520 0.266250 0.243288
0.318548 0.289538 0.265954
0.342219 0.312500 0.288320
0.365531 0.335138 0.310387
0.388485 0.357450 0.332154
0.411080 0.379438 0.353622
0.433318 0.401101 0.374790
0.455197 0.422439 0.395659
0.391877 0.360750 0.335374
0.414419 0.382689 0.356797
0.436603 0.404303 0.377921
0.458429 0.425593 0.398745
0.479896 0.446557 0.419270
0.501006 0.467197 0.439495
0.521757 0.487512 0.459421
0.542150 0.507502 0.479048
0.562185 0.527167 0.498375
0.504123 0.470247 0.442486
0.524821 0.490514 0.462367
0.545160 0.510455 0.481949
0.565142 0.530071 0.501231
0.584765 0.549363 0.520214
0.604030 0.568330 0.538898
0.622937 0.586972 0.557282
0.641485 0.605289 0.575367
0.659676 0.623281 0.593152
0.606872 0.571131 0.541658
0.625725 0.589724 0.559998
0.644221 0.607992 0.578038
0.662358 0.625936 0.595779
0.680136 0.643555 0.613220
0.697557 0.660849 0.630362
0.714619 0.677817 0.647204
0.731323 0.694461 0.663747
0.747669 0.710781 0.679991
0.700124 0.663400 0.632892
0.717133 0.680320 0.649690
0.733783 0.696916 0.666188
0.750076 0.713186 0.682387
0.766010 0.729132 0.698287
0.781586 0.744753 0.713887
0.796804 0.760049 0.729187
0.811664 0.775020 0.744188
0.826166 0.789666 0.758890
0.783879 0.747054 0.716187
0.799043 0.762302 0.731443
0.813849 0.777224 0.746400
0.828297 0.791822 0.761057
0.842387 0.806095 0.775415
0.856119 0.820043 0.789473
0.869492 0.833666 0.803232
0.882508 0.846964 0.816691
0.895165 0.859937 0.829851
0.000000 0.000000 0.000000
0.000000 0.000000 0.000000
0.000000 0.000000 0.000000
0.011499 0.000000 0.000000
0.039405 0.020186 0.004689
0.066952 0.046666 0.030296
0.094142 0.072820 0.055604
0.120973 0.098650 0.080612
0.147446 0.124154 0.105321
0.071029 0.050586 0.034089
0.098165 0.076692 0.059352
0.124943 0.102473 0.084316
0.151363 0.127930 0.108980
0.177424 0.153061 0.133345
0.203127 0.177867 0.157410
0.228472 0.202349 0.181176
0.253459 0.226505 0.204643
0.278088 0.250337 0.227810
0.206930 0.181539 0.160973
0.232221 0.205972 0.184695
0.257154 0.230080 0.208117
0.281730 0.253863 0.231239
0.305947 0.277322 0.254062
0.329805 0.300455 0.276586
0.353306 0.323264 0.298810
0.376448 0.345747 0.320735
0.399232 0.367906 0.342360
0.333333 0.303877 0.279919
0.356780 0.326637 0.302098
0.379869 0.349072 0.323978
0.402599 0.371183 0.345559
0.424972 0.392968 0.366840
0.446986 0.414428 0.387822
0.468642 0.435564 0.408505
0.489940 0.456375 0.428888
0.510880 0.476860 0.448971
0.450238 0.417601 0.390926
0.471841 0.438688 0.411563
0.493086 0.459450 0.431902
0.513972 0.479888 0.451941
0.534500 0.500000 0.471680
0.554670 0.519788 0.491120
0.574482 0.539250 0.510261
0.593935 0.558388 0.529102
0.613030 0.577201 0.547644
0.557647 0.522711 0.493993
0.577405 0.542125 0.513089
0.596805 0.561214 0.531886
0.615847 0.579978 0.550383
0.634531 0.598418 0.568581
0.652856 0.616533 0.586479
0.670824 0.634322 0.604078
0.688433 0.651787 0.621377
0.705684 0.668927 0.638377
0.655558 0.619206 0.589122
0.673472 0.636947 0.606676
0.691028 0.654364 0.623931
0.708225 0.671455 0.640886
0.725065 0.688222 0.657542
0.741546 0.704663 0.673899
0.757668 0.720780 0.689956
0.773433 0.736572 0.705713
0.788840 0.752039 0.721172
0.743973 0.707087 0.676312
0.760042 0.723155 0.692325
0.775753 0.738899 0.708038
0.791106 0.754317 0.723451
0.806101 0.769411 0.738565
0.820738 0.784180 0.753380
0.835016 0.798624 0.767895
0.848936 0.812742 0.782111
0.862498 0.826536 0.796027
0.822890 0.786354 0.755564
0.837115 0.800750 0.770034
0.850982 0.814820 0.784205
0.864490 0.828566 0.798077
0.877640 0.841986 0.811649
0.890433 0.855082 0.824922
0.902867 0.867853 0.837896
0.914943 0.880299 0.850570
0.926660 0.892420 0.862944
0.000880 0.000000 0.000000
0.028921 0.010114 0.000000
0.056603 0.036716 0.020672
0.083928 0.062993 0.046093
0.110894 0.088945 0.071214
0.137502 0.114572 0.096036
0.163752 0.139874 0.120559
0.189644 0.164852 0.144782
0.215178 0.189504 0.168705
0.141440 0.118366 0.099712
0.167636 0.143620 0.124190
0.193474 0.168549 0.148368
0.218954 0.193153 0.172247
0.244076 0.217432 0.195827
0.268840 0.241386 0.219107
0.293245 0.265016 0.242087
0.317293 0.288320 0.264769
0.340982 0.311300 0.287150
0.272502 0.244931 0.222553
0.296854 0.268511 0.245489
0.320848 0.291767 0.268125
0.344484 0.314699 0.290462
0.367761 0.337305 0.312500
0.390680 0.359586 0.334238
0.413242 0.381542 0.355677
0.435444 0.403174 0.376817
0.457289 0.424480 0.397657
0.394068 0.362881 0.337454
0.416575 0.384789 0.358849
0.438725 0.406372 0.379943
0.460516 0.427630 0.400739
0.481949 0.448563 0.421235
0.503024 0.469172 0.441431
0.523740 0.489455 0.461328
0.544099 0.509414 0.480926
0.564099 0.529047 0.500224
0.506136 0.472217 0.444417
0.526799 0.492452 0.464270
0.547104 0.512362 0.483823
0.567051 0.531947 0.503076
0.586639 0.551207 0.522030
0.605870 0.570143 0.540685
0.624742 0.588753 0.559040
0.643256 0.607039 0.577096
0.661412 0.625000 0.594852
0.608707 0.572939 0.543441
0.627526 0.591501 0.561752
0.645986 0.609738 0.579763
0.664089 0.627650 0.597475
0.681833 0.645238 0.614887
0.699219 0.662500 0.632000
0.716246 0.679438 0.648813
0.732916 0.696050 0.665327
0.749227 0.712338 0.681542
0.701781 0.665046 0.634526
0.718755 0.681935 0.651295
0.735371 0.698500 0.667765
0.751629 0.714739 0.683935
0.767529 0.730653 0.699805
0.783071 0.746243 0.715376
0.798254 0.761508 0.730648
0.813079 0.776447 0.745620
0.827546 0.791062 0.760293
0.785357 0.748540 0.717673
0.800487 0.763756 0.732900
0.815259 0.778647 0.747827
0.829673 0.793214 0.762455
0.843728 0.807455 0.776784
0.857425 0.821372 0.790813
0.870764 0.834963 0.804543
0.883745 0.848230 0.817974
0.896367 0.861172 0.831105
0.859437 0.823419 0.792880
0.872722 0.836962 0.806565
0.885650 0.850181 0.819951
0.898219 0.863074 0.833037
0.910430 0.875642 0.845824
0.922282 0.887886 0.858312
0.933777 0.899805 0.870500
0.944913 0.911398 0.882389
0.955691 0.922667 0.893978
0.073663 0.053120 0.036540
0.100765 0.079194 0.061774
0.127508 0.104944 0.086709
0.153893 0.130369 0.111344
0.179920 0.155469 0.135680
0.205588 0.180244 0.159716
0.230899 0.204694 0.183454
0.255851 0.228819 0.206891
0.280445 0.252620 0.230029
0.209386 0.183910 0.163275
0.234643 0.208312 0.186968
0.259541 0.232389 0.210361
0.284082 0.256141 0.233454
0.308264 0.279568 0.256249
0.332089 0.302670 0.278743
0.355555 0.325447 0.300939
0.378662 0.347899 0.322834
0.401412 0.370027 0.344431
0.335611 0.306087 0.282072
0.359023 0.328816 0.304223
0.382078 0.351220 0.326074
0.404774 0.373299 0.347626
0.427112 0.395053 0.368878
0.449091 0.416482 0.389831
0.470713 0.437586 0.410485
0.491976 0.458365 0.430839
0.512882 0.478820 0.450893
0.452338 0.419650 0.392930
0.473907 0.440705 0.413539
0.495116 0.461436 0.433848
0.515968 0.481842 0.453858
0.536462 0.501923 0.473569
0.556597 0.521680 0.492980
0.576374 0.541111 0.512092
0.595793 0.560217 0.530904
0.614854 0.578999 0.549417
0.559569 0.524598 0.495849
0.579293 0.543981 0.514916
0.598658 0.563039 0.533684
0.617666 0.581772 0.552152
0.636315 0.600180 0.570321
0.654606 0.618263 0.588190
0.672538 0.636022 0.605760
0.690113 0.653455 0.623031
0.707329 0.670564 0.640002
0.657303 0.620932 0.590829
0.675182 0.638642 0.608354
0.692703 0.656027 0.625580
0.709866 0.673087 0.642507
0.726670 0.689822 0.659134
0.743117 0.706233 0.675461
0.759205 0.722318 0.691489
0.774935 0.738078 0.707218
0.790307 0.753514 0.722647
0.745539 0.708652 0.677870
0.761574 0.724689 0.693854
0.777250 0.740401 0.709538
0.792569 0.755788 0.724923
0.807529 0.770850 0.740008
0.822131 0.785588 0.754794
0.836375 0.800000 0.769280
0.850261 0.814088 0.783467
0.863788 0.827850 0.797354
0.824278 0.787757 0.756973
0.838468 0.802121 0.771415
0.852301 0.816161 0.785557
0.865775 0.829875 0.799400
0.878890 0.843264 0.812943
0.891648 0.856328 0.826187
0.904047 0.869068 0.839132
0.916089 0.881482 0.851777
0.927772 0.893572 0.864123
0.893520 0.858249 0.828136
0.905866 0.870940 0.841036
0.917854 0.883306 0.853637
0.929483 0.895347 0.865938
0.940755 0.907063 0.877939
0.951668 0.918455 0.889642
0.962223 0.929522 0.901044
0.972420 0.940263 0.912148
0.982258 0.950680 0.922952
0.143983 0.120817 0.102087
0.170145 0.146039 0.126536
0.195949 0.170937 0.150685
0.221394 0.195510 0.174535
0.246481 0.219757 0.198086
0.271210 0.243680 0.221337
0.295581 0.267278 0.244289
0.319594 0.290551 0.266941
0.343249 0.313500 0.289294
0.274867 0.247220 0.224779
0.299185 0.270770 0.247686
0.323144 0.293994 0.270293
0.346745 0.316894 0.292602
0.369988 0.339469 0.314611
0.392873 0.361719 0.336320
0.415399 0.383644 0.357730
0.437568 0.405244 0.378840
0.459378 0.426519 0.399652
0.396255 0.365009 0.339532
0.418728 0.386885 0.360897
0.440843 0.408437 0.381963
0.462600 0.429664 0.402729
0.483998 0.450566 0.423196
0.505038 0.471143 0.443364
0.525720 0.491395 0.463232
0.546044 0.511322 0.482801
0.566010 0.530924 0.502070
0.508145 0.474184 0.446346
0.528774 0.494387 0.466169
0.549044 0.514266 0.485693
0.568957 0.533820 0.504918
0.588511 0.553049 0.523843
0.607706 0.571953 0.542469
0.626544 0.590532 0.560796
0.645023 0.608786 0.578822
0.663145 0.626716 0.596550
0.610538 0.574744 0.545221
0.629322 0.593275 0.563503
0.647749 0.611481 0.581485
0.665816 0.629361 0.599168
0.683526 0.646917 0.616551
0.700877 0.664149 0.633635
0.717871 0.681055 0.650420
0.734506 0.697636 0.666905
0.750782 0.713892 0.683091
0.703434 0.666690 0.636157
0.720374 0.683548 0.652897
0.736956 0.700081 0.669338
0.753179 0.716289 0.685479
0.769044 0.732172 0.701321
0.784551 0.747730 0.716863
0.799700 0.762963 0.732106
0.814490 0.777871 0.747049
0.828923 0.792455 0.761693
0.786833 0.750022 0.719155
0.801928 0.765207 0.734353
0.816665 0.780067 0.749252
0.831044 0.794602 0.763851
0.845065 0.808812 0.778151
0.858728 0.822697 0.792151
0.872032 0.836257 0.805852
0.884978 0.849493 0.819254
0.897566 0.862403 0.832356
0.860734 0.824740 0.794213
0.873985 0.838252 0.807870
0.886878 0.851439 0.821227
0.899413 0.864301 0.834284
0.911589 0.876838 0.847042
0.923407 0.889050 0.859501
0.934867 0.900938 0.871660
0.945969 0.912500 0.883520
0.956712 0.923738 0.895080
0.925139 0.890844 0.861333
0.936545 0.902682 0.873448
0.947594 0.914196 0.885263
0.958284 0.925385 0.896779
0.968616 0.936250 0.907995
0.978589 0.946789 0.918912
0.988205 0.957003 0.929529
0.997462 0.966893 0.939847
1.000000 0.976457 0.949866
0.211838 0.186279 0.165574
0.237061 0.210650 0.189238
0.261925 0.234695 0.212602
0.286431 0.258416 0.235667
0.310579 0.281811 0.258432
0.334368 0.304882 0.280898
0.357800 0.327628 0.303064
0.380873 0.350049 0.324931
0.403588 0.372145 0.346499
0.337885 0.308295 0.284222
0.361263 0.330992 0.306344
0.384283 0.353364 0.328167
0.406945 0.375412 0.349689
0.429248 0.397135 0.370913
0.451193 0.418532 0.391837
0.472780 0.439605 0.412462
0.494009 0.460353 0.432787
0.514880 0.480776 0.452813
0.454435 0.421696 0.394932
0.475969 0.442720 0.415512
0.497144 0.463420 0.435792
0.517961 0.483794 0.455773
0.538420 0.503844 0.475455
0.558521 0.523569 0.494837
0.578264 0.542969 0.513920
0.597648 0.562044 0.532703
0.616674 0.580794 0.551187
0.561488 0.526482 0.497702
0.581177 0.545834 0.516740
0.600508 0.564861 0.535479
0.619481 0.583562 0.553918
0.638095 0.601939 0.572058
0.656352 0.619991 0.589898
0.674250 0.637718 0.607440
0.691790 0.655120 0.624681
0.708971 0.672197 0.641623
0.659043 0.622655 0.592533
0.676888 0.640333 0.610030
0.694375 0.657687 0.627227
0.711503 0.674716 0.644124
0.728273 0.691420 0.660722
0.744685 0.707799 0.677021
0.760739 0.723853 0.693020
0.776434 0.739582 0.708720
0.791772 0.754986 0.724120
0.747102 0.710213 0.679426
0.763102 0.726219 0.695380
0.778744 0.741900 0.711036
0.794028 0.757255 0.726391
0.808954 0.772286 0.741448
0.823521 0.786992 0.756204
0.837730 0.801373 0.770662
0.851581 0.815430 0.784820
0.865074 0.829161 0.798679
0.825663 0.789158 0.758379
0.839819 0.803490 0.772792
0.853616 0.817498 0.786906
0.867056 0.831181 0.800720
0.880137 0.844539 0.814234
0.892860 0.857572 0.827449
0.905225 0.870280 0.840365
0.917232 0.882663 0.852981
0.928880 0.894722 0.865298
0.894727 0.859488 0.829394
0.907038 0.872147 0.842265
0.918991 0.884482 0.854837
0.930587 0.896492 0.867109
0.941823 0.908177 0.879082
0.952702 0.919537 0.890755
0.963222 0.930572 0.902129
0.973385 0.941283 0.913203
0.983189 0.951668 0.923978
0.954294 0.921203 0.892470
0.964761 0.932190 0.903799
0.974869 0.942852 0.914829
0.984620 0.953189 0.925560
0.994012 0.963201 0.935991
1.000000 0.972888 0.946122
1.000000 0.982250 0.955954
1.000000 0.991288 0.965487
1.000000 1.000000 0.974720
