app/luts/vintage_fade.cube
TITLE "复古褪色"
# StyleForge original LUT. Cube format compatible with CubeLUT.cn / Premiere.
LUT_3D_SIZE 17
DOMAIN_MIN 0.0 0.0 0.0
DOMAIN_MAX 1.0 1.0 1.0
0.232767 0.227008 0.218480
0.232767 0.227008 0.245631
0.232767 0.227008 0.274084
0.232767 0.227008 0.303838
0.232767 0.227008 0.334895
0.232767 0.227008 0.367253
0.232767 0.227008 0.400912
0.232767 0.227008 0.435874
0.232767 0.227008 0.472137
0.232767 0.227008 0.509702
0.232767 0.227008 0.548569
0.232767 0.227008 0.588738
0.232767 0.227008 0.630208
0.232767 0.227008 0.672980
0.232767 0.227008 0.717054
0.232767 0.227008 0.762430
0.232767 0.227008 0.809107
0.232767 0.258435 0.218480
0.232767 0.258435 0.245631
0.232767 0.258435 0.274084
0.232767 0.258435 0.303838
0.232767 0.258435 0.334895
0.232767 0.258435 0.367253
0.232767 0.258435 0.400912
0.232767 0.258435 0.435874
0.232767 0.258435 0.472137
0.232767 0.258435 0.509702
0.232767 0.258435 0.548569
0.232767 0.258435 0.588738
0.232767 0.258435 0.630208
0.232767 0.258435 0.672980
0.232767 0.258435 0.717054
0.232767 0.258435 0.762430
0.232767 0.258435 0.809107
0.232767 0.291542 0.218480
0.232767 0.291542 0.245631
0.232767 0.291542 0.274084
0.232767 0.291542 0.303838
0.232767 0.291542 0.334895
0.232767 0.291542 0.367253
0.232767 0.291542 0.400912
0.232767 0.291542 0.435874
0.232767 0.291542 0.472137
0.232767 0.291542 0.509702
0.232767 0.291542 0.548569
0.232767 0.291542 0.588738
0.232767 0.291542 0.630208
0.232767 0.291542 0.672980
0.232767 0.291542 0.717054
0.232767 0.291542 0.762430
0.232767 0.291542 0.809107
0.232767 0.326331 0.218480
0.232767 0.326331 0.245631
0.232767 0.326331 0.274084
0.232767 0.326331 0.303838
0.232767 0.326331 0.334895
0.232767 0.326331 0.367253
0.232767 0.326331 0.400912
0.232767 0.326331 0.435874
0.232767 0.326331 0.472137
0.232767 0.326331 0.509702
0.232767 0.326331 0.548569
0.232767 0.326331 0.588738
0.232767 0.326331 0.630208
0.232767 0.326331 0.672980
0.232767 0.326331 0.717054
0.232767 0.326331 0.762430
0.232767 0.326331 0.809107
0.232767 0.362800 0.218480
0.232767 0.362800 0.245631
0.232767 0.362800 0.274084
0.232767 0.362800 0.303838
0.232767 0.362800 0.334895
0.232767 0.362800 0.367253
0.232767 0.362800 0.400912
0.232767 0.362800 0.435874
0.232767 0.362800 0.472137
0.232767 0.362800 0.509702
0.232767 0.362800 0.548569
0.232767 0.362800 0.588738
0.232767 0.362800 0.630208
0.232767 0.362800 0.672980
0.232767 0.362800 0.717054
0.232767 0.362800 0.762430
0.232767 0.362800 0.809107
0.232767 0.400950 0.218480
0.232767 0.400950 0.245631
0.232767 0.400950 0.274084
0.232767 0.400950 0.303838
0.232767 0.400950 0.334895
0.232767 0.400950 0.367253
0.232767 0.400950 0.400912
0.232767 0.400950 0.435874
0.232767 0.400950 0.472137
0.232767 0.400950 0.509702
0.232767 0.400950 0.548569
0.232767 0.400950 0.588738
0.232767 0.400950 0.630208
0.232767 0.400950 0.672980
0.232767 0.400950 0.717054
0.232767 0.400950 0.762430
0.232767 0.400950 0.809107
0.232767 0.440782 0.218480
0.232767 0.440782 0.245631
0.232767 0.440782 0.274084
0.232767 0.440782 0.303838
0.232767 0.440782 0.334895
0.232767 0.440782 0.367253
0.232767 0.440782 0.400912
0.232767 0.440782 0.435874
0.232767 0.440782 0.472137
0.232767 0.440782 0.509702
0.232767 0.440782 0.548569
0.232767 0.440782 0.588738
0.232767 0.440782 0.630208
0.232767 0.440782 0.672980
0.232767 0.440782 0.717054
0.232767 0.440782 0.762430
0.232767 0.440782 0.809107
0.232767 0.482294 0.218480
0.232767 0.482294 0.245631
0.232767 0.482294 0.274084
0.232767 0.482294 0.303838
0.232767 0.482294 0.334895
0.232767 0.482294 0.367253
0.232767 0.482294 0.400912
0.232767 0.482294 0.435874
0.232767 0.482294 0.472137
0.232767 0.482294 0.509702
0.232767 0.482294 0.548569
0.232767 0.482294 0.588738
0.232767 0.482294 0.630208
0.232767 0.482294 0.672980
0.232767 0.482294 0.717054
0.232767 0.482294 0.762430
0.232767 0.482294 0.809107
0.232767 0.525488 0.218480
0.232767 0.525488 0.245631
0.232767 0.525488 0.274084
0.232767 0.525488 0.303838
0.232767 0.525488 0.334895
0.232767 0.525488 0.367253
0.232767 0.525488 0.400912
0.232767 0.525488 0.435874
0.232767 0.525488 0.472137
0.232767 0.525488 0.509702
0.232767 0.525488 0.548569
0.232767 0.525488 0.588738
0.232767 0.525488 0.630208
0.232767 0.525488 0.672980
0.232767 0.525488 0.717054
0.232767 0.525488 0.762430
0.232767 0.525488 0.809107
0.232767 0.570363 0.218480
0.232767 0.570363 0.245631
0.232767 0.570363 0.274084
0.232767 0.570363 0.303838
0.232767 0.570363 0.334895
0.232767 0.570363 0.367253
0.232767 0.570363 0.400912
0.232767 0.570363 0.435874
0.232767 0.570363 0.472137
0.232767 0.570363 0.509702
0.232767 0.570363 0.548569
0.232767 0.570363 0.588738
0.232767 0.570363 0.630208
0.232767 0.570363 0.672980
0.232767 0.570363 0.717054
0.232767 0.570363 0.762430
0.232767 0.570363 0.809107
0.232767 0.616918 0.218480
0.232767 0.616918 0.245631
0.232767 0.616918 0.274084
0.232767 0.616918 0.303838
0.232767 0.616918 0.334895
0.232767 0.616918 0.367253
0.232767 0.616918 0.400912
0.232767 0.616918 0.435874
0.232767 0.616918 0.472137
0.232767 0.616918 0.509702
0.232767 0.616918 0.548569
0.232767 0.616918 0.588738
0.232767 0.616918 0.630208
0.232767 0.616918 0.672980
0.232767 0.616918 0.717054
0.232767 0.616918 0.762430
0.232767 0.616918 0.809107
0.232767 0.665154 0.218480
0.232767 0.665154 0.245631
0.232767 0.665154 0.274084
0.232767 0.665154 0.303838
0.232767 0.665154 0.334895
0.232767 0.665154 0.367253
0.232767 0.665154 0.400912
0.232767 0.665154 0.435874
0.232767 0.665154 0.472137
0.232767 0.665154 0.509702
0.232767 0.665154 0.548569
0.232767 0.665154 0.588738
0.232767 0.665154 0.630208
0.232767 0.665154 0.672980
0.232767 0.665154 0.717054
0.232767 0.665154 0.762430
0.232767 0.665154 0.809107
0.232767 0.715072 0.218480
0.232767 0.715072 0.245631
0.232767 0.715072 0.274084
0.232767 0.715072 0.303838
0.232767 0.715072 0.334895
0.232767 0.715072 0.367253
0.232767 0.715072 0.400912
0.232767 0.715072 0.435874
0.232767 0.715072 0.472137
0.232767 0.715072 0.509702
0.232767 0.715072 0.548569
0.232767 0.715072 0.588738
0.232767 0.715072 0.630208
0.232767 0.715072 0.672980
0.232767 0.715072 0.717054
0.232767 0.715072 0.762430
0.232767 0.715072 0.809107
0.232767 0.766671 0.218480
0.232767 0.766671 0.245631
0.232767 0.766671 0.274084
0.232767 0.766671 0.303838
0.232767 0.766671 0.334895
0.232767 0.766671 0.367253
0.232767 0.766671 0.400912
0.232767 0.766671 0.435874
0.232767 0.766671 0.472137
0.232767 0.766671 0.509702
0.232767 0.766671 0.548569
0.232767 0.766671 0.588738
0.232767 0.766671 0.630208
0.232767 0.766671 0.672980
0.232767 0.766671 0.717054
0.232767 0.766671 0.762430
0.232767 0.766671 0.809107
0.232767 0.819950 0.218480
0.232767 0.819950 0.245631
0.232767 0.819950 0.274084
0.232767 0.819950 0.303838
0.232767 0.819950 0.334895
0.232767 0.819950 0.367253
0.232767 0.819950 0.400912
0.232767 0.819950 0.435874
0.232767 0.819950 0.472137
0.232767 0.819950 0.509702
0.232767 0.819950 0.548569
0.232767 0.819950 0.588738
0.232767 0.819950 0.630208
0.232767 0.819950 0.672980
0.232767 0.819950 0.717054
0.232767 0.819950 0.762430
0.232767 0.819950 0.809107
0.232767 0.874911 0.218480
0.232767 0.874911 0.245631
0.232767 0.874911 0.274084
0.232767 0.874911 0.303838
0.232767 0.874911 0.334895
0.232767 0.874911 0.367253
0.232767 0.874911 0.400912
0.232767 0.874911 0.435874
0.232767 0.874911 0.472137
0.232767 0.874911 0.509702
0.232767 0.874911 0.548569
0.232767 0.874911 0.588738
0.232767 0.874911 0.630208
0.232767 0.874911 0.672980
0.232767 0.874911 0.717054
0.232767 0.874911 0.762430
0.232767 0.874911 0.809107
0.232767 0.931552 0.218480
0.232767 0.931552 0.245631
0.232767 0.931552 0.274084
0.232767 0.931552 0.303838
0.232767 0.931552 0.334895
0.232767 0.931552 0.367253
0.232767 0.931552 0.400912
0.232767 0.931552 0.435874
0.232767 0.931552 0.472137
0.232767 0.931552 0.509702
0.232767 0.931552 0.548569
0.232767 0.931552 0.588738
0.232767 0.931552 0.630208
0.232767 0.931552 0.672980
0.232767 0.931552 0.717054
0.232767 0.931552 0.762430
0.232767 0.931552 0.809107
0.267120 0.227008 0.218480
0.267120 0.227008 0.245631
0.267120 0.227008 0.274084
0.267120 0.227008 0.303838
0.267120 0.227008 0.334895
0.267120 0.227008 0.367253
0.267120 0.227008 0.400912
0.267120 0.227008 0.435874
0.267120 0.227008 0.472137
0.267120 0.227008 0.509702
0.267120 0.227008 0.548569
0.267120 0.227008 0.588738
0.267120 0.227008 0.630208
0.267120 0.227008 0.672980
0.267120 0.227008 0.717054
0.267120 0.227008 0.762430
0.267120 0.227008 0.809107
0.267120 0.258435 0.218480
0.267120 0.258435 0.245631
0.267120 0.258435 0.274084
0.267120 0.258435 0.303838
0.267120 0.258435 0.334895
0.267120 0.258435 0.367253
0.267120 0.258435 0.400912
0.267120 0.258435 0.435874
0.267120 0.258435 0.472137
0.267120 0.258435 0.509702
0.267120 0.258435 0.548569
0.267120 0.258435 0.588738
0.267120 0.258435 0.630208
0.267120 0.258435 0.672980
0.267120 0.258435 0.717054
0.267120 0.258435 0.762430
0.267120 0.258435 0.809107
0.267120 0.291542 0.218480
0.267120 0.291542 0.245631
0.267120 0.291542 0.274084
0.267120 0.291542 0.303838
0.267120 0.291542 0.334895
0.267120 0.291542 0.367253
0.267120 0.291542 0.400912
0.267120 0.291542 0.435874
0.267120 0.291542 0.472137
0.267120 0.291542 0.509702
0.267120 0.291542 0.548569
0.267120 0.291542 0.588738
0.267120 0.291542 0.630208
0.267120 0.291542 0.672980
0.267120 0.291542 0.717054
0.267120 0.291542 0.762430
0.267120 0.291542 0.809107
0.267120 0.326331 0.218480
0.267120 0.326331 0.245631
0.267120 0.326331 0.274084
0.267120 0.326331 0.303838
0.267120 0.326331 0.334895
0.267120 0.326331 0.367253
0.267120 0.326331 0.400912
0.267120 0.326331 0.435874
0.267120 0.326331 0.472137
0.267120 0.326331 0.509702
0.267120 0.326331 0.548569
0.267120 0.326331 0.588738
0.267120 0.326331 0.630208
0.267120 0.326331 0.672980
0.267120 0.326331 0.717054
0.267120 0.326331 0.762430
0.267120 0.326331 0.809107
0.267120 0.362800 0.218480
0.267120 0.362800 0.245631
0.267120 0.362800 0.274084
0.267120 0.362800 0.303838
0.267120 0.362800 0.334895
0.267120 0.362800 0.367253
0.267120 0.362800 0.400912
0.267120 0.362800 0.435874
0.267120 0.362800 0.472137
0.267120 0.362800 0.509702
0.267120 0.362800 0.548569
0.267120 0.362800 0.588738
0.267120 0.362800 0.630208
0.267120 0.362800 0.672980
0.267120 0.362800 0.717054
0.267120 0.362800 0.762430
0.267120 0.362800 0.809107
0.267120 0.400950 0.218480
0.267120 0.400950 0.245631
0.267120 0.400950 0.274084
0.267120 0.400950 0.303838
0.267120 0.400950 0.334895
0.267120 0.400950 0.367253
0.267120 0.400950 0.400912
0.267120 0.400950 0.435874
0.267120 0.400950 0.472137
0.267120 0.400950 0.509702
0.267120 0.400950 0.548569
0.267120 0.400950 0.588738
0.267120 0.400950 0.630208
0.267120 0.400950 0.672980
0.267120 0.400950 0.717054
0.267120 0.400950 0.762430
0.267120 0.400950 0.809107
0.267120 0.440782 0.218480
0.267120 0.440782 0.245631
0.267120 0.440782 0.274084
0.267120 0.440782 0.303838
0.267120 0.440782 0.334895
0.267120 0.440782 0.367253
0.267120 0.440782 0.400912
0.267120 0.440782 0.435874
0.267120 0.440782 0.472137
0.267120 0.440782 0.509702
0.267120 0.440782 0.548569
0.267120 0.440782 0.588738
0.267120 0.440782 0.630208
0.267120 0.440782 0.672980
0.267120 0.440782 0.717054
0.267120 0.440782 0.762430
0.267120 0.440782 0.809107
0.267120 0.482294 0.218480
0.267120 0.482294 0.245631
0.267120 0.482294 0.274084
0.267120 0.482294 0.303838
0.267120 0.482294 0.334895
0.267120 0.482294 0.367253
0.267120 0.482294 0.400912
0.267120 0.482294 0.435874
0.267120 0.482294 0.472137
0.267120 0.482294 0.509702
0.267120 0.482294 0.548569
0.267120 0.482294 0.588738
0.267120 0.482294 0.630208
0.267120 0.482294 0.672980
0.267120 0.482294 0.717054
0.267120 0.482294 0.762430
0.267120 0.482294 0.809107
0.267120 0.525488 0.218480
0.267120 0.525488 0.245631
0.267120 0.525488 0.274084
0.267120 0.525488 0.303838
0.267120 0.525488 0.334895
0.267120 0.525488 0.367253
0.267120 0.525488 0.400912
0.267120 0.525488 0.435874
0.267120 0.525488 0.472137
0.267120 0.525488 0.509702
0.267120 0.525488 0.548569
0.267120 0.525488 0.588738
0.267120 0.525488 0.630208
0.267120 0.525488 0.672980
0.267120 0.525488 0.717054
0.267120 0.525488 0.762430
0.267120 0.525488 0.809107
0.267120 0.570363 0.218480
0.267120 0.570363 0.245631
0.267120 0.570363 0.274084
0.267120 0.570363 0.303838
0.267120 0.570363 0.334895
0.267120 0.570363 0.367253
0.267120 0.570363 0.400912
0.267120 0.570363 0.435874
0.267120 0.570363 0.472137
0.267120 0.570363 0.509702
0.267120 0.570363 0.548569
0.267120 0.570363 0.588738
0.267120 0.570363 0.630208
0.267120 0.570363 0.672980
0.267120 0.570363 0.717054
0.267120 0.570363 0.762430
0.267120 0.570363 0.809107
0.267120 0.616918 0.218480
0.267120 0.616918 0.245631
0.267120 0.616918 0.274084
0.267120 0.616918 0.303838
0.267120 0.616918 0.334895
0.267120 0.616918 0.367253
0.267120 0.616918 0.400912
0.267120 0.616918 0.435874
0.267120 0.616918 0.472137
0.267120 0.616918 0.509702
0.267120 0.616918 0.548569
0.267120 0.616918 0.588738
0.267120 0.616918 0.630208
0.267120 0.616918 0.672980
0.267120 0.616918 0.717054
0.267120 0.616918 0.762430
0.267120 0.616918 0.809107
0.267120 0.665154 0.218480
0.267120 0.665154 0.245631
0.267120 0.665154 0.274084
0.267120 0.665154 0.303838
0.267120 0.665154 0.334895
0.267120 0.665154 0.367253
0.267120 0.665154 0.400912
0.267120 0.665154 0.435874
0.267120 0.665154 0.472137
0.267120 0.665154 0.509702
0.267120 0.665154 0.548569
0.267120 0.665154 0.588738
0.267120 0.665154 0.630208
0.267120 0.665154 0.672980
0.267120 0.665154 0.717054
0.267120 0.665154 0.762430
0.267120 0.665154 0.809107
0.267120 0.715072 0.218480
0.267120 0.715072 0.245631
0.267120 0.715072 0.274084
0.267120 0.715072 0.303838
0.267120 0.715072 0.334895
0.267120 0.715072 0.367253
0.267120 0.715072 0.400912
0.267120 0.715072 0.435874
0.267120 0.715072 0.472137
0.267120 0.715072 0.509702
0.267120 0.715072 0.548569
0.267120 0.715072 0.588738
0.267120 0.715072 0.630208
0.267120 0.715072 0.672980
0.267120 0.715072 0.717054
0.267120 0.715072 0.762430
0.267120 0.715072 0.809107
0.267120 0.766671 0.218480
0.267120 0.766671 0.245631
0.267120 0.766671 0.274084
0.267120 0.766671 0.303838
0.267120 0.766671 0.334895
0.267120 0.766671 0.367253
0.267120 0.766671 0.400912
0.267120 0.766671 0.435874
0.267120 0.766671 0.472137
0.267120 0.766671 0.509702
0.267120 0.766671 0.548569
0.267120 0.766671 0.588738
0.267120 0.766671 0.630208
0.267120 0.766671 0.672980
0.267120 0.766671 0.717054
0.267120 0.766671 0.762430
0.267120 0.766671 0.809107
0.267120 0.819950 0.218480
0.267120 0.819950 0.245631
0.267120 0.819950 0.274084
0.267120 0.819950 0.303838
0.267120 0.819950 0.334895
0.267120 0.819950 0.367253
0.267120 0.819950 0.400912
0.267120 0.819950 0.435874
0.267120 0.819950 0.472137
0.267120 0.819950 0.509702
0.267120 0.819950 0.548569
0.267120 0.819950 0.588738
0.267120 0.819950 0.630208
0.267120 0.819950 0.672980
0.267120 0.819950 0.717054
0.267120 0.819950 0.762430
0.267120 0.819950 0.809107
0.267120 0.874911 0.218480
0.267120 0.874911 0.245631
0.267120 0.874911 0.274084
0.267120 0.874911 0.303838
0.267120 0.874911 0.334895
0.267120 0.874911 0.367253
0.267120 0.874911 0.400912
0.267120 0.874911 0.435874
0.267120 0.874911 0.472137
0.267120 0.874911 0.509702
0.267120 0.874911 0.548569
0.267120 0.874911 0.588738
0.267120 0.874911 0.630208
0.267120 0.874911 0.672980
0.267120 0.874911 0.717054
0.267120 0.874911 0.762430
0.267120 0.874911 0.809107
0.267120 0.931552 0.218480
0.267120 0.931552 0.245631
0.267120 0.931552 0.274084
0.267120 0.931552 0.303838
0.267120 0.931552 0.334895
0.267120 0.931552 0.367253
0.267120 0.931552 0.400912
0.267120 0.931552 0.435874
0.267120 0.931552 0.472137
0.267120 0.931552 0.509702
0.267120 0.931552 0.548569
0.267120 0.931552 0.588738
0.267120 0.931552 0.630208
0.267120 0.931552 0.672980
0.267120 0.931552 0.717054
0.267120 0.931552 0.762430
0.267120 0.931552 0.809107
0.303434 0.227008 0.218480
0.303434 0.227008 0.245631
0.303434 0.227008 0.274084
0.303434 0.227008 0.303838
0.303434 0.227008 0.334895
0.303434 0.227008 0.367253
0.303434 0.227008 0.400912
0.303434 0.227008 0.435874
0.303434 0.227008 0.472137
0.303434 0.227008 0.509702
0.303434 0.227008 0.548569
0.303434 0.227008 0.588738
0.303434 0.227008 0.630208
0.303434 0.227008 0.672980
0.303434 0.227008 0.717054
0.303434 0.227008 0.762430
0.303434 0.227008 0.809107
0.303434 0.258435 0.218480
0.303434 0.258435 0.245631
0.303434 0.258435 0.274084
0.303434 0.258435 0.303838
0.303434 0.258435 0.334895
0.303434 0.258435 0.367253
0.303434 0.258435 0.400912
0.303434 0.258435 0.435874
0.303434 0.258435 0.472137
0.303434 0.258435 0.509702
0.303434 0.258435 0.548569
0.303434 0.258435 0.588738
0.303434 0.258435 0.630208
0.303434 0.258435 0.672980
0.303434 0.258435 0.717054
0.303434 0.258435 0.762430
0.303434 0.258435 0.809107
0.303434 0.291542 0.218480
0.303434 0.291542 0.245631
0.303434 0.291542 0.274084
0.303434 0.291542 0.303838
0.303434 0.291542 0.334895
0.303434 0.291542 0.367253
0.303434 0.291542 0.400912
0.303434 0.291542 0.435874
0.303434 0.291542 0.472137
0.303434 0.291542 0.509702
0.303434 0.291542 0.548569
0.303434 0.291542 0.588738
0.303434 0.291542 0.630208
0.303434 0.291542 0.672980
0.303434 0.291542 0.717054
0.303434 0.291542 0.762430
0.303434 0.291542 0.809107
0.303434 0.326331 0.218480
0.303434 0.326331 0.245631
0.303434 0.326331 0.274084
0.303434 0.326331 0.303838
0.303434 0.326331 0.334895
0.303434 0.326331 0.367253
0.303434 0.326331 0.400912
0.303434 0.326331 0.435874
0.303434 0.326331 0.472137
0.303434 0.326331 0.509702
0.303434 0.326331 0.548569
0.303434 0.326331 0.588738
0.303434 0.326331 0.630208
0.303434 0.326331 0.672980
0.303434 0.326331 0.717054
0.303434 0.326331 0.762430
0.303434 0.326331 0.809107
0.303434 0.362800 0.218480
0.303434 0.362800 0.245631
0.303434 0.362800 0.274084
0.303434 0.362800 0.303838
0.303434 0.362800 0.334895
0.303434 0.362800 0.367253
0.303434 0.362800 0.400912
0.303434 0.362800 0.435874
0.303434 0.362800 0.472137
0.303434 0.362800 0.509702
0.303434 0.362800 0.548569
0.303434 0.362800 0.588738
0.303434 0.362800 0.630208
0.303434 0.362800 0.672980
0.303434 0.362800 0.717054
0.303434 0.362800 0.762430
0.303434 0.362800 0.809107
0.303434 0.400950 0.218480
0.303434 0.400950 0.245631
0.303434 0.400950 0.274084
0.303434 0.400950 0.303838
0.303434 0.400950 0.334895
0.303434 0.400950 0.367253
0.303434 0.400950 0.400912
0.303434 0.400950 0.435874
0.303434 0.400950 0.472137
0.303434 0.400950 0.509702
0.303434 0.400950 0.548569
0.303434 0.400950 0.588738
0.303434 0.400950 0.630208
0.303434 0.400950 0.672980
0.303434 0.400950 0.717054
0.303434 0.400950 0.762430
0.303434 0.400950 0.809107
0.303434 0.440782 0.218480
0.303434 0.440782 0.245631
0.303434 0.440782 0.274084
0.303434 0.440782 0.303838
0.303434 0.440782 0.334895
0.303434 0.440782 0.367253
0.303434 0.440782 0.400912
0.303434 0.440782 0.435874
0.303434 0.440782 0.472137
0.303434 0.440782 0.509702
0.303434 0.440782 0.548569
0.303434 0.440782 0.588738
0.303434 0.440782 0.630208
0.303434 0.440782 0.672980
0.303434 0.440782 0.717054
0.303434 0.440782 0.762430
0.303434 0.440782 0.809107
0.303434 0.482294 0.218480
0.303434 0.482294 0.245631
0.303434 0.482294 0.274084
0.303434 0.482294 0.303838
0.303434 0.482294 0.334895
0.303434 0.482294 0.367253
0.303434 0.482294 0.400912
0.303434 0.482294 0.435874
0.303434 0.482294 0.472137
0.303434 0.482294 0.509702
0.303434 0.482294 0.548569
0.303434 0.482294 0.588738
0.303434 0.482294 0.630208
0.303434 0.482294 0.672980
0.303434 0.482294 0.717054
0.303434 0.482294 0.762430
0.303434 0.482294 0.809107
0.303434 0.525488 0.218480
0.303434 0.525488 0.245631
0.303434 0.525488 0.274084
0.303434 0.525488 0.303838
0.303434 0.525488 0.334895
0.303434 0.525488 0.367253
0.303434 0.525488 0.400912
0.303434 0.525488 0.435874
0.303434 0.525488 0.472137
0.303434 0.525488 0.509702
0.303434 0.525488 0.548569
0.303434 0.525488 0.588738
0.303434 0.525488 0.630208
0.303434 0.525488 0.672980
0.303434 0.525488 0.717054
0.303434 0.525488 0.762430
0.303434 0.525488 0.809107
0.303434 0.570363 0.218480
0.303434 0.570363 0.245631
0.303434 0.570363 0.274084
0.303434 0.570363 0.303838
0.303434 0.570363 0.334895
0.303434 0.570363 0.367253
0.303434 0.570363 0.400912
0.303434 0.570363 0.435874
0.303434 0.570363 0.472137
0.303434 0.570363 0.509702
0.303434 0.570363 0.548569
0.303434 0.570363 0.588738
0.303434 0.570363 0.630208
0.303434 0.570363 0.672980
0.303434 0.570363 0.717054
0.303434 0.570363 0.762430
0.303434 0.570363 0.809107
0.303434 0.616918 0.218480
0.303434 0.616918 0.245631
0.303434 0.616918 0.274084
0.303434 0.616918 0.303838
0.303434 0.616918 0.334895
0.303434 0.616918 0.367253
0.303434 0.616918 0.400912
0.303434 0.616918 0.435874
0.303434 0.616918 0.472137
0.303434 0.616918 0.509702
0.303434 0.616918 0.548569
0.303434 0.616918 0.588738
0.303434 0.616918 0.630208
0.303434 0.616918 0.672980
0.303434 0.616918 0.717054
0.303434 0.616918 0.762430
0.303434 0.616918 0.809107
0.303434 0.665154 0.218480
0.303434 0.665154 0.245631
0.303434 0.665154 0.274084
0.303434 0.665154 0.303838
0.303434 0.665154 0.334895
0.303434 0.665154 0.367253
0.303434 0.665154 0.400912
0.303434 0.665154 0.435874
0.303434 0.665154 0.472137
0.303434 0.665154 0.509702
0.303434 0.665154 0.548569
0.303434 0.665154 0.588738
0.303434 0.665154 0.630208
0.303434 0.665154 0.672980
0.303434 0.665154 0.717054
0.303434 0.665154 0.762430
0.303434 0.665154 0.809107
0.303434 0.715072 0.218480
0.303434 0.715072 0.245631
0.303434 0.715072 0.274084
0.303434 0.715072 0.303838
0.303434 0.715072 0.334895
0.303434 0.715072 0.367253
0.303434 0.715072 0.400912
0.303434 0.715072 0.435874
0.303434 0.715072 0.472137
0.303434 0.715072 0.509702
0.303434 0.715072 0.548569
0.303434 0.715072 0.588738
0.303434 0.715072 0.630208
0.303434 0.715072 0.672980
0.303434 0.715072 0.717054
0.303434 0.715072 0.762430
0.303434 0.715072 0.809107
0.303434 0.766671 0.218480
0.303434 0.766671 0.245631
0.303434 0.766671 0.274084
0.303434 0.766671 0.303838
0.303434 0.766671 0.334895
0.303434 0.766671 0.367253
0.303434 0.766671 0.400912
0.303434 0.766671 0.435874
0.303434 0.766671 0.472137
0.303434 0.766671 0.509702
0.303434 0.766671 0.548569
0.303434 0.766671 0.588738
0.303434 0.766671 0.630208
0.303434 0.766671 0.672980
0.303434 0.766671 0.717054
0.303434 0.766671 0.762430
0.303434 0.766671 0.809107
0.303434 0.819950 0.218480
0.303434 0.819950 0.245631
0.303434 0.819950 0.274084
0.303434 0.819950 0.303838
0.303434 0.819950 0.334895
0.303434 0.819950 0.367253
0.303434 0.819950 0.400912
0.303434 0.819950 0.435874
0.303434 0.819950 0.472137
0.303434 0.819950 0.509702
0.303434 0.819950 0.548569
0.303434 0.819950 0.588738
0.303434 0.819950 0.630208
0.303434 0.819950 0.672980
0.303434 0.819950 0.717054
0.303434 0.819950 0.762430
0.303434 0.819950 0.809107
0.303434 0.874911 0.218480
0.303434 0.874911 0.245631
0.303434 0.874911 0.274084
0.303434 0.874911 0.303838
0.303434 0.874911 0.334895
0.303434 0.874911 0.367253
0.303434 0.874911 0.400912
0.303434 0.874911 0.435874
0.303434 0.874911 0.472137
0.303434 0.874911 0.509702
0.303434 0.874911 0.548569
0.303434 0.874911 0.588738
0.303434 0.874911 0.630208
0.303434 0.874911 0.672980
0.303434 0.874911 0.717054
0.303434 0.874911 0.762430
0.303434 0.874911 0.809107
0.303434 0.931552 0.218480
0.303434 0.931552 0.245631
0.303434 0.931552 0.274084
0.303434 0.931552 0.303838
0.303434 0.931552 0.334895
0.303434 0.931552 0.367253
0.303434 0.931552 0.400912
0.303434 0.931552 0.435874
0.303434 0.931552 0.472137
0.303434 0.931552 0.509702
0.303434 0.931552 0.548569
0.303434 0.931552 0.588738
0.303434 0.931552 0.630208
0.303434 0.931552 0.672980
0.303434 0.931552 0.717054
0.303434 0.931552 0.762430
0.303434 0.931552 0.809107
0.341709 0.227008 0.218480
0.341709 0.227008 0.245631
0.341709 0.227008 0.274084
0.341709 0.227008 0.303838
0.341709 0.227008 0.334895
0.341709 0.227008 0.367253
0.341709 0.227008 0.400912
0.341709 0.227008 0.435874
0.341709 0.227008 0.472137
0.341709 0.227008 0.509702
0.341709 0.227008 0.548569
0.341709 0.227008 0.588738
0.341709 0.227008 0.630208
0.341709 0.227008 0.672980
0.341709 0.227008 0.717054
0.341709 0.227008 0.762430
