app/luts/vintage_fade.cube
TITLE "复古褪色"
# StyleForge original LUT. Cube format compatible with CubeLUT.cn / Premiere.
LUT_3D_SIZE 9
DOMAIN_MIN 0.0 0.0 0.0
DOMAIN_MAX 1.0 1.0 1.0
0.232767 0.227008 0.218480
0.232767 0.227008 0.274084
0.232767 0.227008 0.334895
0.232767 0.227008 0.400912
0.232767 0.227008 0.472137
0.232767 0.227008 0.548569
0.232767 0.227008 0.630208
0.232767 0.227008 0.717054
0.232767 0.227008 0.809107
0.232767 0.291542 0.218480
0.232767 0.291542 0.274084
0.232767 0.291542 0.334895
0.232767 0.291542 0.400912
0.232767 0.291542 0.472137
0.232767 0.291542 0.548569
0.232767 0.291542 0.630208
0.232767 0.291542 0.717054
0.232767 0.291542 0.809107
0.232767 0.362800 0.218480
0.232767 0.362800 0.274084
0.232767 0.362800 0.334895
0.232767 0.362800 0.400912
0.232767 0.362800 0.472137
0.232767 0.362800 0.548569
0.232767 0.362800 0.630208
0.232767 0.362800 0.717054
0.232767 0.362800 0.809107
0.232767 0.440782 0.218480
0.232767 0.440782 0.274084
0.232767 0.440782 0.334895
0.232767 0.440782 0.400912
0.232767 0.440782 0.472137
0.232767 0.440782 0.548569
0.232767 0.440782 0.630208
0.232767 0.440782 0.717054
0.232767 0.440782 0.809107
0.232767 0.525488 0.218480
0.232767 0.525488 0.274084
0.232767 0.525488 0.334895
0.232767 0.525488 0.400912
0.232767 0.525488 0.472137
0.232767 0.525488 0.548569
0.232767 0.525488 0.630208
0.232767 0.525488 0.717054
0.232767 0.525488 0.809107
0.232767 0.616918 0.218480
0.232767 0.616918 0.274084
0.232767 0.616918 0.334895
0.232767 0.616918 0.400912
0.232767 0.616918 0.472137
0.232767 0.616918 0.548569
0.232767 0.616918 0.630208
0.232767 0.616918 0.717054
0.232767 0.616918 0.809107
0.232767 0.715072 0.218480
0.232767 0.715072 0.274084
0.232767 0.715072 0.334895
0.232767 0.715072 0.400912
0.232767 0.715072 0.472137
0.232767 0.715072 0.548569
0.232767 0.715072 0.630208
0.232767 0.715072 0.717054
0.232767 0.715072 0.809107
0.232767 0.819950 0.218480
0.232767 0.819950 0.274084
0.232767 0.819950 0.334895
0.232767 0.819950 0.400912
0.232767 0.819950 0.472137
0.232767 0.819950 0.548569
0.232767 0.819950 0.630208
0.232767 0.819950 0.717054
0.232767 0.819950 0.809107
0.232767 0.931552 0.218480
0.232767 0.931552 0.274084
0.232767 0.931552 0.334895
0.232767 0.931552 0.400912
0.232767 0.931552 0.472137
0.232767 0.931552 0.548569
0.232767 0.931552 0.630208
0.232767 0.931552 0.717054
0.232767 0.931552 0.809107
0.303434 0.227008 0.218480
0.303434 0.227008 0.274084
0.303434 0.227008 0.334895
0.303434 0.227008 0.400912
0.303434 0.227008 0.472137
0.303434 0.227008 0.548569
0.303434 0.227008 0.630208
0.303434 0.227008 0.717054
0.303434 0.227008 0.809107
0.303434 0.291542 0.218480
0.303434 0.291542 0.274084
0.303434 0.291542 0.334895
0.303434 0.291542 0.400912
0.303434 0.291542 0.472137
0.303434 0.291542 0.548569
0.303434 0.291542 0.630208
0.303434 0.291542 0.717054
0.303434 0.291542 0.809107
0.303434 0.362800 0.218480
0.303434 0.362800 0.274084
0.303434 0.362800 0.334895
0.303434 0.362800 0.400912
0.303434 0.362800 0.472137
0.303434 0.362800 0.548569
0.303434 0.362800 0.630208
0.303434 0.362800 0.717054
0.303434 0.362800 0.809107
0.303434 0.440782 0.218480
0.303434 0.440782 0.274084
0.303434 0.440782 0.334895
0.303434 0.440782 0.400912
0.303434 0.440782 0.472137
0.303434 0.440782 0.548569
0.303434 0.440782 0.630208
0.303434 0.440782 0.717054
0.303434 0.440782 0.809107
0.303434 0.525488 0.218480
0.303434 0.525488 0.274084
0.303434 0.525488 0.334895
0.303434 0.525488 0.400912
0.303434 0.525488 0.472137
0.303434 0.525488 0.548569
0.303434 0.525488 0.630208
0.303434 0.525488 0.717054
0.303434 0.525488 0.809107
0.303434 0.616918 0.218480
0.303434 0.616918 0.274084
0.303434 0.616918 0.334895
0.303434 0.616918 0.400912
0.303434 0.616918 0.472137
0.303434 0.616918 0.548569
0.303434 0.616918 0.630208
0.303434 0.616918 0.717054
0.303434 0.616918 0.809107
0.303434 0.715072 0.218480
0.303434 0.715072 0.274084
0.303434 0.715072 0.334895
0.303434 0.715072 0.400912
0.303434 0.715072 0.472137
0.303434 0.715072 0.548569
0.303434 0.715072 0.630208
0.303434 0.715072 0.717054
0.303434 0.715072 0.809107
0.303434 0.819950 0.218480
0.303434 0.819950 0.274084
0.303434 0.819950 0.334895
0.303434 0.819950 0.400912
0.303434 0.819950 0.472137
0.303434 0.819950 0.548569
0.303434 0.819950 0.630208
0.303434 0.819950 0.717054
0.303434 0.819950 0.809107
0.303434 0.931552 0.218480
0.303434 0.931552 0.274084
0.303434 0.931552 0.334895
0.303434 0.931552 0.400912
0.303434 0.931552 0.472137
0.303434 0.931552 0.548569
0.303434 0.931552 0.630208
0.303434 0.931552 0.717054
0.303434 0.931552 0.809107
0.381944 0.227008 0.218480
0.381944 0.227008 0.274084
0.381944 0.227008 0.334895
0.381944 0.227008 0.400912
0.381944 0.227008 0.472137
0.381944 0.227008 0.548569
0.381944 0.227008 0.630208
0.381944 0.227008 0.717054
0.381944 0.227008 0.809107
0.381944 0.291542 0.218480
0.381944 0.291542 0.274084
0.381944 0.291542 0.334895
0.381944 0.291542 0.400912
0.381944 0.291542 0.472137
0.381944 0.291542 0.548569
0.381944 0.291542 0.630208
0.381944 0.291542 0.717054
0.381944 0.291542 0.809107
0.381944 0.362800 0.218480
0.381944 0.362800 0.274084
0.381944 0.362800 0.334895
0.381944 0.362800 0.400912
0.381944 0.362800 0.472137
0.381944 0.362800 0.548569
0.381944 0.362800 0.630208
0.381944 0.362800 0.717054
0.381944 0.362800 0.809107
0.381944 0.440782 0.218480
0.381944 0.440782 0.274084
0.381944 0.440782 0.334895
0.381944 0.440782 0.400912
0.381944 0.440782 0.472137
0.381944 0.440782 0.548569
0.381944 0.440782 0.630208
0.381944 0.440782 0.717054
0.381944 0.440782 0.809107
0.381944 0.525488 0.218480
0.381944 0.525488 0.274084
0.381944 0.525488 0.334895
0.381944 0.525488 0.400912
0.381944 0.525488 0.472137
0.381944 0.525488 0.548569
0.381944 0.525488 0.630208
0.381944 0.525488 0.717054
0.381944 0.525488 0.809107
0.381944 0.616918 0.218480
0.381944 0.616918 0.274084
0.381944 0.616918 0.334895
0.381944 0.616918 0.400912
0.381944 0.616918 0.472137
0.381944 0.616918 0.548569
0.381944 0.616918 0.630208
0.381944 0.616918 0.717054
0.381944 0.616918 0.809107
0.381944 0.715072 0.218480
0.381944 0.715072 0.274084
0.381944 0.715072 0.334895
0.381944 0.715072 0.400912
0.381944 0.715072 0.472137
0.381944 0.715072 0.548569
0.381944 0.715072 0.630208
0.381944 0.715072 0.717054
0.381944 0.715072 0.809107
0.381944 0.819950 0.218480
0.381944 0.819950 0.274084
0.381944 0.819950 0.334895
0.381944 0.819950 0.400912
0.381944 0.819950 0.472137
0.381944 0.819950 0.548569
0.381944 0.819950 0.630208
0.381944 0.819950 0.717054
0.381944 0.819950 0.809107
0.381944 0.931552 0.218480
0.381944 0.931552 0.274084
0.381944 0.931552 0.334895
0.381944 0.931552 0.400912
0.381944 0.931552 0.472137
0.381944 0.931552 0.548569
0.381944 0.931552 0.630208
0.381944 0.931552 0.717054
0.381944 0.931552 0.809107
0.468297 0.227008 0.218480
0.468297 0.227008 0.274084
0.468297 0.227008 0.334895
0.468297 0.227008 0.400912
0.468297 0.227008 0.472137
0.468297 0.227008 0.548569
0.468297 0.227008 0.630208
0.468297 0.227008 0.717054
0.468297 0.227008 0.809107
0.468297 0.291542 0.218480
0.468297 0.291542 0.274084
0.468297 0.291542 0.334895
0.468297 0.291542 0.400912
0.468297 0.291542 0.472137
0.468297 0.291542 0.548569
0.468297 0.291542 0.630208
0.468297 0.291542 0.717054
0.468297 0.291542 0.809107
0.468297 0.362800 0.218480
0.468297 0.362800 0.274084
0.468297 0.362800 0.334895
0.468297 0.362800 0.400912
0.468297 0.362800 0.472137
0.468297 0.362800 0.548569
0.468297 0.362800 0.630208
0.468297 0.362800 0.717054
0.468297 0.362800 0.809107
0.468297 0.440782 0.218480
0.468297 0.440782 0.274084
0.468297 0.440782 0.334895
0.468297 0.440782 0.400912
0.468297 0.440782 0.472137
0.468297 0.440782 0.548569
0.468297 0.440782 0.630208
0.468297 0.440782 0.717054
0.468297 0.440782 0.809107
0.468297 0.525488 0.218480
0.468297 0.525488 0.274084
0.468297 0.525488 0.334895
0.468297 0.525488 0.400912
0.468297 0.525488 0.472137
0.468297 0.525488 0.548569
0.468297 0.525488 0.630208
0.468297 0.525488 0.717054
0.468297 0.525488 0.809107
0.468297 0.616918 0.218480
0.468297 0.616918 0.274084
0.468297 0.616918 0.334895
0.468297 0.616918 0.400912
0.468297 0.616918 0.472137
0.468297 0.616918 0.548569
0.468297 0.616918 0.630208
0.468297 0.616918 0.717054
0.468297 0.616918 0.809107
0.468297 0.715072 0.218480
0.468297 0.715072 0.274084
0.468297 0.715072 0.334895
0.468297 0.715072 0.400912
0.468297 0.715072 0.472137
0.468297 0.715072 0.548569
0.468297 0.715072 0.630208
0.468297 0.715072 0.717054
0.468297 0.715072 0.809107
0.468297 0.819950 0.218480
0.468297 0.819950 0.274084
0.468297 0.819950 0.334895
0.468297 0.819950 0.400912
0.468297 0.819950 0.472137
0.468297 0.819950 0.548569
0.468297 0.819950 0.630208
0.468297 0.819950 0.717054
0.468297 0.819950 0.809107
0.468297 0.931552 0.218480
0.468297 0.931552 0.274084
0.468297 0.931552 0.334895
0.468297 0.931552 0.400912
0.468297 0.931552 0.472137
0.468297 0.931552 0.548569
0.468297 0.931552 0.630208
0.468297 0.931552 0.717054
0.468297 0.931552 0.809107
0.562493 0.227008 0.218480
0.562493 0.227008 0.274084
0.562493 0.227008 0.334895
0.562493 0.227008 0.400912
0.562493 0.227008 0.472137
0.562493 0.227008 0.548569
0.562493 0.227008 0.630208
0.562493 0.227008 0.717054
0.562493 0.227008 0.809107
0.562493 0.291542 0.218480
0.562493 0.291542 0.274084
0.562493 0.291542 0.334895
0.562493 0.291542 0.400912
0.562493 0.291542 0.472137
0.562493 0.291542 0.548569
0.562493 0.291542 0.630208
0.562493 0.291542 0.717054
0.562493 0.291542 0.809107
0.562493 0.362800 0.218480
0.562493 0.362800 0.274084
0.562493 0.362800 0.334895
0.562493 0.362800 0.400912
0.562493 0.362800 0.472137
0.562493 0.362800 0.548569
0.562493 0.362800 0.630208
0.562493 0.362800 0.717054
0.562493 0.362800 0.809107
0.562493 0.440782 0.218480
0.562493 0.440782 0.274084
0.562493 0.440782 0.334895
0.562493 0.440782 0.400912
0.562493 0.440782 0.472137
0.562493 0.440782 0.548569
0.562493 0.440782 0.630208
0.562493 0.440782 0.717054
0.562493 0.440782 0.809107
0.562493 0.525488 0.218480
0.562493 0.525488 0.274084
0.562493 0.525488 0.334895
0.562493 0.525488 0.400912
0.562493 0.525488 0.472137
0.562493 0.525488 0.548569
0.562493 0.525488 0.630208
0.562493 0.525488 0.717054
0.562493 0.525488 0.809107
0.562493 0.616918 0.218480
0.562493 0.616918 0.274084
0.562493 0.616918 0.334895
0.562493 0.616918 0.400912
0.562493 0.616918 0.472137
0.562493 0.616918 0.548569
0.562493 0.616918 0.630208
0.562493 0.616918 0.717054
0.562493 0.616918 0.809107
0.562493 0.715072 0.218480
0.562493 0.715072 0.274084
0.562493 0.715072 0.334895
0.562493 0.715072 0.400912
0.562493 0.715072 0.472137
0.562493 0.715072 0.548569
0.562493 0.715072 0.630208
0.562493 0.715072 0.717054
0.562493 0.715072 0.809107
0.562493 0.819950 0.218480
0.562493 0.819950 0.274084
0.562493 0.819950 0.334895
0.562493 0.819950 0.400912
0.562493 0.819950 0.472137
0.562493 0.819950 0.548569
0.562493 0.819950 0.630208
0.562493 0.819950 0.717054
0.562493 0.819950 0.809107
0.562493 0.931552 0.218480
0.562493 0.931552 0.274084
0.562493 0.931552 0.334895
0.562493 0.931552 0.400912
0.562493 0.931552 0.472137
0.562493 0.931552 0.548569
0.562493 0.931552 0.630208
0.562493 0.931552 0.717054
0.562493 0.931552 0.809107
0.664532 0.227008 0.218480
0.664532 0.227008 0.274084
0.664532 0.227008 0.334895
0.664532 0.227008 0.400912
0.664532 0.227008 0.472137
0.664532 0.227008 0.548569
0.664532 0.227008 0.630208
0.664532 0.227008 0.717054
0.664532 0.227008 0.809107
0.664532 0.291542 0.218480
0.664532 0.291542 0.274084
0.664532 0.291542 0.334895
0.664532 0.291542 0.400912
0.664532 0.291542 0.472137
0.664532 0.291542 0.548569
0.664532 0.291542 0.630208
0.664532 0.291542 0.717054
0.664532 0.291542 0.809107
0.664532 0.362800 0.218480
0.664532 0.362800 0.274084
0.664532 0.362800 0.334895
0.664532 0.362800 0.400912
0.664532 0.362800 0.472137
0.664532 0.362800 0.548569
0.664532 0.362800 0.630208
0.664532 0.362800 0.717054
0.664532 0.362800 0.809107
0.664532 0.440782 0.218480
0.664532 0.440782 0.274084
0.664532 0.440782 0.334895
0.664532 0.440782 0.400912
0.664532 0.440782 0.472137
0.664532 0.440782 0.548569
0.664532 0.440782 0.630208
0.664532 0.440782 0.717054
0.664532 0.440782 0.809107
0.664532 0.525488 0.218480
0.664532 0.525488 0.274084
0.664532 0.525488 0.334895
0.664532 0.525488 0.400912
0.664532 0.525488 0.472137
0.664532 0.525488 0.548569
0.664532 0.525488 0.630208
0.664532 0.525488 0.717054
0.664532 0.525488 0.809107
0.664532 0.616918 0.218480
0.664532 0.616918 0.274084
0.664532 0.616918 0.334895
0.664532 0.616918 0.400912
0.664532 0.616918 0.472137
0.664532 0.616918 0.548569
0.664532 0.616918 0.630208
0.664532 0.616918 0.717054
0.664532 0.616918 0.809107
0.664532 0.715072 0.218480
0.664532 0.715072 0.274084
0.664532 0.715072 0.334895
0.664532 0.715072 0.400912
0.664532 0.715072 0.472137
0.664532 0.715072 0.548569
0.664532 0.715072 0.630208
0.664532 0.715072 0.717054
0.664532 0.715072 0.809107
0.664532 0.819950 0.218480
0.664532 0.819950 0.274084
0.664532 0.819950 0.334895
0.664532 0.819950 0.400912
0.664532 0.819950 0.472137
0.664532 0.819950 0.548569
0.664532 0.819950 0.630208
0.664532 0.819950 0.717054
0.664532 0.819950 0.809107
0.664532 0.931552 0.218480
0.664532 0.931552 0.274084
0.664532 0.931552 0.334895
0.664532 0.931552 0.400912
0.664532 0.931552 0.472137
0.664532 0.931552 0.548569
0.664532 0.931552 0.630208
0.664532 0.931552 0.717054
0.664532 0.931552 0.809107
0.774414 0.227008 0.218480
0.774414 0.227008 0.274084
0.774414 0.227008 0.334895
0.774414 0.227008 0.400912
0.774414 0.227008 0.472137
0.774414 0.227008 0.548569
0.774414 0.227008 0.630208
0.774414 0.227008 0.717054
0.774414 0.227008 0.809107
0.774414 0.291542 0.218480
0.774414 0.291542 0.274084
0.774414 0.291542 0.334895
0.774414 0.291542 0.400912
0.774414 0.291542 0.472137
0.774414 0.291542 0.548569
0.774414 0.291542 0.630208
0.774414 0.291542 0.717054
0.774414 0.291542 0.809107
0.774414 0.362800 0.218480
0.774414 0.362800 0.274084
0.774414 0.362800 0.334895
0.774414 0.362800 0.400912
0.774414 0.362800 0.472137
0.774414 0.362800 0.548569
0.774414 0.362800 0.630208
0.774414 0.362800 0.717054
0.774414 0.362800 0.809107
0.774414 0.440782 0.218480
0.774414 0.440782 0.274084
0.774414 0.440782 0.334895
0.774414 0.440782 0.400912
0.774414 0.440782 0.472137
0.774414 0.440782 0.548569
0.774414 0.440782 0.630208
0.774414 0.440782 0.717054
0.774414 0.440782 0.809107
0.774414 0.525488 0.218480
0.774414 0.525488 0.274084
0.774414 0.525488 0.334895
0.774414 0.525488 0.400912
0.774414 0.525488 0.472137
0.774414 0.525488 0.548569
0.774414 0.525488 0.630208
0.774414 0.525488 0.717054
0.774414 0.525488 0.809107
0.774414 0.616918 0.218480
0.774414 0.616918 0.274084
0.774414 0.616918 0.334895
0.774414 0.616918 0.400912
0.774414 0.616918 0.472137
0.774414 0.616918 0.548569
0.774414 0.616918 0.630208
0.774414 0.616918 0.717054
0.774414 0.616918 0.809107
0.774414 0.715072 0.218480
0.774414 0.715072 0.274084
0.774414 0.715072 0.334895
0.774414 0.715072 0.400912
0.774414 0.715072 0.472137
0.774414 0.715072 0.548569
0.774414 0.715072 0.630208
0.774414 0.715072 0.717054
0.774414 0.715072 0.809107
0.774414 0.819950 0.218480
0.774414 0.819950 0.274084
0.774414 0.819950 0.334895
0.774414 0.819950 0.400912
0.774414 0.819950 0.472137
0.774414 0.819950 0.548569
0.774414 0.819950 0.630208
0.774414 0.819950 0.717054
0.774414 0.819950 0.809107
0.774414 0.931552 0.218480
0.774414 0.931552 0.274084
0.774414 0.931552 0.334895
0.774414 0.931552 0.400912
0.774414 0.931552 0.472137
0.774414 0.931552 0.548569
0.774414 0.931552 0.630208
0.774414 0.931552 0.717054
0.774414 0.931552 0.809107
0.892138 0.227008 0.218480
0.892138 0.227008 0.274084
0.892138 0.227008 0.334895
0.892138 0.227008 0.400912
0.892138 0.227008 0.472137
0.892138 0.227008 0.548569
0.892138 0.227008 0.630208
0.892138 0.227008 0.717054
0.892138 0.227008 0.809107
0.892138 0.291542 0.218480
0.892138 0.291542 0.274084
0.892138 0.291542 0.334895
0.892138 0.291542 0.400912
0.892138 0.291542 0.472137
0.892138 0.291542 0.548569
0.892138 0.291542 0.630208
0.892138 0.291542 0.717054
0.892138 0.291542 0.809107
0.892138 0.362800 0.218480
0.892138 0.362800 0.274084
0.892138 0.362800 0.334895
0.892138 0.362800 0.400912
0.892138 0.362800 0.472137
0.892138 0.362800 0.548569
0.892138 0.362800 0.630208
0.892138 0.362800 0.717054
0.892138 0.362800 0.809107
0.892138 0.440782 0.218480
0.892138 0.440782 0.274084
0.892138 0.440782 0.334895
0.892138 0.440782 0.400912
0.892138 0.440782 0.472137
0.892138 0.440782 0.548569
0.892138 0.440782 0.630208
0.892138 0.440782 0.717054
0.892138 0.440782 0.809107
0.892138 0.525488 0.218480
0.892138 0.525488 0.274084
0.892138 0.525488 0.334895
0.892138 0.525488 0.400912
0.892138 0.525488 0.472137
0.892138 0.525488 0.548569
0.892138 0.525488 0.630208
0.892138 0.525488 0.717054
0.892138 0.525488 0.809107
0.892138 0.616918 0.218480
0.892138 0.616918 0.274084
0.892138 0.616918 0.334895
0.892138 0.616918 0.400912
0.892138 0.616918 0.472137
0.892138 0.616918 0.548569
0.892138 0.616918 0.630208
0.892138 0.616918 0.717054
0.892138 0.616918 0.809107
0.892138 0.715072 0.218480
0.892138 0.715072 0.274084
0.892138 0.715072 0.334895
0.892138 0.715072 0.400912
0.892138 0.715072 0.472137
0.892138 0.715072 0.548569
0.892138 0.715072 0.630208
0.892138 0.715072 0.717054
0.892138 0.715072 0.809107
0.892138 0.819950 0.218480
0.892138 0.819950 0.274084
0.892138 0.819950 0.334895
0.892138 0.819950 0.400912
0.892138 0.819950 0.472137
0.892138 0.819950 0.548569
0.892138 0.819950 0.630208
0.892138 0.819950 0.717054
0.892138 0.819950 0.809107
0.892138 0.931552 0.218480
0.892138 0.931552 0.274084
0.892138 0.931552 0.334895
0.892138 0.931552 0.400912
0.892138 0.931552 0.472137
0.892138 0.931552 0.548569
0.892138 0.931552 0.630208
0.892138 0.931552 0.717054
0.892138 0.931552 0.809107
1.000000 0.227008 0.218480
1.000000 0.227008 0.274084
1.000000 0.227008 0.334895
1.000000 0.227008 0.400912
1.000000 0.227008 0.472137
1.000000 0.227008 0.548569
1.000000 0.227008 0.630208
1.000000 0.227008 0.717054
1.000000 0.227008 0.809107
1.000000 0.291542 0.218480
1.000000 0.291542 0.274084
1.000000 0.291542 0.334895
1.000000 0.291542 0.400912
1.000000 0.291542 0.472137
1.000000 0.291542 0.548569
1.000000 0.291542 0.630208
1.000000 0.291542 0.717054
1.000000 0.291542 0.809107
1.000000 0.362800 0.218480
1.000000 0.362800 0.274084
1.000000 0.362800 0.334895
1.000000 0.362800 0.400912
1.000000 0.362800 0.472137
1.000000 0.362800 0.548569
1.000000 0.362800 0.630208
1.000000 0.362800 0.717054
1.000000 0.362800 0.809107
1.000000 0.440782 0.218480
1.000000 0.440782 0.274084
1.000000 0.440782 0.334895
1.000000 0.440782 0.400912
1.000000 0.440782 0.472137
1.000000 0.440782 0.548569
1.000000 0.440782 0.630208
1.000000 0.440782 0.717054
1.000000 0.440782 0.809107
1.000000 0.525488 0.218480
1.000000 0.525488 0.274084
1.000000 0.525488 0.334895
1.000000 0.525488 0.400912
1.000000 0.525488 0.472137
1.000000 0.525488 0.548569
1.000000 0.525488 0.630208
1.000000 0.525488 0.717054
1.000000 0.525488 0.809107
1.000000 0.616918 0.218480
1.000000 0.616918 0.274084
1.000000 0.616918 0.334895
1.000000 0.616918 0.400912
1.000000 0.616918 0.472137
1.000000 0.616918 0.548569
1.000000 0.616918 0.630208
1.000000 0.616918 0.717054
1.000000 0.616918 0.809107
1.000000 0.715072 0.218480
1.000000 0.715072 0.274084
1.000000 0.715072 0.334895
1.000000 0.715072 0.400912
1.000000 0.715072 0.472137
1.000000 0.715072 0.548569
1.000000 0.715072 0.630208
1.000000 0.715072 0.717054
1.000000 0.715072 0.809107
1.000000 0.819950 0.218480
1.000000 0.819950 0.274084
1.000000 0.819950 0.334895
1.000000 0.819950 0.400912
1.000000 0.819950 0.472137
1.000000 0.819950 0.548569
1.000000 0.819950 0.630208
1.000000 0.819950 0.717054
1.000000 0.819950 0.809107
1.000000 0.931552 0.218480
1.000000 0.931552 0.274084
1.000000 0.931552 0.334895
1.000000 0.931552 0.400912
1.000000 0.931552 0.472137
1.000000 0.931552 0.548569
1.000000 0.931552 0.630208
1.000000 0.931552 0.717054
1.000000 0.931552 0.809107
