app/luts/vintage_fade.cube
TITLE "复古褪色"
# StyleForge original LUT. Cube format compatible with CubeLUT.cn / Premiere.
LUT_3D_SIZE 5
DOMAIN_MIN 0.0 0.0 0.0
DOMAIN_MAX 1.0 1.0 1.0
0.232767 0.227008 0.218480
0.232767 0.227008 0.334895
0.232767 0.227008 0.472137
0.232767 0.227008 0.630208
0.232767 0.227008 0.809107
0.232767 0.362800 0.218480
0.232767 0.362800 0.334895
0.232767 0.362800 0.472137
0.232767 0.362800 0.630208
0.232767 0.362800 0.809107
0.232767 0.525488 0.218480
0.232767 0.525488 0.334895
0.232767 0.525488 0.472137
0.232767 0.525488 0.630208
0.232767 0.525488 0.809107
0.232767 0.715072 0.218480
0.232767 0.715072 0.334895
0.232767 0.715072 0.472137
0.232767 0.715072 0.630208
0.232767 0.715072 0.809107
0.232767 0.931552 0.218480
0.232767 0.931552 0.334895
0.232767 0.931552 0.472137
0.232767 0.931552 0.630208
0.232767 0.931552 0.809107
0.381944 0.227008 0.218480
0.381944 0.227008 0.334895
0.381944 0.227008 0.472137
0.381944 0.227008 0.630208
0.381944 0.227008 0.809107
0.381944 0.362800 0.218480
0.381944 0.362800 0.334895
0.381944 0.362800 0.472137
0.381944 0.362800 0.630208
0.381944 0.362800 0.809107
0.381944 0.525488 0.218480
0.381944 0.525488 0.334895
0.381944 0.525488 0.472137
0.381944 0.525488 0.630208
0.381944 0.525488 0.809107
0.381944 0.715072 0.218480
0.381944 0.715072 0.334895
0.381944 0.715072 0.472137
0.381944 0.715072 0.630208
0.381944 0.715072 0.809107
0.381944 0.931552 0.218480
0.381944 0.931552 0.334895
0.381944 0.931552 0.472137
0.381944 0.931552 0.630208
0.381944 0.931552 0.809107
0.562493 0.227008 0.218480
0.562493 0.227008 0.334895
0.562493 0.227008 0.472137
0.562493 0.227008 0.630208
0.562493 0.227008 0.809107
0.562493 0.362800 0.218480
0.562493 0.362800 0.334895
0.562493 0.362800 0.472137
0.562493 0.362800 0.630208
0.562493 0.362800 0.809107
0.562493 0.525488 0.218480
0.562493 0.525488 0.334895
0.562493 0.525488 0.472137
0.562493 0.525488 0.630208
0.562493 0.525488 0.809107
0.562493 0.715072 0.218480
0.562493 0.715072 0.334895
0.562493 0.715072 0.472137
0.562493 0.715072 0.630208
0.562493 0.715072 0.809107
0.562493 0.931552 0.218480
0.562493 0.931552 0.334895
0.562493 0.931552 0.472137
0.562493 0.931552 0.630208
0.562493 0.931552 0.809107
0.774414 0.227008 0.218480
0.774414 0.227008 0.334895
0.774414 0.227008 0.472137
0.774414 0.227008 0.630208
0.774414 0.227008 0.809107
0.774414 0.362800 0.218480
0.774414 0.362800 0.334895
0.774414 0.362800 0.472137
0.774414 0.362800 0.630208
0.774414 0.362800 0.809107
0.774414 0.525488 0.218480
0.774414 0.525488 0.334895
0.774414 0.525488 0.472137
0.774414 0.525488 0.630208
0.774414 0.525488 0.809107
0.774414 0.715072 0.218480
0.774414 0.715072 0.334895
0.774414 0.715072 0.472137
0.774414 0.715072 0.630208
0.774414 0.715072 0.809107
0.774414 0.931552 0.218480
0.774414 0.931552 0.334895
0.774414 0.931552 0.472137
0.774414 0.931552 0.630208
0.774414 0.931552 0.809107
1.000000 0.227008 0.218480
1.000000 0.227008 0.334895
1.000000 0.227008 0.472137
1.000000 0.227008 0.630208
1.000000 0.227008 0.809107
1.000000 0.362800 0.218480
1.000000 0.362800 0.334895
1.000000 0.362800 0.472137
1.000000 0.362800 0.630208
1.000000 0.362800 0.809107
1.000000 0.525488 0.218480
1.000000 0.525488 0.334895
1.000000 0.525488 0.472137
1.000000 0.525488 0.630208
1.000000 0.525488 0.809107
1.000000 0.715072 0.218480
1.000000 0.715072 0.334895
1.000000 0.715072 0.472137
1.000000 0.715072 0.630208
1.000000 0.715072 0.809107
1.000000 0.931552 0.218480
1.000000 0.931552 0.334895
1.000000 0.931552 0.472137
1.000000 0.931552 0.630208
1.000000 0.931552 0.809107
